; Generated with Voxelizer 2
;; { "info": [
;;         { "toolhead": "Laser" },
;;         { "workflow": "laser cutting" },
;;         { "voxelizer_version": "v2.0.0-macOS-1-g90eaae" },
;;         { "voxel_size": 0.23999999463558197 },
;;         { "printing_time": "3min 1s " },
;;         { "printer": "ZMorph VX" },
;;         { "material_gravity_x": "Left" },
;;         { "material_gravity_y": "Front" },
;;         { "material_size_x": 115.0 },
;;         { "material_size_y": 70.0 },
;;         { "material_size_z": 3.0 }
;;     ] }
G90
G0 X56.390 Y36.698 Z0.000 F1200.000
G0 X56.390 Y36.698 Z-0.000 F1200.000
G1 X56.390 Y36.698 Z-0.000 F780.000
G1 X56.390 Y36.698 Z-0.000 F780.000
G1 X56.385 Y36.634 Z-0.000 F780.000
G1 X56.370 Y36.572 Z-0.000 F780.000
G1 X56.345 Y36.513 Z-0.000 F780.000
G1 X56.310 Y36.458 Z-0.000 F780.000
G1 X56.267 Y36.410 Z-0.000 F780.000
G1 X56.218 Y36.369 Z-0.000 F780.000
G1 X56.162 Y36.337 Z-0.000 F780.000
G1 X56.102 Y36.314 Z-0.000 F780.000
G1 X56.039 Y36.301 Z-0.000 F780.000
G1 X55.974 Y36.299 Z-0.000 F780.000
G1 X55.910 Y36.306 Z-0.000 F780.000
G1 X55.849 Y36.324 Z-0.000 F780.000
G1 X55.790 Y36.352 Z-0.000 F780.000
G1 X55.737 Y36.389 Z-0.000 F780.000
G1 X55.691 Y36.433 Z-0.000 F780.000
G1 X55.652 Y36.485 Z-0.000 F780.000
G1 X55.622 Y36.542 Z-0.000 F780.000
G1 X55.602 Y36.603 Z-0.000 F780.000
G1 X55.592 Y36.666 Z-0.000 F780.000
G1 X55.592 Y36.731 Z-0.000 F780.000
G1 X55.602 Y36.794 Z-0.000 F780.000
G1 X55.622 Y36.855 Z-0.000 F780.000
G1 X55.652 Y36.912 Z-0.000 F780.000
G1 X55.691 Y36.964 Z-0.000 F780.000
G1 X55.737 Y37.008 Z-0.000 F780.000
G1 X55.790 Y37.045 Z-0.000 F780.000
G1 X55.849 Y37.072 Z-0.000 F780.000
G1 X55.910 Y37.090 Z-0.000 F780.000
G1 X55.974 Y37.098 Z-0.000 F780.000
G1 X56.039 Y37.095 Z-0.000 F780.000
G1 X56.102 Y37.083 Z-0.000 F780.000
G1 X56.162 Y37.060 Z-0.000 F780.000
G1 X56.218 Y37.028 Z-0.000 F780.000
G1 X56.267 Y36.987 Z-0.000 F780.000
G1 X56.310 Y36.939 Z-0.000 F780.000
G1 X56.345 Y36.884 Z-0.000 F780.000
G1 X56.370 Y36.825 Z-0.000 F780.000
G1 X56.385 Y36.763 Z-0.000 F780.000
G1 X56.390 Y36.698 Z-0.000 F780.000
G4 P10.000
G0 X56.390 Y36.698 Z0.100 F300.000
G0 X53.845 Y36.707 Z0.100 F1200.000
G0 X53.845 Y36.707 Z-0.000 F300.000
G1 X53.845 Y36.707 Z-0.000 F780.000
G1 X53.845 Y36.707 Z-0.000 F780.000
G1 X53.840 Y36.643 Z-0.000 F780.000
G1 X53.825 Y36.581 Z-0.000 F780.000
G1 X53.799 Y36.521 Z-0.000 F780.000
G1 X53.765 Y36.467 Z-0.000 F780.000
G1 X53.722 Y36.419 Z-0.000 F780.000
G1 X53.672 Y36.378 Z-0.000 F780.000
G1 X53.617 Y36.346 Z-0.000 F780.000
G1 X53.556 Y36.323 Z-0.000 F780.000
G1 X53.493 Y36.310 Z-0.000 F780.000
G1 X53.429 Y36.308 Z-0.000 F780.000
G1 X53.365 Y36.315 Z-0.000 F780.000
G1 X53.303 Y36.333 Z-0.000 F780.000
G1 X53.245 Y36.361 Z-0.000 F780.000
G1 X53.192 Y36.397 Z-0.000 F780.000
G1 X53.146 Y36.442 Z-0.000 F780.000
G1 X53.107 Y36.493 Z-0.000 F780.000
G1 X53.077 Y36.550 Z-0.000 F780.000
G1 X53.057 Y36.611 Z-0.000 F780.000
G1 X53.046 Y36.675 Z-0.000 F780.000
G1 X53.046 Y36.739 Z-0.000 F780.000
G1 X53.057 Y36.803 Z-0.000 F780.000
G1 X53.077 Y36.864 Z-0.000 F780.000
G1 X53.107 Y36.921 Z-0.000 F780.000
G1 X53.146 Y36.972 Z-0.000 F780.000
G1 X53.192 Y37.017 Z-0.000 F780.000
G1 X53.245 Y37.054 Z-0.000 F780.000
G1 X53.303 Y37.081 Z-0.000 F780.000
G1 X53.365 Y37.099 Z-0.000 F780.000
G1 X53.429 Y37.107 Z-0.000 F780.000
G1 X53.493 Y37.104 Z-0.000 F780.000
G1 X53.556 Y37.091 Z-0.000 F780.000
G1 X53.617 Y37.069 Z-0.000 F780.000
G1 X53.672 Y37.036 Z-0.000 F780.000
G1 X53.722 Y36.996 Z-0.000 F780.000
G1 X53.765 Y36.947 Z-0.000 F780.000
G1 X53.799 Y36.893 Z-0.000 F780.000
G1 X53.825 Y36.834 Z-0.000 F780.000
G1 X53.840 Y36.771 Z-0.000 F780.000
G1 X53.845 Y36.707 Z-0.000 F780.000
G4 P10.000
G0 X53.845 Y36.707 Z0.100 F300.000
G0 X51.302 Y36.682 Z0.100 F1200.000
G0 X51.302 Y36.682 Z-0.000 F300.000
G1 X51.302 Y36.682 Z-0.000 F780.000
G1 X51.302 Y36.682 Z-0.000 F780.000
G1 X51.297 Y36.618 Z-0.000 F780.000
G1 X51.281 Y36.555 Z-0.000 F780.000
G1 X51.256 Y36.496 Z-0.000 F780.000
G1 X51.222 Y36.441 Z-0.000 F780.000
G1 X51.179 Y36.393 Z-0.000 F780.000
G1 X51.129 Y36.353 Z-0.000 F780.000
G1 X51.073 Y36.320 Z-0.000 F780.000
G1 X51.013 Y36.298 Z-0.000 F780.000
G1 X50.950 Y36.285 Z-0.000 F780.000
G1 X50.886 Y36.282 Z-0.000 F780.000
G1 X50.822 Y36.290 Z-0.000 F780.000
G1 X50.760 Y36.308 Z-0.000 F780.000
G1 X50.702 Y36.335 Z-0.000 F780.000
G1 X50.649 Y36.372 Z-0.000 F780.000
G1 X50.602 Y36.416 Z-0.000 F780.000
G1 X50.564 Y36.468 Z-0.000 F780.000
G1 X50.534 Y36.525 Z-0.000 F780.000
G1 X50.513 Y36.586 Z-0.000 F780.000
G1 X50.503 Y36.650 Z-0.000 F780.000
G1 X50.503 Y36.714 Z-0.000 F780.000
G1 X50.513 Y36.777 Z-0.000 F780.000
G1 X50.534 Y36.838 Z-0.000 F780.000
G1 X50.564 Y36.895 Z-0.000 F780.000
G1 X50.602 Y36.947 Z-0.000 F780.000
G1 X50.649 Y36.992 Z-0.000 F780.000
G1 X50.702 Y37.028 Z-0.000 F780.000
G1 X50.760 Y37.056 Z-0.000 F780.000
G1 X50.822 Y37.074 Z-0.000 F780.000
G1 X50.886 Y37.081 Z-0.000 F780.000
G1 X50.950 Y37.079 Z-0.000 F780.000
G1 X51.013 Y37.066 Z-0.000 F780.000
G1 X51.073 Y37.043 Z-0.000 F780.000
G1 X51.129 Y37.011 Z-0.000 F780.000
G1 X51.179 Y36.970 Z-0.000 F780.000
G1 X51.222 Y36.922 Z-0.000 F780.000
G1 X51.256 Y36.868 Z-0.000 F780.000
G1 X51.281 Y36.808 Z-0.000 F780.000
G1 X51.297 Y36.746 Z-0.000 F780.000
G1 X51.302 Y36.682 Z-0.000 F780.000
G4 P10.000
G0 X51.302 Y36.682 Z0.100 F300.000
G0 X48.791 Y36.724 Z0.100 F1200.000
G0 X48.791 Y36.724 Z-0.000 F300.000
G1 X48.791 Y36.724 Z-0.000 F780.000
G1 X48.791 Y36.724 Z-0.000 F780.000
G1 X48.786 Y36.660 Z-0.000 F780.000
G1 X48.771 Y36.597 Z-0.000 F780.000
G1 X48.746 Y36.538 Z-0.000 F780.000
G1 X48.711 Y36.484 Z-0.000 F780.000
G1 X48.668 Y36.435 Z-0.000 F780.000
G1 X48.619 Y36.395 Z-0.000 F780.000
G1 X48.563 Y36.363 Z-0.000 F780.000
G1 X48.503 Y36.340 Z-0.000 F780.000
G1 X48.440 Y36.327 Z-0.000 F780.000
G1 X48.375 Y36.324 Z-0.000 F780.000
G1 X48.311 Y36.332 Z-0.000 F780.000
G1 X48.250 Y36.350 Z-0.000 F780.000
G1 X48.191 Y36.377 Z-0.000 F780.000
G1 X48.138 Y36.414 Z-0.000 F780.000
G1 X48.092 Y36.459 Z-0.000 F780.000
G1 X48.053 Y36.510 Z-0.000 F780.000
G1 X48.023 Y36.567 Z-0.000 F780.000
G1 X48.003 Y36.628 Z-0.000 F780.000
G1 X47.993 Y36.692 Z-0.000 F780.000
G1 X47.993 Y36.756 Z-0.000 F780.000
G1 X48.003 Y36.820 Z-0.000 F780.000
G1 X48.023 Y36.881 Z-0.000 F780.000
G1 X48.053 Y36.938 Z-0.000 F780.000
G1 X48.092 Y36.989 Z-0.000 F780.000
G1 X48.138 Y37.034 Z-0.000 F780.000
G1 X48.191 Y37.070 Z-0.000 F780.000
G1 X48.250 Y37.098 Z-0.000 F780.000
G1 X48.311 Y37.116 Z-0.000 F780.000
G1 X48.375 Y37.124 Z-0.000 F780.000
G1 X48.440 Y37.121 Z-0.000 F780.000
G1 X48.503 Y37.108 Z-0.000 F780.000
G1 X48.563 Y37.085 Z-0.000 F780.000
G1 X48.619 Y37.053 Z-0.000 F780.000
G1 X48.668 Y37.012 Z-0.000 F780.000
G1 X48.711 Y36.964 Z-0.000 F780.000
G1 X48.746 Y36.910 Z-0.000 F780.000
G1 X48.771 Y36.851 Z-0.000 F780.000
G1 X48.786 Y36.788 Z-0.000 F780.000
G1 X48.791 Y36.724 Z-0.000 F780.000
G4 P10.000
G0 X48.791 Y36.724 Z0.100 F300.000
G0 X46.260 Y36.675 Z0.100 F1200.000
G0 X46.260 Y36.675 Z-0.000 F300.000
G1 X46.260 Y36.675 Z-0.000 F780.000
G1 X46.260 Y36.675 Z-0.000 F780.000
G1 X46.255 Y36.611 Z-0.000 F780.000
G1 X46.239 Y36.548 Z-0.000 F780.000
G1 X46.214 Y36.489 Z-0.000 F780.000
G1 X46.179 Y36.435 Z-0.000 F780.000
G1 X46.137 Y36.387 Z-0.000 F780.000
G1 X46.087 Y36.346 Z-0.000 F780.000
G1 X46.031 Y36.314 Z-0.000 F780.000
G1 X45.971 Y36.291 Z-0.000 F780.000
G1 X45.908 Y36.278 Z-0.000 F780.000
G1 X45.844 Y36.275 Z-0.000 F780.000
G1 X45.780 Y36.283 Z-0.000 F780.000
G1 X45.718 Y36.301 Z-0.000 F780.000
G1 X45.660 Y36.329 Z-0.000 F780.000
G1 X45.607 Y36.365 Z-0.000 F780.000
G1 X45.560 Y36.410 Z-0.000 F780.000
G1 X45.522 Y36.461 Z-0.000 F780.000
G1 X45.492 Y36.518 Z-0.000 F780.000
G1 X45.471 Y36.579 Z-0.000 F780.000
G1 X45.461 Y36.643 Z-0.000 F780.000
G1 X45.461 Y36.707 Z-0.000 F780.000
G1 X45.471 Y36.771 Z-0.000 F780.000
G1 X45.492 Y36.832 Z-0.000 F780.000
G1 X45.522 Y36.889 Z-0.000 F780.000
G1 X45.560 Y36.940 Z-0.000 F780.000
G1 X45.607 Y36.985 Z-0.000 F780.000
G1 X45.660 Y37.021 Z-0.000 F780.000
G1 X45.718 Y37.049 Z-0.000 F780.000
G1 X45.780 Y37.067 Z-0.000 F780.000
G1 X45.844 Y37.075 Z-0.000 F780.000
G1 X45.908 Y37.072 Z-0.000 F780.000
G1 X45.971 Y37.059 Z-0.000 F780.000
G1 X46.031 Y37.036 Z-0.000 F780.000
G1 X46.087 Y37.004 Z-0.000 F780.000
G1 X46.137 Y36.964 Z-0.000 F780.000
G1 X46.179 Y36.915 Z-0.000 F780.000
G1 X46.214 Y36.861 Z-0.000 F780.000
G1 X46.239 Y36.802 Z-0.000 F780.000
G1 X46.255 Y36.739 Z-0.000 F780.000
G1 X46.260 Y36.675 Z-0.000 F780.000
G4 P10.000
G0 X46.260 Y36.675 Z0.100 F300.000
G0 X43.674 Y36.704 Z0.100 F1200.000
G0 X43.674 Y36.704 Z-0.000 F300.000
G1 X43.674 Y36.704 Z-0.000 F780.000
G1 X43.674 Y36.704 Z-0.000 F780.000
G1 X43.669 Y36.640 Z-0.000 F780.000
G1 X43.653 Y36.578 Z-0.000 F780.000
G1 X43.628 Y36.518 Z-0.000 F780.000
G1 X43.593 Y36.464 Z-0.000 F780.000
G1 X43.551 Y36.416 Z-0.000 F780.000
G1 X43.501 Y36.375 Z-0.000 F780.000
G1 X43.445 Y36.343 Z-0.000 F780.000
G1 X43.385 Y36.320 Z-0.000 F780.000
G1 X43.322 Y36.307 Z-0.000 F780.000
G1 X43.258 Y36.305 Z-0.000 F780.000
G1 X43.194 Y36.312 Z-0.000 F780.000
G1 X43.132 Y36.330 Z-0.000 F780.000
G1 X43.074 Y36.358 Z-0.000 F780.000
G1 X43.021 Y36.395 Z-0.000 F780.000
G1 X42.974 Y36.439 Z-0.000 F780.000
G1 X42.936 Y36.491 Z-0.000 F780.000
G1 X42.906 Y36.548 Z-0.000 F780.000
G1 X42.885 Y36.609 Z-0.000 F780.000
G1 X42.875 Y36.672 Z-0.000 F780.000
G1 X42.875 Y36.737 Z-0.000 F780.000
G1 X42.885 Y36.800 Z-0.000 F780.000
G1 X42.906 Y36.861 Z-0.000 F780.000
G1 X42.936 Y36.918 Z-0.000 F780.000
G1 X42.974 Y36.970 Z-0.000 F780.000
G1 X43.021 Y37.014 Z-0.000 F780.000
G1 X43.074 Y37.051 Z-0.000 F780.000
G1 X43.132 Y37.078 Z-0.000 F780.000
G1 X43.194 Y37.096 Z-0.000 F780.000
G1 X43.258 Y37.104 Z-0.000 F780.000
G1 X43.322 Y37.101 Z-0.000 F780.000
G1 X43.385 Y37.089 Z-0.000 F780.000
G1 X43.445 Y37.066 Z-0.000 F780.000
G1 X43.501 Y37.034 Z-0.000 F780.000
G1 X43.551 Y36.993 Z-0.000 F780.000
G1 X43.593 Y36.945 Z-0.000 F780.000
G1 X43.628 Y36.890 Z-0.000 F780.000
G1 X43.653 Y36.831 Z-0.000 F780.000
G1 X43.669 Y36.769 Z-0.000 F780.000
G1 X43.674 Y36.704 Z-0.000 F780.000
G4 P10.000
G0 X43.674 Y36.704 Z0.100 F300.000
G0 X41.115 Y36.686 Z0.100 F1200.000
G0 X41.115 Y36.686 Z-0.000 F300.000
G1 X41.115 Y36.686 Z-0.000 F780.000
G1 X41.115 Y36.686 Z-0.000 F780.000
G1 X41.110 Y36.622 Z-0.000 F780.000
G1 X41.095 Y36.559 Z-0.000 F780.000
G1 X41.069 Y36.500 Z-0.000 F780.000
G1 X41.035 Y36.446 Z-0.000 F780.000
G1 X40.992 Y36.398 Z-0.000 F780.000
G1 X40.942 Y36.357 Z-0.000 F780.000
G1 X40.887 Y36.325 Z-0.000 F780.000
G1 X40.827 Y36.302 Z-0.000 F780.000
G1 X40.763 Y36.289 Z-0.000 F780.000
G1 X40.699 Y36.286 Z-0.000 F780.000
G1 X40.635 Y36.294 Z-0.000 F780.000
G1 X40.573 Y36.312 Z-0.000 F780.000
G1 X40.515 Y36.340 Z-0.000 F780.000
G1 X40.462 Y36.376 Z-0.000 F780.000
G1 X40.416 Y36.421 Z-0.000 F780.000
G1 X40.377 Y36.472 Z-0.000 F780.000
G1 X40.347 Y36.529 Z-0.000 F780.000
G1 X40.327 Y36.590 Z-0.000 F780.000
G1 X40.317 Y36.654 Z-0.000 F780.000
G1 X40.317 Y36.718 Z-0.000 F780.000
G1 X40.327 Y36.782 Z-0.000 F780.000
G1 X40.347 Y36.843 Z-0.000 F780.000
G1 X40.377 Y36.900 Z-0.000 F780.000
G1 X40.416 Y36.951 Z-0.000 F780.000
G1 X40.462 Y36.996 Z-0.000 F780.000
G1 X40.515 Y37.032 Z-0.000 F780.000
G1 X40.573 Y37.060 Z-0.000 F780.000
G1 X40.635 Y37.078 Z-0.000 F780.000
G1 X40.699 Y37.086 Z-0.000 F780.000
G1 X40.763 Y37.083 Z-0.000 F780.000
G1 X40.827 Y37.070 Z-0.000 F780.000
G1 X40.887 Y37.047 Z-0.000 F780.000
G1 X40.942 Y37.015 Z-0.000 F780.000
G1 X40.992 Y36.975 Z-0.000 F780.000
G1 X41.035 Y36.926 Z-0.000 F780.000
G1 X41.069 Y36.872 Z-0.000 F780.000
G1 X41.095 Y36.813 Z-0.000 F780.000
G1 X41.110 Y36.750 Z-0.000 F780.000
G1 X41.115 Y36.686 Z-0.000 F780.000
G4 P10.000
G0 X41.115 Y36.686 Z0.100 F300.000
G0 X56.409 Y26.470 Z0.100 F1200.000
G0 X56.409 Y26.470 Z-0.000 F300.000
G1 X56.409 Y26.470 Z-0.000 F780.000
G1 X56.409 Y26.470 Z-0.000 F780.000
G1 X56.404 Y26.405 Z-0.000 F780.000
G1 X56.389 Y26.343 Z-0.000 F780.000
G1 X56.363 Y26.284 Z-0.000 F780.000
G1 X56.329 Y26.229 Z-0.000 F780.000
G1 X56.286 Y26.181 Z-0.000 F780.000
G1 X56.236 Y26.140 Z-0.000 F780.000
G1 X56.181 Y26.108 Z-0.000 F780.000
G1 X56.120 Y26.085 Z-0.000 F780.000
G1 X56.057 Y26.072 Z-0.000 F780.000
G1 X55.993 Y26.070 Z-0.000 F780.000
G1 X55.929 Y26.078 Z-0.000 F780.000
G1 X55.867 Y26.096 Z-0.000 F780.000
G1 X55.809 Y26.123 Z-0.000 F780.000
G1 X55.756 Y26.160 Z-0.000 F780.000
G1 X55.710 Y26.204 Z-0.000 F780.000
G1 X55.671 Y26.256 Z-0.000 F780.000
G1 X55.641 Y26.313 Z-0.000 F780.000
G1 X55.621 Y26.374 Z-0.000 F780.000
G1 X55.610 Y26.437 Z-0.000 F780.000
G1 X55.610 Y26.502 Z-0.000 F780.000
G1 X55.621 Y26.565 Z-0.000 F780.000
G1 X55.641 Y26.626 Z-0.000 F780.000
G1 X55.671 Y26.683 Z-0.000 F780.000
G1 X55.710 Y26.735 Z-0.000 F780.000
G1 X55.756 Y26.779 Z-0.000 F780.000
G1 X55.809 Y26.816 Z-0.000 F780.000
G1 X55.867 Y26.844 Z-0.000 F780.000
G1 X55.929 Y26.861 Z-0.000 F780.000
G1 X55.993 Y26.869 Z-0.000 F780.000
G1 X56.057 Y26.867 Z-0.000 F780.000
G1 X56.120 Y26.854 Z-0.000 F780.000
G1 X56.181 Y26.831 Z-0.000 F780.000
G1 X56.236 Y26.799 Z-0.000 F780.000
G1 X56.286 Y26.758 Z-0.000 F780.000
G1 X56.329 Y26.710 Z-0.000 F780.000
G1 X56.363 Y26.655 Z-0.000 F780.000
G1 X56.389 Y26.596 Z-0.000 F780.000
G1 X56.404 Y26.534 Z-0.000 F780.000
G1 X56.409 Y26.470 Z-0.000 F780.000
G4 P10.000
G0 X56.409 Y26.470 Z0.100 F300.000
G0 X53.824 Y26.445 Z0.100 F1200.000
G0 X53.824 Y26.445 Z-0.000 F300.000
G1 X53.824 Y26.445 Z-0.000 F780.000
G1 X53.824 Y26.445 Z-0.000 F780.000
G1 X53.819 Y26.381 Z-0.000 F780.000
G1 X53.803 Y26.318 Z-0.000 F780.000
G1 X53.778 Y26.259 Z-0.000 F780.000
G1 X53.744 Y26.205 Z-0.000 F780.000
G1 X53.701 Y26.156 Z-0.000 F780.000
G1 X53.651 Y26.116 Z-0.000 F780.000
G1 X53.595 Y26.084 Z-0.000 F780.000
G1 X53.535 Y26.061 Z-0.000 F780.000
G1 X53.472 Y26.048 Z-0.000 F780.000
G1 X53.408 Y26.045 Z-0.000 F780.000
G1 X53.344 Y26.053 Z-0.000 F780.000
G1 X53.282 Y26.071 Z-0.000 F780.000
G1 X53.224 Y26.099 Z-0.000 F780.000
G1 X53.171 Y26.135 Z-0.000 F780.000
G1 X53.124 Y26.180 Z-0.000 F780.000
G1 X53.086 Y26.231 Z-0.000 F780.000
G1 X53.056 Y26.288 Z-0.000 F780.000
G1 X53.035 Y26.349 Z-0.000 F780.000
G1 X53.025 Y26.413 Z-0.000 F780.000
G1 X53.025 Y26.477 Z-0.000 F780.000
G1 X53.035 Y26.541 Z-0.000 F780.000
G1 X53.056 Y26.602 Z-0.000 F780.000
G1 X53.086 Y26.659 Z-0.000 F780.000
G1 X53.124 Y26.710 Z-0.000 F780.000
G1 X53.171 Y26.755 Z-0.000 F780.000
G1 X53.224 Y26.791 Z-0.000 F780.000
G1 X53.282 Y26.819 Z-0.000 F780.000
G1 X53.344 Y26.837 Z-0.000 F780.000
G1 X53.408 Y26.845 Z-0.000 F780.000
G1 X53.472 Y26.842 Z-0.000 F780.000
G1 X53.535 Y26.829 Z-0.000 F780.000
G1 X53.595 Y26.806 Z-0.000 F780.000
G1 X53.651 Y26.774 Z-0.000 F780.000
G1 X53.701 Y26.733 Z-0.000 F780.000
G1 X53.744 Y26.685 Z-0.000 F780.000
G1 X53.778 Y26.631 Z-0.000 F780.000
G1 X53.803 Y26.572 Z-0.000 F780.000
G1 X53.819 Y26.509 Z-0.000 F780.000
G1 X53.824 Y26.445 Z-0.000 F780.000
G4 P10.000
G0 X53.824 Y26.445 Z0.100 F300.000
G0 X51.291 Y26.446 Z0.100 F1200.000
G0 X51.291 Y26.446 Z-0.000 F300.000
G1 X51.291 Y26.446 Z-0.000 F780.000
G1 X51.291 Y26.446 Z-0.000 F780.000
G1 X51.286 Y26.382 Z-0.000 F780.000
G1 X51.271 Y26.319 Z-0.000 F780.000
G1 X51.246 Y26.260 Z-0.000 F780.000
G1 X51.211 Y26.206 Z-0.000 F780.000
G1 X51.169 Y26.158 Z-0.000 F780.000
G1 X51.119 Y26.117 Z-0.000 F780.000
G1 X51.063 Y26.085 Z-0.000 F780.000
G1 X51.003 Y26.062 Z-0.000 F780.000
G1 X50.940 Y26.049 Z-0.000 F780.000
G1 X50.875 Y26.046 Z-0.000 F780.000
G1 X50.811 Y26.054 Z-0.000 F780.000
G1 X50.750 Y26.072 Z-0.000 F780.000
G1 X50.691 Y26.100 Z-0.000 F780.000
G1 X50.639 Y26.136 Z-0.000 F780.000
G1 X50.592 Y26.181 Z-0.000 F780.000
G1 X50.553 Y26.232 Z-0.000 F780.000
G1 X50.523 Y26.289 Z-0.000 F780.000
G1 X50.503 Y26.350 Z-0.000 F780.000
G1 X50.493 Y26.414 Z-0.000 F780.000
G1 X50.493 Y26.478 Z-0.000 F780.000
G1 X50.503 Y26.542 Z-0.000 F780.000
G1 X50.523 Y26.603 Z-0.000 F780.000
G1 X50.553 Y26.660 Z-0.000 F780.000
G1 X50.592 Y26.711 Z-0.000 F780.000
G1 X50.639 Y26.756 Z-0.000 F780.000
G1 X50.691 Y26.792 Z-0.000 F780.000
G1 X50.750 Y26.820 Z-0.000 F780.000
G1 X50.811 Y26.838 Z-0.000 F780.000
G1 X50.875 Y26.846 Z-0.000 F780.000
G1 X50.940 Y26.843 Z-0.000 F780.000
G1 X51.003 Y26.830 Z-0.000 F780.000
G1 X51.063 Y26.807 Z-0.000 F780.000
G1 X51.119 Y26.775 Z-0.000 F780.000
G1 X51.169 Y26.735 Z-0.000 F780.000
G1 X51.211 Y26.686 Z-0.000 F780.000
G1 X51.246 Y26.632 Z-0.000 F780.000
G1 X51.271 Y26.573 Z-0.000 F780.000
G1 X51.286 Y26.510 Z-0.000 F780.000
G1 X51.291 Y26.446 Z-0.000 F780.000
G4 P10.000
G0 X51.291 Y26.446 Z0.100 F300.000
G0 X48.759 Y26.394 Z0.100 F1200.000
G0 X48.759 Y26.394 Z-0.000 F300.000
G1 X48.759 Y26.394 Z-0.000 F780.000
G1 X48.759 Y26.394 Z-0.000 F780.000
G1 X48.753 Y26.330 Z-0.000 F780.000
G1 X48.738 Y26.268 Z-0.000 F780.000
G1 X48.713 Y26.209 Z-0.000 F780.000
G1 X48.678 Y26.154 Z-0.000 F780.000
G1 X48.636 Y26.106 Z-0.000 F780.000
G1 X48.586 Y26.065 Z-0.000 F780.000
G1 X48.530 Y26.033 Z-0.000 F780.000
G1 X48.470 Y26.010 Z-0.000 F780.000
G1 X48.407 Y25.997 Z-0.000 F780.000
G1 X48.342 Y25.995 Z-0.000 F780.000
G1 X48.279 Y26.003 Z-0.000 F780.000
G1 X48.217 Y26.020 Z-0.000 F780.000
G1 X48.159 Y26.048 Z-0.000 F780.000
G1 X48.106 Y26.085 Z-0.000 F780.000
G1 X48.059 Y26.129 Z-0.000 F780.000
G1 X48.021 Y26.181 Z-0.000 F780.000
G1 X47.991 Y26.238 Z-0.000 F780.000
G1 X47.970 Y26.299 Z-0.000 F780.000
G1 X47.960 Y26.362 Z-0.000 F780.000
G1 X47.960 Y26.427 Z-0.000 F780.000
G1 X47.970 Y26.490 Z-0.000 F780.000
G1 X47.991 Y26.551 Z-0.000 F780.000
G1 X48.021 Y26.608 Z-0.000 F780.000
G1 X48.059 Y26.660 Z-0.000 F780.000
G1 X48.106 Y26.704 Z-0.000 F780.000
G1 X48.159 Y26.741 Z-0.000 F780.000
G1 X48.217 Y26.768 Z-0.000 F780.000
G1 X48.279 Y26.786 Z-0.000 F780.000
G1 X48.342 Y26.794 Z-0.000 F780.000
G1 X48.407 Y26.792 Z-0.000 F780.000
G1 X48.470 Y26.779 Z-0.000 F780.000
G1 X48.530 Y26.756 Z-0.000 F780.000
G1 X48.586 Y26.724 Z-0.000 F780.000
G1 X48.636 Y26.683 Z-0.000 F780.000
G1 X48.678 Y26.635 Z-0.000 F780.000
G1 X48.713 Y26.580 Z-0.000 F780.000
G1 X48.738 Y26.521 Z-0.000 F780.000
G1 X48.753 Y26.459 Z-0.000 F780.000
G1 X48.759 Y26.394 Z-0.000 F780.000
G4 P10.000
G0 X48.759 Y26.394 Z0.100 F300.000
G0 X46.225 Y26.317 Z0.100 F1200.000
G0 X46.225 Y26.317 Z-0.000 F300.000
G1 X46.225 Y26.317 Z-0.000 F780.000
G1 X46.225 Y26.317 Z-0.000 F780.000
G1 X46.220 Y26.252 Z-0.000 F780.000
G1 X46.205 Y26.190 Z-0.000 F780.000
G1 X46.180 Y26.131 Z-0.000 F780.000
G1 X46.145 Y26.076 Z-0.000 F780.000
G1 X46.103 Y26.028 Z-0.000 F780.000
G1 X46.053 Y25.987 Z-0.000 F780.000
G1 X45.997 Y25.955 Z-0.000 F780.000
G1 X45.937 Y25.932 Z-0.000 F780.000
G1 X45.874 Y25.919 Z-0.000 F780.000
G1 X45.809 Y25.917 Z-0.000 F780.000
G1 X45.745 Y25.925 Z-0.000 F780.000
G1 X45.684 Y25.943 Z-0.000 F780.000
G1 X45.625 Y25.970 Z-0.000 F780.000
G1 X45.572 Y26.007 Z-0.000 F780.000
G1 X45.526 Y26.051 Z-0.000 F780.000
G1 X45.487 Y26.103 Z-0.000 F780.000
G1 X45.457 Y26.160 Z-0.000 F780.000
G1 X45.437 Y26.221 Z-0.000 F780.000
G1 X45.427 Y26.284 Z-0.000 F780.000
G1 X45.427 Y26.349 Z-0.000 F780.000
G1 X45.437 Y26.412 Z-0.000 F780.000
G1 X45.457 Y26.473 Z-0.000 F780.000
G1 X45.487 Y26.530 Z-0.000 F780.000
G1 X45.526 Y26.582 Z-0.000 F780.000
G1 X45.572 Y26.626 Z-0.000 F780.000
G1 X45.625 Y26.663 Z-0.000 F780.000
G1 X45.684 Y26.691 Z-0.000 F780.000
G1 X45.745 Y26.708 Z-0.000 F780.000
G1 X45.809 Y26.716 Z-0.000 F780.000
G1 X45.874 Y26.714 Z-0.000 F780.000
G1 X45.937 Y26.701 Z-0.000 F780.000
G1 X45.997 Y26.678 Z-0.000 F780.000
G1 X46.053 Y26.646 Z-0.000 F780.000
G1 X46.103 Y26.605 Z-0.000 F780.000
G1 X46.145 Y26.557 Z-0.000 F780.000
G1 X46.180 Y26.502 Z-0.000 F780.000
G1 X46.205 Y26.443 Z-0.000 F780.000
G1 X46.220 Y26.381 Z-0.000 F780.000
G1 X46.225 Y26.317 Z-0.000 F780.000
G4 P10.000
G0 X46.225 Y26.317 Z0.100 F300.000
G0 X43.695 Y26.450 Z0.100 F1200.000
G0 X43.695 Y26.450 Z-0.000 F300.000
G1 X43.695 Y26.450 Z-0.000 F780.000
G1 X43.695 Y26.450 Z-0.000 F780.000
G1 X43.689 Y26.385 Z-0.000 F780.000
G1 X43.674 Y26.323 Z-0.000 F780.000
G1 X43.649 Y26.264 Z-0.000 F780.000
G1 X43.614 Y26.209 Z-0.000 F780.000
G1 X43.572 Y26.161 Z-0.000 F780.000
G1 X43.522 Y26.120 Z-0.000 F780.000
G1 X43.466 Y26.088 Z-0.000 F780.000
G1 X43.406 Y26.065 Z-0.000 F780.000
G1 X43.343 Y26.052 Z-0.000 F780.000
G1 X43.278 Y26.050 Z-0.000 F780.000
G1 X43.215 Y26.058 Z-0.000 F780.000
G1 X43.153 Y26.076 Z-0.000 F780.000
G1 X43.095 Y26.103 Z-0.000 F780.000
G1 X43.042 Y26.140 Z-0.000 F780.000
G1 X42.995 Y26.184 Z-0.000 F780.000
G1 X42.956 Y26.236 Z-0.000 F780.000
G1 X42.927 Y26.293 Z-0.000 F780.000
G1 X42.906 Y26.354 Z-0.000 F780.000
G1 X42.896 Y26.417 Z-0.000 F780.000
G1 X42.896 Y26.482 Z-0.000 F780.000
G1 X42.906 Y26.545 Z-0.000 F780.000
G1 X42.927 Y26.606 Z-0.000 F780.000
G1 X42.956 Y26.663 Z-0.000 F780.000
G1 X42.995 Y26.715 Z-0.000 F780.000
G1 X43.042 Y26.759 Z-0.000 F780.000
G1 X43.095 Y26.796 Z-0.000 F780.000
G1 X43.153 Y26.824 Z-0.000 F780.000
G1 X43.215 Y26.841 Z-0.000 F780.000
G1 X43.278 Y26.849 Z-0.000 F780.000
G1 X43.343 Y26.847 Z-0.000 F780.000
G1 X43.406 Y26.834 Z-0.000 F780.000
G1 X43.466 Y26.811 Z-0.000 F780.000
G1 X43.522 Y26.779 Z-0.000 F780.000
G1 X43.572 Y26.738 Z-0.000 F780.000
G1 X43.614 Y26.690 Z-0.000 F780.000
G1 X43.649 Y26.635 Z-0.000 F780.000
G1 X43.674 Y26.576 Z-0.000 F780.000
G1 X43.689 Y26.514 Z-0.000 F780.000
G1 X43.695 Y26.450 Z-0.000 F780.000
G4 P10.000
G0 X43.695 Y26.450 Z0.100 F300.000
G0 X41.109 Y26.451 Z0.100 F1200.000
G0 X41.109 Y26.451 Z-0.000 F300.000
G1 X41.109 Y26.451 Z-0.000 F780.000
G1 X41.109 Y26.451 Z-0.000 F780.000
G1 X41.104 Y26.387 Z-0.000 F780.000
G1 X41.089 Y26.325 Z-0.000 F780.000
G1 X41.064 Y26.265 Z-0.000 F780.000
G1 X41.029 Y26.211 Z-0.000 F780.000
G1 X40.987 Y26.163 Z-0.000 F780.000
G1 X40.937 Y26.122 Z-0.000 F780.000
G1 X40.881 Y26.090 Z-0.000 F780.000
G1 X40.821 Y26.067 Z-0.000 F780.000
G1 X40.758 Y26.054 Z-0.000 F780.000
G1 X40.693 Y26.052 Z-0.000 F780.000
G1 X40.629 Y26.059 Z-0.000 F780.000
G1 X40.568 Y26.077 Z-0.000 F780.000
G1 X40.509 Y26.105 Z-0.000 F780.000
G1 X40.456 Y26.141 Z-0.000 F780.000
G1 X40.410 Y26.186 Z-0.000 F780.000
G1 X40.371 Y26.237 Z-0.000 F780.000
G1 X40.341 Y26.294 Z-0.000 F780.000
G1 X40.321 Y26.356 Z-0.000 F780.000
G1 X40.311 Y26.419 Z-0.000 F780.000
G1 X40.311 Y26.483 Z-0.000 F780.000
G1 X40.321 Y26.547 Z-0.000 F780.000
G1 X40.341 Y26.608 Z-0.000 F780.000
G1 X40.371 Y26.665 Z-0.000 F780.000
G1 X40.410 Y26.717 Z-0.000 F780.000
G1 X40.456 Y26.761 Z-0.000 F780.000
G1 X40.509 Y26.798 Z-0.000 F780.000
G1 X40.568 Y26.825 Z-0.000 F780.000
G1 X40.629 Y26.843 Z-0.000 F780.000
G1 X40.693 Y26.851 Z-0.000 F780.000
G1 X40.758 Y26.848 Z-0.000 F780.000
G1 X40.821 Y26.835 Z-0.000 F780.000
G1 X40.881 Y26.813 Z-0.000 F780.000
G1 X40.937 Y26.780 Z-0.000 F780.000
G1 X40.987 Y26.740 Z-0.000 F780.000
G1 X41.029 Y26.692 Z-0.000 F780.000
G1 X41.064 Y26.637 Z-0.000 F780.000
G1 X41.089 Y26.578 Z-0.000 F780.000
G1 X41.104 Y26.515 Z-0.000 F780.000
G1 X41.109 Y26.451 Z-0.000 F780.000
G4 P10.000
G0 X41.109 Y26.451 Z0.100 F300.000
G0 X61.507 Y31.980 Z0.100 F1200.000
G0 X61.507 Y31.980 Z-0.000 F300.000
G1 X61.507 Y31.980 Z-0.000 F780.000
G1 X61.507 Y31.980 Z-0.000 F780.000
G1 X61.502 Y31.916 Z-0.000 F780.000
G1 X61.487 Y31.853 Z-0.000 F780.000
G1 X61.462 Y31.794 Z-0.000 F780.000
G1 X61.427 Y31.740 Z-0.000 F780.000
G1 X61.384 Y31.692 Z-0.000 F780.000
G1 X61.335 Y31.651 Z-0.000 F780.000
G1 X61.279 Y31.619 Z-0.000 F780.000
G1 X61.219 Y31.596 Z-0.000 F780.000
G1 X61.156 Y31.583 Z-0.000 F780.000
G1 X61.091 Y31.580 Z-0.000 F780.000
G1 X61.027 Y31.588 Z-0.000 F780.000
G1 X60.966 Y31.606 Z-0.000 F780.000
G1 X60.907 Y31.634 Z-0.000 F780.000
G1 X60.854 Y31.670 Z-0.000 F780.000
G1 X60.808 Y31.715 Z-0.000 F780.000
G1 X60.769 Y31.766 Z-0.000 F780.000
G1 X60.739 Y31.823 Z-0.000 F780.000
G1 X60.719 Y31.884 Z-0.000 F780.000
G1 X60.709 Y31.948 Z-0.000 F780.000
G1 X60.709 Y32.012 Z-0.000 F780.000
G1 X60.719 Y32.076 Z-0.000 F780.000
G1 X60.739 Y32.137 Z-0.000 F780.000
G1 X60.769 Y32.194 Z-0.000 F780.000
G1 X60.808 Y32.245 Z-0.000 F780.000
G1 X60.854 Y32.290 Z-0.000 F780.000
G1 X60.907 Y32.326 Z-0.000 F780.000
G1 X60.966 Y32.354 Z-0.000 F780.000
G1 X61.027 Y32.372 Z-0.000 F780.000
G1 X61.091 Y32.380 Z-0.000 F780.000
G1 X61.156 Y32.377 Z-0.000 F780.000
G1 X61.219 Y32.364 Z-0.000 F780.000
G1 X61.279 Y32.341 Z-0.000 F780.000
G1 X61.335 Y32.309 Z-0.000 F780.000
G1 X61.384 Y32.268 Z-0.000 F780.000
G1 X61.427 Y32.220 Z-0.000 F780.000
G1 X61.462 Y32.166 Z-0.000 F780.000
G1 X61.487 Y32.107 Z-0.000 F780.000
G1 X61.502 Y32.044 Z-0.000 F780.000
G1 X61.507 Y31.980 Z-0.000 F780.000
G4 P10.000
G0 X61.507 Y31.980 Z0.100 F300.000
G0 X61.554 Y38.680 Z0.100 F1200.000
G0 X61.554 Y38.680 Z-0.000 F300.000
G1 X61.554 Y38.680 Z-0.000 F780.000
G1 X61.554 Y38.680 Z-0.000 F780.000
G1 X61.549 Y38.615 Z-0.000 F780.000
G1 X61.533 Y38.553 Z-0.000 F780.000
G1 X61.508 Y38.494 Z-0.000 F780.000
G1 X61.474 Y38.439 Z-0.000 F780.000
G1 X61.431 Y38.391 Z-0.000 F780.000
G1 X61.381 Y38.350 Z-0.000 F780.000
G1 X61.325 Y38.318 Z-0.000 F780.000
G1 X61.265 Y38.295 Z-0.000 F780.000
G1 X61.202 Y38.283 Z-0.000 F780.000
G1 X61.138 Y38.280 Z-0.000 F780.000
G1 X61.074 Y38.288 Z-0.000 F780.000
G1 X61.012 Y38.306 Z-0.000 F780.000
G1 X60.954 Y38.333 Z-0.000 F780.000
G1 X60.901 Y38.370 Z-0.000 F780.000
G1 X60.854 Y38.414 Z-0.000 F780.000
G1 X60.816 Y38.466 Z-0.000 F780.000
G1 X60.786 Y38.523 Z-0.000 F780.000
G1 X60.765 Y38.584 Z-0.000 F780.000
G1 X60.755 Y38.647 Z-0.000 F780.000
G1 X60.755 Y38.712 Z-0.000 F780.000
G1 X60.765 Y38.775 Z-0.000 F780.000
G1 X60.786 Y38.836 Z-0.000 F780.000
G1 X60.816 Y38.893 Z-0.000 F780.000
G1 X60.854 Y38.945 Z-0.000 F780.000
G1 X60.901 Y38.989 Z-0.000 F780.000
G1 X60.954 Y39.026 Z-0.000 F780.000
G1 X61.012 Y39.054 Z-0.000 F780.000
G1 X61.074 Y39.072 Z-0.000 F780.000
G1 X61.138 Y39.079 Z-0.000 F780.000
G1 X61.202 Y39.077 Z-0.000 F780.000
G1 X61.265 Y39.064 Z-0.000 F780.000
G1 X61.325 Y39.041 Z-0.000 F780.000
G1 X61.381 Y39.009 Z-0.000 F780.000
G1 X61.431 Y38.968 Z-0.000 F780.000
G1 X61.474 Y38.920 Z-0.000 F780.000
G1 X61.508 Y38.866 Z-0.000 F780.000
G1 X61.533 Y38.806 Z-0.000 F780.000
G1 X61.549 Y38.744 Z-0.000 F780.000
G1 X61.554 Y38.680 Z-0.000 F780.000
G4 P10.000
G0 X61.554 Y38.680 Z0.100 F300.000
G0 X63.509 Y46.203 Z0.100 F1200.000
G0 X63.509 Y46.203 Z-0.000 F300.000
G1 X63.509 Y46.203 Z-0.000 F780.000
G1 X63.509 Y46.203 Z-0.000 F780.000
G1 X63.503 Y46.138 Z-0.000 F780.000
G1 X63.488 Y46.076 Z-0.000 F780.000
G1 X63.463 Y46.017 Z-0.000 F780.000
G1 X63.428 Y45.962 Z-0.000 F780.000
G1 X63.386 Y45.914 Z-0.000 F780.000
G1 X63.336 Y45.873 Z-0.000 F780.000
G1 X63.280 Y45.841 Z-0.000 F780.000
G1 X63.220 Y45.818 Z-0.000 F780.000
G1 X63.157 Y45.806 Z-0.000 F780.000
G1 X63.092 Y45.803 Z-0.000 F780.000
G1 X63.029 Y45.811 Z-0.000 F780.000
G1 X62.967 Y45.829 Z-0.000 F780.000
G1 X62.909 Y45.856 Z-0.000 F780.000
G1 X62.856 Y45.893 Z-0.000 F780.000
G1 X62.809 Y45.937 Z-0.000 F780.000
G1 X62.770 Y45.989 Z-0.000 F780.000
G1 X62.741 Y46.046 Z-0.000 F780.000
G1 X62.720 Y46.107 Z-0.000 F780.000
G1 X62.710 Y46.170 Z-0.000 F780.000
G1 X62.710 Y46.235 Z-0.000 F780.000
G1 X62.720 Y46.298 Z-0.000 F780.000
G1 X62.741 Y46.359 Z-0.000 F780.000
G1 X62.770 Y46.416 Z-0.000 F780.000
G1 X62.809 Y46.468 Z-0.000 F780.000
G1 X62.856 Y46.512 Z-0.000 F780.000
G1 X62.909 Y46.549 Z-0.000 F780.000
G1 X62.967 Y46.577 Z-0.000 F780.000
G1 X63.029 Y46.595 Z-0.000 F780.000
G1 X63.092 Y46.602 Z-0.000 F780.000
G1 X63.157 Y46.600 Z-0.000 F780.000
G1 X63.220 Y46.587 Z-0.000 F780.000
G1 X63.280 Y46.564 Z-0.000 F780.000
G1 X63.336 Y46.532 Z-0.000 F780.000
G1 X63.386 Y46.491 Z-0.000 F780.000
G1 X63.428 Y46.443 Z-0.000 F780.000
G1 X63.463 Y46.389 Z-0.000 F780.000
G1 X63.488 Y46.329 Z-0.000 F780.000
G1 X63.503 Y46.267 Z-0.000 F780.000
G1 X63.509 Y46.203 Z-0.000 F780.000
G4 P10.000
G0 X63.509 Y46.203 Z0.100 F300.000
G0 X66.015 Y46.255 Z0.100 F1200.000
G0 X66.015 Y46.255 Z-0.000 F300.000
G1 X66.015 Y46.255 Z-0.000 F780.000
G1 X66.015 Y46.255 Z-0.000 F780.000
G1 X66.010 Y46.190 Z-0.000 F780.000
G1 X65.994 Y46.128 Z-0.000 F780.000
G1 X65.969 Y46.069 Z-0.000 F780.000
G1 X65.935 Y46.014 Z-0.000 F780.000
G1 X65.892 Y45.966 Z-0.000 F780.000
G1 X65.842 Y45.925 Z-0.000 F780.000
G1 X65.787 Y45.893 Z-0.000 F780.000
G1 X65.726 Y45.870 Z-0.000 F780.000
G1 X65.663 Y45.857 Z-0.000 F780.000
G1 X65.599 Y45.855 Z-0.000 F780.000
G1 X65.535 Y45.863 Z-0.000 F780.000
G1 X65.473 Y45.881 Z-0.000 F780.000
G1 X65.415 Y45.908 Z-0.000 F780.000
G1 X65.362 Y45.945 Z-0.000 F780.000
G1 X65.316 Y45.989 Z-0.000 F780.000
G1 X65.277 Y46.041 Z-0.000 F780.000
G1 X65.247 Y46.098 Z-0.000 F780.000
G1 X65.227 Y46.159 Z-0.000 F780.000
G1 X65.216 Y46.222 Z-0.000 F780.000
G1 X65.216 Y46.287 Z-0.000 F780.000
G1 X65.227 Y46.350 Z-0.000 F780.000
G1 X65.247 Y46.411 Z-0.000 F780.000
G1 X65.277 Y46.468 Z-0.000 F780.000
G1 X65.316 Y46.520 Z-0.000 F780.000
G1 X65.362 Y46.564 Z-0.000 F780.000
G1 X65.415 Y46.601 Z-0.000 F780.000
G1 X65.473 Y46.629 Z-0.000 F780.000
G1 X65.535 Y46.646 Z-0.000 F780.000
G1 X65.599 Y46.654 Z-0.000 F780.000
G1 X65.663 Y46.652 Z-0.000 F780.000
G1 X65.726 Y46.639 Z-0.000 F780.000
G1 X65.787 Y46.616 Z-0.000 F780.000
G1 X65.842 Y46.584 Z-0.000 F780.000
G1 X65.892 Y46.543 Z-0.000 F780.000
G1 X65.935 Y46.495 Z-0.000 F780.000
G1 X65.969 Y46.440 Z-0.000 F780.000
G1 X65.994 Y46.381 Z-0.000 F780.000
G1 X66.010 Y46.319 Z-0.000 F780.000
G1 X66.015 Y46.255 Z-0.000 F780.000
G4 P10.000
G0 X66.015 Y46.255 Z0.100 F300.000
G0 X68.574 Y46.306 Z0.100 F1200.000
G0 X68.574 Y46.306 Z-0.000 F300.000
G1 X68.574 Y46.306 Z-0.000 F780.000
G1 X68.574 Y46.306 Z-0.000 F780.000
G1 X68.569 Y46.242 Z-0.000 F780.000
G1 X68.554 Y46.179 Z-0.000 F780.000
G1 X68.529 Y46.120 Z-0.000 F780.000
G1 X68.494 Y46.066 Z-0.000 F780.000
G1 X68.451 Y46.017 Z-0.000 F780.000
G1 X68.402 Y45.977 Z-0.000 F780.000
G1 X68.346 Y45.944 Z-0.000 F780.000
G1 X68.286 Y45.922 Z-0.000 F780.000
G1 X68.223 Y45.909 Z-0.000 F780.000
G1 X68.158 Y45.906 Z-0.000 F780.000
G1 X68.094 Y45.914 Z-0.000 F780.000
G1 X68.032 Y45.932 Z-0.000 F780.000
G1 X67.974 Y45.959 Z-0.000 F780.000
G1 X67.921 Y45.996 Z-0.000 F780.000
G1 X67.875 Y46.041 Z-0.000 F780.000
G1 X67.836 Y46.092 Z-0.000 F780.000
G1 X67.806 Y46.149 Z-0.000 F780.000
G1 X67.786 Y46.210 Z-0.000 F780.000
G1 X67.776 Y46.274 Z-0.000 F780.000
G1 X67.776 Y46.338 Z-0.000 F780.000
G1 X67.786 Y46.402 Z-0.000 F780.000
G1 X67.806 Y46.463 Z-0.000 F780.000
G1 X67.836 Y46.520 Z-0.000 F780.000
G1 X67.875 Y46.571 Z-0.000 F780.000
G1 X67.921 Y46.616 Z-0.000 F780.000
G1 X67.974 Y46.652 Z-0.000 F780.000
G1 X68.032 Y46.680 Z-0.000 F780.000
G1 X68.094 Y46.698 Z-0.000 F780.000
G1 X68.158 Y46.706 Z-0.000 F780.000
G1 X68.223 Y46.703 Z-0.000 F780.000
G1 X68.286 Y46.690 Z-0.000 F780.000
G1 X68.346 Y46.667 Z-0.000 F780.000
G1 X68.402 Y46.635 Z-0.000 F780.000
G1 X68.451 Y46.594 Z-0.000 F780.000
G1 X68.494 Y46.546 Z-0.000 F780.000
G1 X68.529 Y46.492 Z-0.000 F780.000
G1 X68.554 Y46.433 Z-0.000 F780.000
G1 X68.569 Y46.370 Z-0.000 F780.000
G1 X68.574 Y46.306 Z-0.000 F780.000
G4 P10.000
G0 X68.574 Y46.306 Z0.100 F300.000
G0 X71.054 Y46.279 Z0.100 F1200.000
G0 X71.054 Y46.279 Z-0.000 F300.000
G1 X71.054 Y46.279 Z-0.000 F780.000
G1 X71.054 Y46.279 Z-0.000 F780.000
G1 X71.048 Y46.215 Z-0.000 F780.000
G1 X71.033 Y46.152 Z-0.000 F780.000
G1 X71.008 Y46.093 Z-0.000 F780.000
G1 X70.973 Y46.039 Z-0.000 F780.000
G1 X70.931 Y45.990 Z-0.000 F780.000
G1 X70.881 Y45.950 Z-0.000 F780.000
G1 X70.825 Y45.918 Z-0.000 F780.000
G1 X70.765 Y45.895 Z-0.000 F780.000
G1 X70.702 Y45.882 Z-0.000 F780.000
G1 X70.637 Y45.879 Z-0.000 F780.000
G1 X70.574 Y45.887 Z-0.000 F780.000
G1 X70.512 Y45.905 Z-0.000 F780.000
G1 X70.454 Y45.932 Z-0.000 F780.000
G1 X70.401 Y45.969 Z-0.000 F780.000
G1 X70.354 Y46.014 Z-0.000 F780.000
G1 X70.316 Y46.065 Z-0.000 F780.000
G1 X70.286 Y46.122 Z-0.000 F780.000
G1 X70.265 Y46.183 Z-0.000 F780.000
G1 X70.255 Y46.247 Z-0.000 F780.000
G1 X70.255 Y46.311 Z-0.000 F780.000
G1 X70.265 Y46.375 Z-0.000 F780.000
G1 X70.286 Y46.436 Z-0.000 F780.000
G1 X70.316 Y46.493 Z-0.000 F780.000
G1 X70.354 Y46.544 Z-0.000 F780.000
G1 X70.401 Y46.589 Z-0.000 F780.000
G1 X70.454 Y46.625 Z-0.000 F780.000
G1 X70.512 Y46.653 Z-0.000 F780.000
G1 X70.574 Y46.671 Z-0.000 F780.000
G1 X70.637 Y46.679 Z-0.000 F780.000
G1 X70.702 Y46.676 Z-0.000 F780.000
G1 X70.765 Y46.663 Z-0.000 F780.000
G1 X70.825 Y46.640 Z-0.000 F780.000
G1 X70.881 Y46.608 Z-0.000 F780.000
G1 X70.931 Y46.567 Z-0.000 F780.000
G1 X70.973 Y46.519 Z-0.000 F780.000
G1 X71.008 Y46.465 Z-0.000 F780.000
G1 X71.033 Y46.406 Z-0.000 F780.000
G1 X71.048 Y46.343 Z-0.000 F780.000
G1 X71.054 Y46.279 Z-0.000 F780.000
G4 P10.000
G0 X71.054 Y46.279 Z0.100 F300.000
G0 X73.691 Y46.224 Z0.100 F1200.000
G0 X73.691 Y46.224 Z-0.000 F300.000
G1 X73.691 Y46.224 Z-0.000 F780.000
G1 X73.691 Y46.224 Z-0.000 F780.000
G1 X73.686 Y46.160 Z-0.000 F780.000
G1 X73.670 Y46.097 Z-0.000 F780.000
G1 X73.645 Y46.038 Z-0.000 F780.000
G1 X73.611 Y45.984 Z-0.000 F780.000
G1 X73.568 Y45.935 Z-0.000 F780.000
G1 X73.518 Y45.895 Z-0.000 F780.000
G1 X73.462 Y45.862 Z-0.000 F780.000
G1 X73.402 Y45.840 Z-0.000 F780.000
G1 X73.339 Y45.827 Z-0.000 F780.000
G1 X73.275 Y45.824 Z-0.000 F780.000
G1 X73.211 Y45.832 Z-0.000 F780.000
G1 X73.149 Y45.850 Z-0.000 F780.000
G1 X73.091 Y45.877 Z-0.000 F780.000
G1 X73.038 Y45.914 Z-0.000 F780.000
G1 X72.991 Y45.959 Z-0.000 F780.000
G1 X72.953 Y46.010 Z-0.000 F780.000
G1 X72.923 Y46.067 Z-0.000 F780.000
G1 X72.902 Y46.128 Z-0.000 F780.000
G1 X72.892 Y46.192 Z-0.000 F780.000
G1 X72.892 Y46.256 Z-0.000 F780.000
G1 X72.902 Y46.320 Z-0.000 F780.000
G1 X72.923 Y46.381 Z-0.000 F780.000
G1 X72.953 Y46.438 Z-0.000 F780.000
G1 X72.991 Y46.489 Z-0.000 F780.000
G1 X73.038 Y46.534 Z-0.000 F780.000
G1 X73.091 Y46.570 Z-0.000 F780.000
G1 X73.149 Y46.598 Z-0.000 F780.000
G1 X73.211 Y46.616 Z-0.000 F780.000
G1 X73.275 Y46.624 Z-0.000 F780.000
G1 X73.339 Y46.621 Z-0.000 F780.000
G1 X73.402 Y46.608 Z-0.000 F780.000
G1 X73.462 Y46.585 Z-0.000 F780.000
G1 X73.518 Y46.553 Z-0.000 F780.000
G1 X73.568 Y46.512 Z-0.000 F780.000
G1 X73.611 Y46.464 Z-0.000 F780.000
G1 X73.645 Y46.410 Z-0.000 F780.000
G1 X73.670 Y46.351 Z-0.000 F780.000
G1 X73.686 Y46.288 Z-0.000 F780.000
G1 X73.691 Y46.224 Z-0.000 F780.000
G4 P10.000
G0 X73.691 Y46.224 Z0.100 F300.000
G0 X76.197 Y46.197 Z0.100 F1200.000
G0 X76.197 Y46.197 Z-0.000 F300.000
G1 X76.197 Y46.197 Z-0.000 F780.000
G1 X76.197 Y46.197 Z-0.000 F780.000
G1 X76.191 Y46.132 Z-0.000 F780.000
G1 X76.176 Y46.070 Z-0.000 F780.000
G1 X76.151 Y46.011 Z-0.000 F780.000
G1 X76.116 Y45.956 Z-0.000 F780.000
G1 X76.074 Y45.908 Z-0.000 F780.000
G1 X76.024 Y45.867 Z-0.000 F780.000
G1 X75.968 Y45.835 Z-0.000 F780.000
G1 X75.908 Y45.812 Z-0.000 F780.000
G1 X75.845 Y45.800 Z-0.000 F780.000
G1 X75.780 Y45.797 Z-0.000 F780.000
G1 X75.717 Y45.805 Z-0.000 F780.000
G1 X75.655 Y45.823 Z-0.000 F780.000
G1 X75.597 Y45.850 Z-0.000 F780.000
G1 X75.544 Y45.887 Z-0.000 F780.000
G1 X75.497 Y45.931 Z-0.000 F780.000
G1 X75.458 Y45.983 Z-0.000 F780.000
G1 X75.429 Y46.040 Z-0.000 F780.000
G1 X75.408 Y46.101 Z-0.000 F780.000
G1 X75.398 Y46.164 Z-0.000 F780.000
G1 X75.398 Y46.229 Z-0.000 F780.000
G1 X75.408 Y46.292 Z-0.000 F780.000
G1 X75.429 Y46.353 Z-0.000 F780.000
G1 X75.458 Y46.410 Z-0.000 F780.000
G1 X75.497 Y46.462 Z-0.000 F780.000
G1 X75.544 Y46.506 Z-0.000 F780.000
G1 X75.597 Y46.543 Z-0.000 F780.000
G1 X75.655 Y46.571 Z-0.000 F780.000
G1 X75.717 Y46.589 Z-0.000 F780.000
G1 X75.780 Y46.596 Z-0.000 F780.000
G1 X75.845 Y46.594 Z-0.000 F780.000
G1 X75.908 Y46.581 Z-0.000 F780.000
G1 X75.968 Y46.558 Z-0.000 F780.000
G1 X76.024 Y46.526 Z-0.000 F780.000
G1 X76.074 Y46.485 Z-0.000 F780.000
G1 X76.116 Y46.437 Z-0.000 F780.000
G1 X76.151 Y46.382 Z-0.000 F780.000
G1 X76.176 Y46.323 Z-0.000 F780.000
G1 X76.191 Y46.261 Z-0.000 F780.000
G1 X76.197 Y46.197 Z-0.000 F780.000
G4 P10.000
G0 X76.197 Y46.197 Z0.100 F300.000
G0 X71.736 Y38.701 Z0.100 F1200.000
G0 X71.736 Y38.701 Z-0.000 F300.000
G1 X71.736 Y38.701 Z-0.000 F780.000
G1 X71.736 Y38.701 Z-0.000 F780.000
G1 X71.731 Y38.637 Z-0.000 F780.000
G1 X71.716 Y38.574 Z-0.000 F780.000
G1 X71.690 Y38.515 Z-0.000 F780.000
G1 X71.656 Y38.461 Z-0.000 F780.000
G1 X71.613 Y38.412 Z-0.000 F780.000
G1 X71.563 Y38.372 Z-0.000 F780.000
G1 X71.508 Y38.339 Z-0.000 F780.000
G1 X71.447 Y38.317 Z-0.000 F780.000
G1 X71.384 Y38.304 Z-0.000 F780.000
G1 X71.320 Y38.301 Z-0.000 F780.000
G1 X71.256 Y38.309 Z-0.000 F780.000
G1 X71.194 Y38.327 Z-0.000 F780.000
G1 X71.136 Y38.354 Z-0.000 F780.000
G1 X71.083 Y38.391 Z-0.000 F780.000
G1 X71.037 Y38.436 Z-0.000 F780.000
G1 X70.998 Y38.487 Z-0.000 F780.000
G1 X70.968 Y38.544 Z-0.000 F780.000
G1 X70.948 Y38.605 Z-0.000 F780.000
G1 X70.938 Y38.669 Z-0.000 F780.000
G1 X70.938 Y38.733 Z-0.000 F780.000
G1 X70.948 Y38.797 Z-0.000 F780.000
G1 X70.968 Y38.858 Z-0.000 F780.000
G1 X70.998 Y38.915 Z-0.000 F780.000
G1 X71.037 Y38.966 Z-0.000 F780.000
G1 X71.083 Y39.011 Z-0.000 F780.000
G1 X71.136 Y39.047 Z-0.000 F780.000
G1 X71.194 Y39.075 Z-0.000 F780.000
G1 X71.256 Y39.093 Z-0.000 F780.000
G1 X71.320 Y39.101 Z-0.000 F780.000
G1 X71.384 Y39.098 Z-0.000 F780.000
G1 X71.447 Y39.085 Z-0.000 F780.000
G1 X71.508 Y39.062 Z-0.000 F780.000
G1 X71.563 Y39.030 Z-0.000 F780.000
G1 X71.613 Y38.989 Z-0.000 F780.000
G1 X71.656 Y38.941 Z-0.000 F780.000
G1 X71.690 Y38.887 Z-0.000 F780.000
G1 X71.716 Y38.827 Z-0.000 F780.000
G1 X71.731 Y38.765 Z-0.000 F780.000
G1 X71.736 Y38.701 Z-0.000 F780.000
G4 P10.000
G0 X71.736 Y38.701 Z0.100 F300.000
G0 X75.180 Y42.462 Z0.100 F1200.000
G0 X75.180 Y42.462 Z-0.000 F300.000
G1 X75.180 Y42.462 Z-0.000 F780.000
G1 X75.180 Y42.462 Z-0.000 F780.000
G1 X75.175 Y42.398 Z-0.000 F780.000
G1 X75.159 Y42.335 Z-0.000 F780.000
G1 X75.134 Y42.276 Z-0.000 F780.000
G1 X75.100 Y42.222 Z-0.000 F780.000
G1 X75.057 Y42.173 Z-0.000 F780.000
G1 X75.007 Y42.133 Z-0.000 F780.000
G1 X74.951 Y42.101 Z-0.000 F780.000
G1 X74.891 Y42.078 Z-0.000 F780.000
G1 X74.828 Y42.065 Z-0.000 F780.000
G1 X74.764 Y42.062 Z-0.000 F780.000
G1 X74.700 Y42.070 Z-0.000 F780.000
G1 X74.638 Y42.088 Z-0.000 F780.000
G1 X74.580 Y42.115 Z-0.000 F780.000
G1 X74.527 Y42.152 Z-0.000 F780.000
G1 X74.481 Y42.197 Z-0.000 F780.000
G1 X74.442 Y42.248 Z-0.000 F780.000
G1 X74.412 Y42.305 Z-0.000 F780.000
G1 X74.392 Y42.366 Z-0.000 F780.000
G1 X74.381 Y42.430 Z-0.000 F780.000
G1 X74.381 Y42.494 Z-0.000 F780.000
G1 X74.392 Y42.558 Z-0.000 F780.000
G1 X74.412 Y42.619 Z-0.000 F780.000
G1 X74.442 Y42.676 Z-0.000 F780.000
G1 X74.481 Y42.727 Z-0.000 F780.000
G1 X74.527 Y42.772 Z-0.000 F780.000
G1 X74.580 Y42.808 Z-0.000 F780.000
G1 X74.638 Y42.836 Z-0.000 F780.000
G1 X74.700 Y42.854 Z-0.000 F780.000
G1 X74.764 Y42.862 Z-0.000 F780.000
G1 X74.828 Y42.859 Z-0.000 F780.000
G1 X74.891 Y42.846 Z-0.000 F780.000
G1 X74.951 Y42.823 Z-0.000 F780.000
G1 X75.007 Y42.791 Z-0.000 F780.000
G1 X75.057 Y42.750 Z-0.000 F780.000
G1 X75.100 Y42.702 Z-0.000 F780.000
G1 X75.134 Y42.648 Z-0.000 F780.000
G1 X75.159 Y42.589 Z-0.000 F780.000
G1 X75.175 Y42.526 Z-0.000 F780.000
G1 X75.180 Y42.462 Z-0.000 F780.000
G4 P10.000
G0 X75.180 Y42.462 Z0.100 F300.000
G0 X75.182 Y32.913 Z0.100 F1200.000
G0 X75.182 Y32.913 Z-0.000 F300.000
G1 X75.182 Y32.913 Z-0.000 F780.000
G1 X75.182 Y32.913 Z-0.000 F780.000
G1 X75.176 Y32.849 Z-0.000 F780.000
G1 X75.161 Y32.786 Z-0.000 F780.000
G1 X75.136 Y32.727 Z-0.000 F780.000
G1 X75.101 Y32.673 Z-0.000 F780.000
G1 X75.059 Y32.624 Z-0.000 F780.000
G1 X75.009 Y32.584 Z-0.000 F780.000
G1 X74.953 Y32.551 Z-0.000 F780.000
G1 X74.893 Y32.529 Z-0.000 F780.000
G1 X74.830 Y32.516 Z-0.000 F780.000
G1 X74.766 Y32.513 Z-0.000 F780.000
G1 X74.702 Y32.521 Z-0.000 F780.000
G1 X74.640 Y32.539 Z-0.000 F780.000
G1 X74.582 Y32.566 Z-0.000 F780.000
G1 X74.529 Y32.603 Z-0.000 F780.000
G1 X74.482 Y32.648 Z-0.000 F780.000
G1 X74.444 Y32.699 Z-0.000 F780.000
G1 X74.414 Y32.756 Z-0.000 F780.000
G1 X74.393 Y32.817 Z-0.000 F780.000
G1 X74.383 Y32.881 Z-0.000 F780.000
G1 X74.383 Y32.945 Z-0.000 F780.000
G1 X74.393 Y33.009 Z-0.000 F780.000
G1 X74.414 Y33.070 Z-0.000 F780.000
G1 X74.444 Y33.127 Z-0.000 F780.000
G1 X74.482 Y33.178 Z-0.000 F780.000
G1 X74.529 Y33.223 Z-0.000 F780.000
G1 X74.582 Y33.259 Z-0.000 F780.000
G1 X74.640 Y33.287 Z-0.000 F780.000
G1 X74.702 Y33.305 Z-0.000 F780.000
G1 X74.766 Y33.313 Z-0.000 F780.000
G1 X74.830 Y33.310 Z-0.000 F780.000
G1 X74.893 Y33.297 Z-0.000 F780.000
G1 X74.953 Y33.274 Z-0.000 F780.000
G1 X75.009 Y33.242 Z-0.000 F780.000
G1 X75.059 Y33.201 Z-0.000 F780.000
G1 X75.101 Y33.153 Z-0.000 F780.000
G1 X75.136 Y33.099 Z-0.000 F780.000
G1 X75.161 Y33.040 Z-0.000 F780.000
G1 X75.176 Y32.977 Z-0.000 F780.000
G1 X75.182 Y32.913 Z-0.000 F780.000
G4 P10.000
G0 X75.182 Y32.913 Z0.100 F300.000
G0 X61.530 Y21.956 Z0.100 F1200.000
G0 X61.530 Y21.956 Z-0.000 F300.000
G1 X61.530 Y21.956 Z-0.000 F780.000
G1 X61.530 Y21.956 Z-0.000 F780.000
G1 X61.525 Y21.892 Z-0.000 F780.000
G1 X61.510 Y21.829 Z-0.000 F780.000
G1 X61.484 Y21.770 Z-0.000 F780.000
G1 X61.450 Y21.716 Z-0.000 F780.000
G1 X61.407 Y21.667 Z-0.000 F780.000
G1 X61.358 Y21.627 Z-0.000 F780.000
G1 X61.302 Y21.595 Z-0.000 F780.000
G1 X61.242 Y21.572 Z-0.000 F780.000
G1 X61.179 Y21.559 Z-0.000 F780.000
G1 X61.114 Y21.556 Z-0.000 F780.000
G1 X61.050 Y21.564 Z-0.000 F780.000
G1 X60.988 Y21.582 Z-0.000 F780.000
G1 X60.930 Y21.610 Z-0.000 F780.000
G1 X60.877 Y21.646 Z-0.000 F780.000
G1 X60.831 Y21.691 Z-0.000 F780.000
G1 X60.792 Y21.742 Z-0.000 F780.000
G1 X60.762 Y21.799 Z-0.000 F780.000
G1 X60.742 Y21.860 Z-0.000 F780.000
G1 X60.732 Y21.924 Z-0.000 F780.000
G1 X60.732 Y21.988 Z-0.000 F780.000
G1 X60.742 Y22.052 Z-0.000 F780.000
G1 X60.762 Y22.113 Z-0.000 F780.000
G1 X60.792 Y22.170 Z-0.000 F780.000
G1 X60.831 Y22.221 Z-0.000 F780.000
G1 X60.877 Y22.266 Z-0.000 F780.000
G1 X60.930 Y22.302 Z-0.000 F780.000
G1 X60.988 Y22.330 Z-0.000 F780.000
G1 X61.050 Y22.348 Z-0.000 F780.000
G1 X61.114 Y22.356 Z-0.000 F780.000
G1 X61.179 Y22.353 Z-0.000 F780.000
G1 X61.242 Y22.340 Z-0.000 F780.000
G1 X61.302 Y22.317 Z-0.000 F780.000
G1 X61.358 Y22.285 Z-0.000 F780.000
G1 X61.407 Y22.244 Z-0.000 F780.000
G1 X61.450 Y22.196 Z-0.000 F780.000
G1 X61.484 Y22.142 Z-0.000 F780.000
G1 X61.510 Y22.083 Z-0.000 F780.000
G1 X61.525 Y22.020 Z-0.000 F780.000
G1 X61.530 Y21.956 Z-0.000 F780.000
G4 P10.000
G0 X61.530 Y21.956 Z0.100 F300.000
G0 X67.460 Y21.417 Z0.100 F1200.000
G0 X67.460 Y21.417 Z-0.000 F300.000
G1 X67.460 Y21.417 Z-0.000 F780.000
G1 X67.460 Y21.417 Z-0.000 F780.000
G1 X67.454 Y21.352 Z-0.000 F780.000
G1 X67.439 Y21.290 Z-0.000 F780.000
G1 X67.414 Y21.231 Z-0.000 F780.000
G1 X67.379 Y21.176 Z-0.000 F780.000
G1 X67.337 Y21.128 Z-0.000 F780.000
G1 X67.287 Y21.087 Z-0.000 F780.000
G1 X67.231 Y21.055 Z-0.000 F780.000
G1 X67.171 Y21.032 Z-0.000 F780.000
G1 X67.108 Y21.020 Z-0.000 F780.000
G1 X67.043 Y21.017 Z-0.000 F780.000
G1 X66.980 Y21.025 Z-0.000 F780.000
G1 X66.918 Y21.043 Z-0.000 F780.000
G1 X66.860 Y21.070 Z-0.000 F780.000
G1 X66.807 Y21.107 Z-0.000 F780.000
G1 X66.760 Y21.151 Z-0.000 F780.000
G1 X66.722 Y21.203 Z-0.000 F780.000
G1 X66.692 Y21.260 Z-0.000 F780.000
G1 X66.671 Y21.321 Z-0.000 F780.000
G1 X66.661 Y21.384 Z-0.000 F780.000
G1 X66.661 Y21.449 Z-0.000 F780.000
G1 X66.671 Y21.512 Z-0.000 F780.000
G1 X66.692 Y21.573 Z-0.000 F780.000
G1 X66.722 Y21.630 Z-0.000 F780.000
G1 X66.760 Y21.682 Z-0.000 F780.000
G1 X66.807 Y21.726 Z-0.000 F780.000
G1 X66.860 Y21.763 Z-0.000 F780.000
G1 X66.918 Y21.791 Z-0.000 F780.000
G1 X66.980 Y21.809 Z-0.000 F780.000
G1 X67.043 Y21.816 Z-0.000 F780.000
G1 X67.108 Y21.814 Z-0.000 F780.000
G1 X67.171 Y21.801 Z-0.000 F780.000
G1 X67.231 Y21.778 Z-0.000 F780.000
G1 X67.287 Y21.746 Z-0.000 F780.000
G1 X67.337 Y21.705 Z-0.000 F780.000
G1 X67.379 Y21.657 Z-0.000 F780.000
G1 X67.414 Y21.603 Z-0.000 F780.000
G1 X67.439 Y21.543 Z-0.000 F780.000
G1 X67.454 Y21.481 Z-0.000 F780.000
G1 X67.460 Y21.417 Z-0.000 F780.000
G4 P10.000
G0 X67.460 Y21.417 Z0.100 F300.000
G0 X70.019 Y21.468 Z0.100 F1200.000
G0 X70.019 Y21.468 Z-0.000 F300.000
G1 X70.019 Y21.468 Z-0.000 F780.000
G1 X70.019 Y21.468 Z-0.000 F780.000
G1 X70.014 Y21.404 Z-0.000 F780.000
G1 X69.998 Y21.341 Z-0.000 F780.000
G1 X69.973 Y21.282 Z-0.000 F780.000
G1 X69.939 Y21.228 Z-0.000 F780.000
G1 X69.896 Y21.179 Z-0.000 F780.000
G1 X69.846 Y21.139 Z-0.000 F780.000
G1 X69.790 Y21.107 Z-0.000 F780.000
G1 X69.730 Y21.084 Z-0.000 F780.000
G1 X69.667 Y21.071 Z-0.000 F780.000
G1 X69.603 Y21.068 Z-0.000 F780.000
G1 X69.539 Y21.076 Z-0.000 F780.000
G1 X69.477 Y21.094 Z-0.000 F780.000
G1 X69.419 Y21.122 Z-0.000 F780.000
G1 X69.366 Y21.158 Z-0.000 F780.000
G1 X69.319 Y21.203 Z-0.000 F780.000
G1 X69.281 Y21.254 Z-0.000 F780.000
G1 X69.251 Y21.311 Z-0.000 F780.000
G1 X69.230 Y21.372 Z-0.000 F780.000
G1 X69.220 Y21.436 Z-0.000 F780.000
G1 X69.220 Y21.500 Z-0.000 F780.000
G1 X69.230 Y21.564 Z-0.000 F780.000
G1 X69.251 Y21.625 Z-0.000 F780.000
G1 X69.281 Y21.682 Z-0.000 F780.000
G1 X69.319 Y21.733 Z-0.000 F780.000
G1 X69.366 Y21.778 Z-0.000 F780.000
G1 X69.419 Y21.814 Z-0.000 F780.000
G1 X69.477 Y21.842 Z-0.000 F780.000
G1 X69.539 Y21.860 Z-0.000 F780.000
G1 X69.603 Y21.868 Z-0.000 F780.000
G1 X69.667 Y21.865 Z-0.000 F780.000
G1 X69.730 Y21.852 Z-0.000 F780.000
G1 X69.790 Y21.829 Z-0.000 F780.000
G1 X69.846 Y21.797 Z-0.000 F780.000
G1 X69.896 Y21.756 Z-0.000 F780.000
G1 X69.939 Y21.708 Z-0.000 F780.000
G1 X69.973 Y21.654 Z-0.000 F780.000
G1 X69.998 Y21.595 Z-0.000 F780.000
G1 X70.014 Y21.532 Z-0.000 F780.000
G1 X70.019 Y21.468 Z-0.000 F780.000
G4 P10.000
G0 X70.019 Y21.468 Z0.100 F300.000
G0 X72.551 Y21.493 Z0.100 F1200.000
G0 X72.551 Y21.493 Z-0.000 F300.000
G1 X72.551 Y21.493 Z-0.000 F780.000
G1 X72.551 Y21.493 Z-0.000 F780.000
G1 X72.546 Y21.429 Z-0.000 F780.000
G1 X72.531 Y21.366 Z-0.000 F780.000
G1 X72.506 Y21.307 Z-0.000 F780.000
G1 X72.471 Y21.253 Z-0.000 F780.000
G1 X72.429 Y21.205 Z-0.000 F780.000
G1 X72.379 Y21.164 Z-0.000 F780.000
G1 X72.323 Y21.132 Z-0.000 F780.000
G1 X72.263 Y21.109 Z-0.000 F780.000
G1 X72.200 Y21.096 Z-0.000 F780.000
G1 X72.135 Y21.093 Z-0.000 F780.000
G1 X72.071 Y21.101 Z-0.000 F780.000
G1 X72.010 Y21.119 Z-0.000 F780.000
G1 X71.951 Y21.147 Z-0.000 F780.000
G1 X71.899 Y21.183 Z-0.000 F780.000
G1 X71.852 Y21.228 Z-0.000 F780.000
G1 X71.813 Y21.279 Z-0.000 F780.000
G1 X71.783 Y21.336 Z-0.000 F780.000
G1 X71.763 Y21.397 Z-0.000 F780.000
G1 X71.753 Y21.461 Z-0.000 F780.000
G1 X71.753 Y21.525 Z-0.000 F780.000
G1 X71.763 Y21.589 Z-0.000 F780.000
G1 X71.783 Y21.650 Z-0.000 F780.000
G1 X71.813 Y21.707 Z-0.000 F780.000
G1 X71.852 Y21.758 Z-0.000 F780.000
G1 X71.899 Y21.803 Z-0.000 F780.000
G1 X71.951 Y21.840 Z-0.000 F780.000
G1 X72.010 Y21.867 Z-0.000 F780.000
G1 X72.071 Y21.885 Z-0.000 F780.000
G1 X72.135 Y21.893 Z-0.000 F780.000
G1 X72.200 Y21.890 Z-0.000 F780.000
G1 X72.263 Y21.877 Z-0.000 F780.000
G1 X72.323 Y21.855 Z-0.000 F780.000
G1 X72.379 Y21.822 Z-0.000 F780.000
G1 X72.429 Y21.782 Z-0.000 F780.000
G1 X72.471 Y21.733 Z-0.000 F780.000
G1 X72.506 Y21.679 Z-0.000 F780.000
G1 X72.531 Y21.620 Z-0.000 F780.000
G1 X72.546 Y21.557 Z-0.000 F780.000
G1 X72.551 Y21.493 Z-0.000 F780.000
G4 P10.000
G0 X72.551 Y21.493 Z0.100 F300.000
G0 X75.057 Y21.466 Z0.100 F1200.000
G0 X75.057 Y21.466 Z-0.000 F300.000
G1 X75.057 Y21.466 Z-0.000 F780.000
G1 X75.057 Y21.466 Z-0.000 F780.000
G1 X75.052 Y21.402 Z-0.000 F780.000
G1 X75.037 Y21.339 Z-0.000 F780.000
G1 X75.011 Y21.280 Z-0.000 F780.000
G1 X74.977 Y21.226 Z-0.000 F780.000
G1 X74.934 Y21.177 Z-0.000 F780.000
G1 X74.884 Y21.137 Z-0.000 F780.000
G1 X74.829 Y21.105 Z-0.000 F780.000
G1 X74.768 Y21.082 Z-0.000 F780.000
G1 X74.705 Y21.069 Z-0.000 F780.000
G1 X74.641 Y21.066 Z-0.000 F780.000
G1 X74.577 Y21.074 Z-0.000 F780.000
G1 X74.515 Y21.092 Z-0.000 F780.000
G1 X74.457 Y21.119 Z-0.000 F780.000
G1 X74.404 Y21.156 Z-0.000 F780.000
G1 X74.358 Y21.201 Z-0.000 F780.000
G1 X74.319 Y21.252 Z-0.000 F780.000
G1 X74.289 Y21.309 Z-0.000 F780.000
G1 X74.269 Y21.370 Z-0.000 F780.000
G1 X74.258 Y21.434 Z-0.000 F780.000
G1 X74.258 Y21.498 Z-0.000 F780.000
G1 X74.269 Y21.562 Z-0.000 F780.000
G1 X74.289 Y21.623 Z-0.000 F780.000
G1 X74.319 Y21.680 Z-0.000 F780.000
G1 X74.358 Y21.731 Z-0.000 F780.000
G1 X74.404 Y21.776 Z-0.000 F780.000
G1 X74.457 Y21.812 Z-0.000 F780.000
G1 X74.515 Y21.840 Z-0.000 F780.000
G1 X74.577 Y21.858 Z-0.000 F780.000
G1 X74.641 Y21.866 Z-0.000 F780.000
G1 X74.705 Y21.863 Z-0.000 F780.000
G1 X74.768 Y21.850 Z-0.000 F780.000
G1 X74.829 Y21.827 Z-0.000 F780.000
G1 X74.884 Y21.795 Z-0.000 F780.000
G1 X74.934 Y21.754 Z-0.000 F780.000
G1 X74.977 Y21.706 Z-0.000 F780.000
G1 X75.011 Y21.652 Z-0.000 F780.000
G1 X75.037 Y21.593 Z-0.000 F780.000
G1 X75.052 Y21.530 Z-0.000 F780.000
G1 X75.057 Y21.466 Z-0.000 F780.000
G4 P10.000
G0 X75.057 Y21.466 Z0.100 F300.000
G0 X76.982 Y28.673 Z0.100 F1200.000
G0 X76.982 Y28.673 Z-0.000 F300.000
G1 X76.982 Y28.673 Z-0.000 F780.000
G1 X76.982 Y28.673 Z-0.000 F780.000
G1 X76.977 Y28.609 Z-0.000 F780.000
G1 X76.961 Y28.546 Z-0.000 F780.000
G1 X76.936 Y28.487 Z-0.000 F780.000
G1 X76.902 Y28.432 Z-0.000 F780.000
G1 X76.859 Y28.384 Z-0.000 F780.000
G1 X76.809 Y28.343 Z-0.000 F780.000
G1 X76.753 Y28.311 Z-0.000 F780.000
G1 X76.693 Y28.288 Z-0.000 F780.000
G1 X76.630 Y28.276 Z-0.000 F780.000
G1 X76.566 Y28.273 Z-0.000 F780.000
G1 X76.502 Y28.281 Z-0.000 F780.000
G1 X76.440 Y28.299 Z-0.000 F780.000
G1 X76.382 Y28.326 Z-0.000 F780.000
G1 X76.329 Y28.363 Z-0.000 F780.000
G1 X76.283 Y28.407 Z-0.000 F780.000
G1 X76.244 Y28.459 Z-0.000 F780.000
G1 X76.214 Y28.516 Z-0.000 F780.000
G1 X76.194 Y28.577 Z-0.000 F780.000
G1 X76.183 Y28.641 Z-0.000 F780.000
G1 X76.183 Y28.705 Z-0.000 F780.000
G1 X76.194 Y28.768 Z-0.000 F780.000
G1 X76.214 Y28.829 Z-0.000 F780.000
G1 X76.244 Y28.886 Z-0.000 F780.000
G1 X76.283 Y28.938 Z-0.000 F780.000
G1 X76.329 Y28.983 Z-0.000 F780.000
G1 X76.382 Y29.019 Z-0.000 F780.000
G1 X76.440 Y29.047 Z-0.000 F780.000
G1 X76.502 Y29.065 Z-0.000 F780.000
G1 X76.566 Y29.072 Z-0.000 F780.000
G1 X76.630 Y29.070 Z-0.000 F780.000
G1 X76.693 Y29.057 Z-0.000 F780.000
G1 X76.753 Y29.034 Z-0.000 F780.000
G1 X76.809 Y29.002 Z-0.000 F780.000
G1 X76.859 Y28.961 Z-0.000 F780.000
G1 X76.902 Y28.913 Z-0.000 F780.000
G1 X76.936 Y28.859 Z-0.000 F780.000
G1 X76.961 Y28.799 Z-0.000 F780.000
G1 X76.977 Y28.737 Z-0.000 F780.000
G1 X76.982 Y28.673 Z-0.000 F780.000
G4 P10.000
G0 X76.982 Y28.673 Z0.100 F300.000
G0 X84.494 Y30.596 Z0.100 F1200.000
G0 X84.494 Y30.596 Z-0.000 F300.000
G1 X84.494 Y30.596 Z-0.000 F780.000
G1 X84.494 Y30.596 Z-0.000 F780.000
G1 X84.489 Y30.532 Z-0.000 F780.000
G1 X84.474 Y30.469 Z-0.000 F780.000
G1 X84.449 Y30.410 Z-0.000 F780.000
G1 X84.414 Y30.355 Z-0.000 F780.000
G1 X84.372 Y30.307 Z-0.000 F780.000
G1 X84.322 Y30.267 Z-0.000 F780.000
G1 X84.266 Y30.234 Z-0.000 F780.000
G1 X84.206 Y30.212 Z-0.000 F780.000
G1 X84.143 Y30.199 Z-0.000 F780.000
G1 X84.078 Y30.196 Z-0.000 F780.000
G1 X84.014 Y30.204 Z-0.000 F780.000
G1 X83.953 Y30.222 Z-0.000 F780.000
G1 X83.894 Y30.249 Z-0.000 F780.000
G1 X83.841 Y30.286 Z-0.000 F780.000
G1 X83.795 Y30.331 Z-0.000 F780.000
G1 X83.756 Y30.382 Z-0.000 F780.000
G1 X83.726 Y30.439 Z-0.000 F780.000
G1 X83.706 Y30.500 Z-0.000 F780.000
G1 X83.696 Y30.564 Z-0.000 F780.000
G1 X83.696 Y30.628 Z-0.000 F780.000
G1 X83.706 Y30.691 Z-0.000 F780.000
G1 X83.726 Y30.753 Z-0.000 F780.000
G1 X83.756 Y30.810 Z-0.000 F780.000
G1 X83.795 Y30.861 Z-0.000 F780.000
G1 X83.841 Y30.906 Z-0.000 F780.000
G1 X83.894 Y30.942 Z-0.000 F780.000
G1 X83.953 Y30.970 Z-0.000 F780.000
G1 X84.014 Y30.988 Z-0.000 F780.000
G1 X84.078 Y30.995 Z-0.000 F780.000
G1 X84.143 Y30.993 Z-0.000 F780.000
G1 X84.206 Y30.980 Z-0.000 F780.000
G1 X84.266 Y30.957 Z-0.000 F780.000
G1 X84.322 Y30.925 Z-0.000 F780.000
G1 X84.372 Y30.884 Z-0.000 F780.000
G1 X84.414 Y30.836 Z-0.000 F780.000
G1 X84.449 Y30.782 Z-0.000 F780.000
G1 X84.474 Y30.722 Z-0.000 F780.000
G1 X84.489 Y30.660 Z-0.000 F780.000
G1 X84.494 Y30.596 Z-0.000 F780.000
G4 P10.000
G0 X84.494 Y30.596 Z0.100 F300.000
G0 X82.502 Y36.579 Z0.100 F1200.000
G0 X82.502 Y36.579 Z-0.000 F300.000
G1 X82.502 Y36.579 Z-0.000 F780.000
G1 X82.502 Y36.579 Z-0.000 F780.000
G1 X82.497 Y36.515 Z-0.000 F780.000
G1 X82.481 Y36.452 Z-0.000 F780.000
G1 X82.456 Y36.393 Z-0.000 F780.000
G1 X82.422 Y36.339 Z-0.000 F780.000
G1 X82.379 Y36.291 Z-0.000 F780.000
G1 X82.329 Y36.250 Z-0.000 F780.000
G1 X82.273 Y36.218 Z-0.000 F780.000
G1 X82.213 Y36.195 Z-0.000 F780.000
G1 X82.150 Y36.182 Z-0.000 F780.000
G1 X82.086 Y36.179 Z-0.000 F780.000
G1 X82.022 Y36.187 Z-0.000 F780.000
G1 X81.960 Y36.205 Z-0.000 F780.000
G1 X81.902 Y36.233 Z-0.000 F780.000
G1 X81.849 Y36.269 Z-0.000 F780.000
G1 X81.803 Y36.314 Z-0.000 F780.000
G1 X81.764 Y36.365 Z-0.000 F780.000
G1 X81.734 Y36.422 Z-0.000 F780.000
G1 X81.714 Y36.483 Z-0.000 F780.000
G1 X81.703 Y36.547 Z-0.000 F780.000
G1 X81.703 Y36.611 Z-0.000 F780.000
G1 X81.714 Y36.675 Z-0.000 F780.000
G1 X81.734 Y36.736 Z-0.000 F780.000
G1 X81.764 Y36.793 Z-0.000 F780.000
G1 X81.803 Y36.844 Z-0.000 F780.000
G1 X81.849 Y36.889 Z-0.000 F780.000
G1 X81.902 Y36.925 Z-0.000 F780.000
G1 X81.960 Y36.953 Z-0.000 F780.000
G1 X82.022 Y36.971 Z-0.000 F780.000
G1 X82.086 Y36.979 Z-0.000 F780.000
G1 X82.150 Y36.976 Z-0.000 F780.000
G1 X82.213 Y36.963 Z-0.000 F780.000
G1 X82.273 Y36.940 Z-0.000 F780.000
G1 X82.329 Y36.908 Z-0.000 F780.000
G1 X82.379 Y36.867 Z-0.000 F780.000
G1 X82.422 Y36.819 Z-0.000 F780.000
G1 X82.456 Y36.765 Z-0.000 F780.000
G1 X82.481 Y36.706 Z-0.000 F780.000
G1 X82.497 Y36.643 Z-0.000 F780.000
G1 X82.502 Y36.579 Z-0.000 F780.000
G4 P10.000
G0 X82.502 Y36.579 Z0.100 F300.000
G0 X84.467 Y42.651 Z0.100 F1200.000
G0 X84.467 Y42.651 Z-0.000 F300.000
G1 X84.467 Y42.651 Z-0.000 F780.000
G1 X84.467 Y42.651 Z-0.000 F780.000
G1 X84.462 Y42.587 Z-0.000 F780.000
G1 X84.447 Y42.524 Z-0.000 F780.000
G1 X84.421 Y42.465 Z-0.000 F780.000
G1 X84.387 Y42.411 Z-0.000 F780.000
G1 X84.344 Y42.363 Z-0.000 F780.000
G1 X84.294 Y42.322 Z-0.000 F780.000
G1 X84.239 Y42.290 Z-0.000 F780.000
G1 X84.178 Y42.267 Z-0.000 F780.000
G1 X84.115 Y42.254 Z-0.000 F780.000
G1 X84.051 Y42.251 Z-0.000 F780.000
G1 X83.987 Y42.259 Z-0.000 F780.000
G1 X83.925 Y42.277 Z-0.000 F780.000
G1 X83.867 Y42.305 Z-0.000 F780.000
G1 X83.814 Y42.341 Z-0.000 F780.000
G1 X83.768 Y42.386 Z-0.000 F780.000
G1 X83.729 Y42.437 Z-0.000 F780.000
G1 X83.699 Y42.494 Z-0.000 F780.000
G1 X83.679 Y42.555 Z-0.000 F780.000
G1 X83.669 Y42.619 Z-0.000 F780.000
G1 X83.669 Y42.683 Z-0.000 F780.000
G1 X83.679 Y42.747 Z-0.000 F780.000
G1 X83.699 Y42.808 Z-0.000 F780.000
G1 X83.729 Y42.865 Z-0.000 F780.000
G1 X83.768 Y42.916 Z-0.000 F780.000
G1 X83.814 Y42.961 Z-0.000 F780.000
G1 X83.867 Y42.997 Z-0.000 F780.000
G1 X83.925 Y43.025 Z-0.000 F780.000
G1 X83.987 Y43.043 Z-0.000 F780.000
G1 X84.051 Y43.051 Z-0.000 F780.000
G1 X84.115 Y43.048 Z-0.000 F780.000
G1 X84.178 Y43.035 Z-0.000 F780.000
G1 X84.239 Y43.012 Z-0.000 F780.000
G1 X84.294 Y42.980 Z-0.000 F780.000
G1 X84.344 Y42.940 Z-0.000 F780.000
G1 X84.387 Y42.891 Z-0.000 F780.000
G1 X84.421 Y42.837 Z-0.000 F780.000
G1 X84.447 Y42.778 Z-0.000 F780.000
G1 X84.462 Y42.715 Z-0.000 F780.000
G1 X84.467 Y42.651 Z-0.000 F780.000
G4 P10.000
G0 X84.467 Y42.651 Z0.100 F300.000
G0 X50.788 Y18.986 Z0.100 F1200.000
G0 X50.788 Y18.986 Z-0.000 F300.000
G1 X50.788 Y18.986 Z-0.000 F780.000
G1 X50.788 Y18.986 Z-0.000 F780.000
G1 X50.783 Y18.922 Z-0.000 F780.000
G1 X50.768 Y18.860 Z-0.000 F780.000
G1 X50.743 Y18.801 Z-0.000 F780.000
G1 X50.708 Y18.746 Z-0.000 F780.000
G1 X50.665 Y18.698 Z-0.000 F780.000
G1 X50.616 Y18.657 Z-0.000 F780.000
G1 X50.560 Y18.625 Z-0.000 F780.000
G1 X50.500 Y18.602 Z-0.000 F780.000
G1 X50.437 Y18.589 Z-0.000 F780.000
G1 X50.372 Y18.587 Z-0.000 F780.000
G1 X50.308 Y18.595 Z-0.000 F780.000
G1 X50.246 Y18.612 Z-0.000 F780.000
G1 X50.188 Y18.640 Z-0.000 F780.000
G1 X50.135 Y18.677 Z-0.000 F780.000
G1 X50.089 Y18.721 Z-0.000 F780.000
G1 X50.050 Y18.773 Z-0.000 F780.000
G1 X50.020 Y18.830 Z-0.000 F780.000
G1 X50.000 Y18.891 Z-0.000 F780.000
G1 X49.990 Y18.954 Z-0.000 F780.000
G1 X49.990 Y19.019 Z-0.000 F780.000
G1 X50.000 Y19.082 Z-0.000 F780.000
G1 X50.020 Y19.143 Z-0.000 F780.000
G1 X50.050 Y19.200 Z-0.000 F780.000
G1 X50.089 Y19.252 Z-0.000 F780.000
G1 X50.135 Y19.296 Z-0.000 F780.000
G1 X50.188 Y19.333 Z-0.000 F780.000
G1 X50.246 Y19.360 Z-0.000 F780.000
G1 X50.308 Y19.378 Z-0.000 F780.000
G1 X50.372 Y19.386 Z-0.000 F780.000
G1 X50.437 Y19.384 Z-0.000 F780.000
G1 X50.500 Y19.371 Z-0.000 F780.000
G1 X50.560 Y19.348 Z-0.000 F780.000
G1 X50.616 Y19.316 Z-0.000 F780.000
G1 X50.665 Y19.275 Z-0.000 F780.000
G1 X50.708 Y19.227 Z-0.000 F780.000
G1 X50.743 Y19.172 Z-0.000 F780.000
G1 X50.768 Y19.113 Z-0.000 F780.000
G1 X50.783 Y19.051 Z-0.000 F780.000
G1 X50.788 Y18.986 Z-0.000 F780.000
G4 P10.000
G0 X50.788 Y18.986 Z0.100 F300.000
G0 X43.139 Y19.043 Z0.100 F1200.000
G0 X43.139 Y19.043 Z-0.000 F300.000
G1 X43.139 Y19.043 Z-0.000 F780.000
G1 X43.139 Y19.043 Z-0.000 F780.000
G1 X43.134 Y18.979 Z-0.000 F780.000
G1 X43.119 Y18.917 Z-0.000 F780.000
G1 X43.093 Y18.857 Z-0.000 F780.000
G1 X43.059 Y18.803 Z-0.000 F780.000
G1 X43.016 Y18.755 Z-0.000 F780.000
G1 X42.966 Y18.714 Z-0.000 F780.000
G1 X42.911 Y18.682 Z-0.000 F780.000
G1 X42.850 Y18.659 Z-0.000 F780.000
G1 X42.787 Y18.646 Z-0.000 F780.000
G1 X42.723 Y18.644 Z-0.000 F780.000
G1 X42.659 Y18.651 Z-0.000 F780.000
G1 X42.597 Y18.669 Z-0.000 F780.000
G1 X42.539 Y18.697 Z-0.000 F780.000
G1 X42.486 Y18.733 Z-0.000 F780.000
G1 X42.440 Y18.778 Z-0.000 F780.000
G1 X42.401 Y18.829 Z-0.000 F780.000
G1 X42.371 Y18.886 Z-0.000 F780.000
G1 X42.351 Y18.947 Z-0.000 F780.000
G1 X42.340 Y19.011 Z-0.000 F780.000
G1 X42.340 Y19.075 Z-0.000 F780.000
G1 X42.351 Y19.139 Z-0.000 F780.000
G1 X42.371 Y19.200 Z-0.000 F780.000
G1 X42.401 Y19.257 Z-0.000 F780.000
G1 X42.440 Y19.308 Z-0.000 F780.000
G1 X42.486 Y19.353 Z-0.000 F780.000
G1 X42.539 Y19.390 Z-0.000 F780.000
G1 X42.597 Y19.417 Z-0.000 F780.000
G1 X42.659 Y19.435 Z-0.000 F780.000
G1 X42.723 Y19.443 Z-0.000 F780.000
G1 X42.787 Y19.440 Z-0.000 F780.000
G1 X42.850 Y19.427 Z-0.000 F780.000
G1 X42.911 Y19.405 Z-0.000 F780.000
G1 X42.966 Y19.372 Z-0.000 F780.000
G1 X43.016 Y19.332 Z-0.000 F780.000
G1 X43.059 Y19.284 Z-0.000 F780.000
G1 X43.093 Y19.229 Z-0.000 F780.000
G1 X43.119 Y19.170 Z-0.000 F780.000
G1 X43.134 Y19.107 Z-0.000 F780.000
G1 X43.139 Y19.043 Z-0.000 F780.000
G4 P10.000
G0 X43.139 Y19.043 Z0.100 F300.000
G0 X43.226 Y11.930 Z0.100 F1200.000
G0 X43.226 Y11.930 Z-0.000 F300.000
G1 X43.226 Y11.930 Z-0.000 F780.000
G1 X43.226 Y11.930 Z-0.000 F780.000
G1 X43.221 Y11.866 Z-0.000 F780.000
G1 X43.205 Y11.804 Z-0.000 F780.000
G1 X43.180 Y11.744 Z-0.000 F780.000
G1 X43.146 Y11.690 Z-0.000 F780.000
G1 X43.103 Y11.642 Z-0.000 F780.000
G1 X43.053 Y11.601 Z-0.000 F780.000
G1 X42.997 Y11.569 Z-0.000 F780.000
G1 X42.937 Y11.546 Z-0.000 F780.000
G1 X42.874 Y11.533 Z-0.000 F780.000
G1 X42.810 Y11.530 Z-0.000 F780.000
G1 X42.746 Y11.538 Z-0.000 F780.000
G1 X42.684 Y11.556 Z-0.000 F780.000
G1 X42.626 Y11.584 Z-0.000 F780.000
G1 X42.573 Y11.620 Z-0.000 F780.000
G1 X42.526 Y11.665 Z-0.000 F780.000
G1 X42.488 Y11.716 Z-0.000 F780.000
G1 X42.458 Y11.773 Z-0.000 F780.000
G1 X42.437 Y11.834 Z-0.000 F780.000
G1 X42.427 Y11.898 Z-0.000 F780.000
G1 X42.427 Y11.962 Z-0.000 F780.000
G1 X42.437 Y12.026 Z-0.000 F780.000
G1 X42.458 Y12.087 Z-0.000 F780.000
G1 X42.488 Y12.144 Z-0.000 F780.000
G1 X42.526 Y12.195 Z-0.000 F780.000
G1 X42.573 Y12.240 Z-0.000 F780.000
G1 X42.626 Y12.277 Z-0.000 F780.000
G1 X42.684 Y12.304 Z-0.000 F780.000
G1 X42.746 Y12.322 Z-0.000 F780.000
G1 X42.810 Y12.330 Z-0.000 F780.000
G1 X42.874 Y12.327 Z-0.000 F780.000
G1 X42.937 Y12.314 Z-0.000 F780.000
G1 X42.997 Y12.292 Z-0.000 F780.000
G1 X43.053 Y12.259 Z-0.000 F780.000
G1 X43.103 Y12.219 Z-0.000 F780.000
G1 X43.146 Y12.170 Z-0.000 F780.000
G1 X43.180 Y12.116 Z-0.000 F780.000
G1 X43.205 Y12.057 Z-0.000 F780.000
G1 X43.221 Y11.994 Z-0.000 F780.000
G1 X43.226 Y11.930 Z-0.000 F780.000
G4 P10.000
G0 X43.226 Y11.930 Z0.100 F300.000
G0 X45.729 Y11.940 Z0.100 F1200.000
G0 X45.729 Y11.940 Z-0.000 F300.000
G1 X45.729 Y11.940 Z-0.000 F780.000
G1 X45.729 Y11.940 Z-0.000 F780.000
G1 X45.724 Y11.875 Z-0.000 F780.000
G1 X45.708 Y11.813 Z-0.000 F780.000
G1 X45.683 Y11.754 Z-0.000 F780.000
G1 X45.649 Y11.699 Z-0.000 F780.000
G1 X45.606 Y11.651 Z-0.000 F780.000
G1 X45.556 Y11.610 Z-0.000 F780.000
G1 X45.500 Y11.578 Z-0.000 F780.000
G1 X45.440 Y11.555 Z-0.000 F780.000
G1 X45.377 Y11.543 Z-0.000 F780.000
G1 X45.313 Y11.540 Z-0.000 F780.000
G1 X45.249 Y11.548 Z-0.000 F780.000
G1 X45.187 Y11.566 Z-0.000 F780.000
G1 X45.129 Y11.593 Z-0.000 F780.000
G1 X45.076 Y11.630 Z-0.000 F780.000
G1 X45.029 Y11.674 Z-0.000 F780.000
G1 X44.991 Y11.726 Z-0.000 F780.000
G1 X44.961 Y11.783 Z-0.000 F780.000
G1 X44.941 Y11.844 Z-0.000 F780.000
G1 X44.930 Y11.907 Z-0.000 F780.000
G1 X44.930 Y11.972 Z-0.000 F780.000
G1 X44.941 Y12.035 Z-0.000 F780.000
G1 X44.961 Y12.096 Z-0.000 F780.000
G1 X44.991 Y12.153 Z-0.000 F780.000
G1 X45.029 Y12.205 Z-0.000 F780.000
G1 X45.076 Y12.249 Z-0.000 F780.000
G1 X45.129 Y12.286 Z-0.000 F780.000
G1 X45.187 Y12.314 Z-0.000 F780.000
G1 X45.249 Y12.332 Z-0.000 F780.000
G1 X45.313 Y12.339 Z-0.000 F780.000
G1 X45.377 Y12.337 Z-0.000 F780.000
G1 X45.440 Y12.324 Z-0.000 F780.000
G1 X45.500 Y12.301 Z-0.000 F780.000
G1 X45.556 Y12.269 Z-0.000 F780.000
G1 X45.606 Y12.228 Z-0.000 F780.000
G1 X45.649 Y12.180 Z-0.000 F780.000
G1 X45.683 Y12.126 Z-0.000 F780.000
G1 X45.708 Y12.066 Z-0.000 F780.000
G1 X45.724 Y12.004 Z-0.000 F780.000
G1 X45.729 Y11.940 Z-0.000 F780.000
G4 P10.000
G0 X45.729 Y11.940 Z0.100 F300.000
G0 X48.288 Y11.909 Z0.100 F1200.000
G0 X48.288 Y11.909 Z-0.000 F300.000
G1 X48.288 Y11.909 Z-0.000 F780.000
G1 X48.288 Y11.909 Z-0.000 F780.000
G1 X48.282 Y11.845 Z-0.000 F780.000
G1 X48.267 Y11.783 Z-0.000 F780.000
G1 X48.242 Y11.723 Z-0.000 F780.000
G1 X48.207 Y11.669 Z-0.000 F780.000
G1 X48.165 Y11.621 Z-0.000 F780.000
G1 X48.115 Y11.580 Z-0.000 F780.000
G1 X48.059 Y11.548 Z-0.000 F780.000
G1 X47.999 Y11.525 Z-0.000 F780.000
G1 X47.936 Y11.512 Z-0.000 F780.000
G1 X47.871 Y11.509 Z-0.000 F780.000
G1 X47.808 Y11.517 Z-0.000 F780.000
G1 X47.746 Y11.535 Z-0.000 F780.000
G1 X47.688 Y11.563 Z-0.000 F780.000
G1 X47.635 Y11.599 Z-0.000 F780.000
G1 X47.588 Y11.644 Z-0.000 F780.000
G1 X47.549 Y11.695 Z-0.000 F780.000
G1 X47.520 Y11.752 Z-0.000 F780.000
G1 X47.499 Y11.813 Z-0.000 F780.000
G1 X47.489 Y11.877 Z-0.000 F780.000
G1 X47.489 Y11.941 Z-0.000 F780.000
G1 X47.499 Y12.005 Z-0.000 F780.000
G1 X47.520 Y12.066 Z-0.000 F780.000
G1 X47.549 Y12.123 Z-0.000 F780.000
G1 X47.588 Y12.174 Z-0.000 F780.000
G1 X47.635 Y12.219 Z-0.000 F780.000
G1 X47.688 Y12.256 Z-0.000 F780.000
G1 X47.746 Y12.283 Z-0.000 F780.000
G1 X47.808 Y12.301 Z-0.000 F780.000
G1 X47.871 Y12.309 Z-0.000 F780.000
G1 X47.936 Y12.306 Z-0.000 F780.000
G1 X47.999 Y12.293 Z-0.000 F780.000
G1 X48.059 Y12.271 Z-0.000 F780.000
G1 X48.115 Y12.238 Z-0.000 F780.000
G1 X48.165 Y12.198 Z-0.000 F780.000
G1 X48.207 Y12.149 Z-0.000 F780.000
G1 X48.242 Y12.095 Z-0.000 F780.000
G1 X48.267 Y12.036 Z-0.000 F780.000
G1 X48.282 Y11.973 Z-0.000 F780.000
G1 X48.288 Y11.909 Z-0.000 F780.000
G4 P10.000
G0 X48.288 Y11.909 Z0.100 F300.000
G0 X50.794 Y11.984 Z0.100 F1200.000
G0 X50.794 Y11.984 Z-0.000 F300.000
G1 X50.794 Y11.984 Z-0.000 F780.000
G1 X50.794 Y11.984 Z-0.000 F780.000
G1 X50.788 Y11.920 Z-0.000 F780.000
G1 X50.773 Y11.858 Z-0.000 F780.000
G1 X50.748 Y11.798 Z-0.000 F780.000
G1 X50.713 Y11.744 Z-0.000 F780.000
G1 X50.671 Y11.696 Z-0.000 F780.000
G1 X50.621 Y11.655 Z-0.000 F780.000
G1 X50.565 Y11.623 Z-0.000 F780.000
G1 X50.505 Y11.600 Z-0.000 F780.000
G1 X50.442 Y11.587 Z-0.000 F780.000
G1 X50.378 Y11.585 Z-0.000 F780.000
G1 X50.314 Y11.592 Z-0.000 F780.000
G1 X50.252 Y11.610 Z-0.000 F780.000
G1 X50.194 Y11.638 Z-0.000 F780.000
G1 X50.141 Y11.674 Z-0.000 F780.000
G1 X50.094 Y11.719 Z-0.000 F780.000
G1 X50.056 Y11.771 Z-0.000 F780.000
G1 X50.026 Y11.828 Z-0.000 F780.000
G1 X50.005 Y11.889 Z-0.000 F780.000
G1 X49.995 Y11.952 Z-0.000 F780.000
G1 X49.995 Y12.016 Z-0.000 F780.000
G1 X50.005 Y12.080 Z-0.000 F780.000
G1 X50.026 Y12.141 Z-0.000 F780.000
G1 X50.056 Y12.198 Z-0.000 F780.000
G1 X50.094 Y12.250 Z-0.000 F780.000
G1 X50.141 Y12.294 Z-0.000 F780.000
G1 X50.194 Y12.331 Z-0.000 F780.000
G1 X50.252 Y12.358 Z-0.000 F780.000
G1 X50.314 Y12.376 Z-0.000 F780.000
G1 X50.378 Y12.384 Z-0.000 F780.000
G1 X50.442 Y12.381 Z-0.000 F780.000
G1 X50.505 Y12.368 Z-0.000 F780.000
G1 X50.565 Y12.346 Z-0.000 F780.000
G1 X50.621 Y12.313 Z-0.000 F780.000
G1 X50.671 Y12.273 Z-0.000 F780.000
G1 X50.713 Y12.225 Z-0.000 F780.000
G1 X50.748 Y12.170 Z-0.000 F780.000
G1 X50.773 Y12.111 Z-0.000 F780.000
G1 X50.788 Y12.048 Z-0.000 F780.000
G1 X50.794 Y11.984 Z-0.000 F780.000
G4 P10.000
G0 X50.794 Y11.984 Z0.100 F300.000
G0 X53.352 Y11.901 Z0.100 F1200.000
G0 X53.352 Y11.901 Z-0.000 F300.000
G1 X53.352 Y11.901 Z-0.000 F780.000
G1 X53.352 Y11.901 Z-0.000 F780.000
G1 X53.347 Y11.837 Z-0.000 F780.000
G1 X53.332 Y11.774 Z-0.000 F780.000
G1 X53.306 Y11.715 Z-0.000 F780.000
G1 X53.272 Y11.661 Z-0.000 F780.000
G1 X53.229 Y11.613 Z-0.000 F780.000
G1 X53.179 Y11.572 Z-0.000 F780.000
G1 X53.124 Y11.540 Z-0.000 F780.000
G1 X53.064 Y11.517 Z-0.000 F780.000
G1 X53.000 Y11.504 Z-0.000 F780.000
G1 X52.936 Y11.501 Z-0.000 F780.000
G1 X52.872 Y11.509 Z-0.000 F780.000
G1 X52.810 Y11.527 Z-0.000 F780.000
G1 X52.752 Y11.555 Z-0.000 F780.000
G1 X52.699 Y11.591 Z-0.000 F780.000
G1 X52.653 Y11.636 Z-0.000 F780.000
G1 X52.614 Y11.687 Z-0.000 F780.000
G1 X52.584 Y11.744 Z-0.000 F780.000
G1 X52.564 Y11.805 Z-0.000 F780.000
G1 X52.554 Y11.869 Z-0.000 F780.000
G1 X52.554 Y11.933 Z-0.000 F780.000
G1 X52.564 Y11.997 Z-0.000 F780.000
G1 X52.584 Y12.058 Z-0.000 F780.000
G1 X52.614 Y12.115 Z-0.000 F780.000
G1 X52.653 Y12.166 Z-0.000 F780.000
G1 X52.699 Y12.211 Z-0.000 F780.000
G1 X52.752 Y12.247 Z-0.000 F780.000
G1 X52.810 Y12.275 Z-0.000 F780.000
G1 X52.872 Y12.293 Z-0.000 F780.000
G1 X52.936 Y12.301 Z-0.000 F780.000
G1 X53.000 Y12.298 Z-0.000 F780.000
G1 X53.064 Y12.285 Z-0.000 F780.000
G1 X53.124 Y12.262 Z-0.000 F780.000
G1 X53.179 Y12.230 Z-0.000 F780.000
G1 X53.229 Y12.190 Z-0.000 F780.000
G1 X53.272 Y12.141 Z-0.000 F780.000
G1 X53.306 Y12.087 Z-0.000 F780.000
G1 X53.332 Y12.028 Z-0.000 F780.000
G1 X53.347 Y11.965 Z-0.000 F780.000
G1 X53.352 Y11.901 Z-0.000 F780.000
G4 P10.000
G0 X53.352 Y11.901 Z0.100 F300.000
G0 X55.858 Y11.923 Z0.100 F1200.000
G0 X55.858 Y11.923 Z-0.000 F300.000
G1 X55.858 Y11.923 Z-0.000 F780.000
G1 X55.858 Y11.923 Z-0.000 F780.000
G1 X55.853 Y11.859 Z-0.000 F780.000
G1 X55.838 Y11.797 Z-0.000 F780.000
G1 X55.812 Y11.738 Z-0.000 F780.000
G1 X55.778 Y11.683 Z-0.000 F780.000
G1 X55.735 Y11.635 Z-0.000 F780.000
G1 X55.685 Y11.594 Z-0.000 F780.000
G1 X55.630 Y11.562 Z-0.000 F780.000
G1 X55.570 Y11.539 Z-0.000 F780.000
G1 X55.506 Y11.526 Z-0.000 F780.000
G1 X55.442 Y11.524 Z-0.000 F780.000
G1 X55.378 Y11.531 Z-0.000 F780.000
G1 X55.316 Y11.549 Z-0.000 F780.000
G1 X55.258 Y11.577 Z-0.000 F780.000
G1 X55.205 Y11.614 Z-0.000 F780.000
G1 X55.159 Y11.658 Z-0.000 F780.000
G1 X55.120 Y11.710 Z-0.000 F780.000
G1 X55.090 Y11.767 Z-0.000 F780.000
G1 X55.070 Y11.828 Z-0.000 F780.000
G1 X55.060 Y11.891 Z-0.000 F780.000
G1 X55.060 Y11.956 Z-0.000 F780.000
G1 X55.070 Y12.019 Z-0.000 F780.000
G1 X55.090 Y12.080 Z-0.000 F780.000
G1 X55.120 Y12.137 Z-0.000 F780.000
G1 X55.159 Y12.189 Z-0.000 F780.000
G1 X55.205 Y12.233 Z-0.000 F780.000
G1 X55.258 Y12.270 Z-0.000 F780.000
G1 X55.316 Y12.297 Z-0.000 F780.000
G1 X55.378 Y12.315 Z-0.000 F780.000
G1 X55.442 Y12.323 Z-0.000 F780.000
G1 X55.506 Y12.320 Z-0.000 F780.000
G1 X55.570 Y12.308 Z-0.000 F780.000
G1 X55.630 Y12.285 Z-0.000 F780.000
G1 X55.685 Y12.253 Z-0.000 F780.000
G1 X55.735 Y12.212 Z-0.000 F780.000
G1 X55.778 Y12.164 Z-0.000 F780.000
G1 X55.812 Y12.109 Z-0.000 F780.000
G1 X55.838 Y12.050 Z-0.000 F780.000
G1 X55.853 Y11.988 Z-0.000 F780.000
G1 X55.858 Y11.923 Z-0.000 F780.000
G4 P10.000
G0 X55.858 Y11.923 Z0.100 F300.000
G0 X59.868 Y11.996 Z0.100 F1200.000
G0 X59.868 Y11.996 Z-0.000 F300.000
G1 X59.868 Y11.996 Z-0.000 F780.000
G1 X59.868 Y11.996 Z-0.000 F780.000
G1 X59.863 Y11.932 Z-0.000 F780.000
G1 X59.847 Y11.869 Z-0.000 F780.000
G1 X59.822 Y11.810 Z-0.000 F780.000
G1 X59.788 Y11.756 Z-0.000 F780.000
G1 X59.745 Y11.708 Z-0.000 F780.000
G1 X59.695 Y11.667 Z-0.000 F780.000
G1 X59.639 Y11.635 Z-0.000 F780.000
G1 X59.579 Y11.612 Z-0.000 F780.000
G1 X59.516 Y11.599 Z-0.000 F780.000
G1 X59.452 Y11.596 Z-0.000 F780.000
G1 X59.388 Y11.604 Z-0.000 F780.000
G1 X59.326 Y11.622 Z-0.000 F780.000
G1 X59.268 Y11.650 Z-0.000 F780.000
G1 X59.215 Y11.686 Z-0.000 F780.000
G1 X59.168 Y11.731 Z-0.000 F780.000
G1 X59.130 Y11.782 Z-0.000 F780.000
G1 X59.100 Y11.839 Z-0.000 F780.000
G1 X59.079 Y11.900 Z-0.000 F780.000
G1 X59.069 Y11.964 Z-0.000 F780.000
G1 X59.069 Y12.028 Z-0.000 F780.000
G1 X59.079 Y12.092 Z-0.000 F780.000
G1 X59.100 Y12.153 Z-0.000 F780.000
G1 X59.130 Y12.210 Z-0.000 F780.000
G1 X59.168 Y12.261 Z-0.000 F780.000
G1 X59.215 Y12.306 Z-0.000 F780.000
G1 X59.268 Y12.343 Z-0.000 F780.000
G1 X59.326 Y12.370 Z-0.000 F780.000
G1 X59.388 Y12.388 Z-0.000 F780.000
G1 X59.452 Y12.396 Z-0.000 F780.000
G1 X59.516 Y12.393 Z-0.000 F780.000
G1 X59.579 Y12.380 Z-0.000 F780.000
G1 X59.639 Y12.357 Z-0.000 F780.000
G1 X59.695 Y12.325 Z-0.000 F780.000
G1 X59.745 Y12.285 Z-0.000 F780.000
G1 X59.788 Y12.236 Z-0.000 F780.000
G1 X59.822 Y12.182 Z-0.000 F780.000
G1 X59.847 Y12.123 Z-0.000 F780.000
G1 X59.863 Y12.060 Z-0.000 F780.000
G1 X59.868 Y11.996 Z-0.000 F780.000
G4 P10.000
G0 X59.868 Y11.996 Z0.100 F300.000
G0 X62.453 Y11.966 Z0.100 F1200.000
G0 X62.453 Y11.966 Z-0.000 F300.000
G1 X62.453 Y11.966 Z-0.000 F780.000
G1 X62.453 Y11.966 Z-0.000 F780.000
G1 X62.448 Y11.901 Z-0.000 F780.000
G1 X62.432 Y11.839 Z-0.000 F780.000
G1 X62.407 Y11.780 Z-0.000 F780.000
G1 X62.373 Y11.725 Z-0.000 F780.000
G1 X62.330 Y11.677 Z-0.000 F780.000
G1 X62.280 Y11.636 Z-0.000 F780.000
G1 X62.224 Y11.604 Z-0.000 F780.000
G1 X62.164 Y11.581 Z-0.000 F780.000
G1 X62.101 Y11.569 Z-0.000 F780.000
G1 X62.037 Y11.566 Z-0.000 F780.000
G1 X61.973 Y11.574 Z-0.000 F780.000
G1 X61.911 Y11.592 Z-0.000 F780.000
G1 X61.853 Y11.619 Z-0.000 F780.000
G1 X61.800 Y11.656 Z-0.000 F780.000
G1 X61.754 Y11.700 Z-0.000 F780.000
G1 X61.715 Y11.752 Z-0.000 F780.000
G1 X61.685 Y11.809 Z-0.000 F780.000
G1 X61.665 Y11.870 Z-0.000 F780.000
G1 X61.654 Y11.933 Z-0.000 F780.000
G1 X61.654 Y11.998 Z-0.000 F780.000
G1 X61.665 Y12.061 Z-0.000 F780.000
G1 X61.685 Y12.122 Z-0.000 F780.000
G1 X61.715 Y12.179 Z-0.000 F780.000
G1 X61.754 Y12.231 Z-0.000 F780.000
G1 X61.800 Y12.275 Z-0.000 F780.000
G1 X61.853 Y12.312 Z-0.000 F780.000
G1 X61.911 Y12.340 Z-0.000 F780.000
G1 X61.973 Y12.358 Z-0.000 F780.000
G1 X62.037 Y12.365 Z-0.000 F780.000
G1 X62.101 Y12.363 Z-0.000 F780.000
G1 X62.164 Y12.350 Z-0.000 F780.000
G1 X62.224 Y12.327 Z-0.000 F780.000
G1 X62.280 Y12.295 Z-0.000 F780.000
G1 X62.330 Y12.254 Z-0.000 F780.000
G1 X62.373 Y12.206 Z-0.000 F780.000
G1 X62.407 Y12.151 Z-0.000 F780.000
G1 X62.432 Y12.092 Z-0.000 F780.000
G1 X62.448 Y12.030 Z-0.000 F780.000
G1 X62.453 Y11.966 Z-0.000 F780.000
G4 P10.000
G0 X62.453 Y11.966 Z0.100 F300.000
G0 X64.985 Y11.962 Z0.100 F1200.000
G0 X64.985 Y11.962 Z-0.000 F300.000
G1 X64.985 Y11.962 Z-0.000 F780.000
G1 X64.985 Y11.962 Z-0.000 F780.000
G1 X64.980 Y11.897 Z-0.000 F780.000
G1 X64.964 Y11.835 Z-0.000 F780.000
G1 X64.939 Y11.776 Z-0.000 F780.000
G1 X64.905 Y11.721 Z-0.000 F780.000
G1 X64.862 Y11.673 Z-0.000 F780.000
G1 X64.812 Y11.632 Z-0.000 F780.000
G1 X64.756 Y11.600 Z-0.000 F780.000
G1 X64.696 Y11.577 Z-0.000 F780.000
G1 X64.633 Y11.564 Z-0.000 F780.000
G1 X64.569 Y11.562 Z-0.000 F780.000
G1 X64.505 Y11.570 Z-0.000 F780.000
G1 X64.443 Y11.588 Z-0.000 F780.000
G1 X64.385 Y11.615 Z-0.000 F780.000
G1 X64.332 Y11.652 Z-0.000 F780.000
G1 X64.285 Y11.696 Z-0.000 F780.000
G1 X64.247 Y11.748 Z-0.000 F780.000
G1 X64.217 Y11.805 Z-0.000 F780.000
G1 X64.196 Y11.866 Z-0.000 F780.000
G1 X64.186 Y11.929 Z-0.000 F780.000
G1 X64.186 Y11.994 Z-0.000 F780.000
G1 X64.196 Y12.057 Z-0.000 F780.000
G1 X64.217 Y12.118 Z-0.000 F780.000
G1 X64.247 Y12.175 Z-0.000 F780.000
G1 X64.285 Y12.227 Z-0.000 F780.000
G1 X64.332 Y12.271 Z-0.000 F780.000
G1 X64.385 Y12.308 Z-0.000 F780.000
G1 X64.443 Y12.336 Z-0.000 F780.000
G1 X64.505 Y12.353 Z-0.000 F780.000
G1 X64.569 Y12.361 Z-0.000 F780.000
G1 X64.633 Y12.359 Z-0.000 F780.000
G1 X64.696 Y12.346 Z-0.000 F780.000
G1 X64.756 Y12.323 Z-0.000 F780.000
G1 X64.812 Y12.291 Z-0.000 F780.000
G1 X64.862 Y12.250 Z-0.000 F780.000
G1 X64.905 Y12.202 Z-0.000 F780.000
G1 X64.939 Y12.147 Z-0.000 F780.000
G1 X64.964 Y12.088 Z-0.000 F780.000
G1 X64.980 Y12.026 Z-0.000 F780.000
G1 X64.985 Y11.962 Z-0.000 F780.000
G4 P10.000
G0 X64.985 Y11.962 Z0.100 F300.000
G0 X67.517 Y11.905 Z0.100 F1200.000
G0 X67.517 Y11.905 Z-0.000 F300.000
G1 X67.517 Y11.905 Z-0.000 F780.000
G1 X67.517 Y11.905 Z-0.000 F780.000
G1 X67.512 Y11.841 Z-0.000 F780.000
G1 X67.496 Y11.778 Z-0.000 F780.000
G1 X67.471 Y11.719 Z-0.000 F780.000
G1 X67.437 Y11.664 Z-0.000 F780.000
G1 X67.394 Y11.616 Z-0.000 F780.000
G1 X67.344 Y11.575 Z-0.000 F780.000
G1 X67.288 Y11.543 Z-0.000 F780.000
G1 X67.228 Y11.520 Z-0.000 F780.000
G1 X67.165 Y11.508 Z-0.000 F780.000
G1 X67.101 Y11.505 Z-0.000 F780.000
G1 X67.037 Y11.513 Z-0.000 F780.000
G1 X66.975 Y11.531 Z-0.000 F780.000
G1 X66.917 Y11.558 Z-0.000 F780.000
G1 X66.864 Y11.595 Z-0.000 F780.000
G1 X66.817 Y11.639 Z-0.000 F780.000
G1 X66.779 Y11.691 Z-0.000 F780.000
G1 X66.749 Y11.748 Z-0.000 F780.000
G1 X66.729 Y11.809 Z-0.000 F780.000
G1 X66.718 Y11.872 Z-0.000 F780.000
G1 X66.718 Y11.937 Z-0.000 F780.000
G1 X66.729 Y12.000 Z-0.000 F780.000
G1 X66.749 Y12.061 Z-0.000 F780.000
G1 X66.779 Y12.118 Z-0.000 F780.000
G1 X66.817 Y12.170 Z-0.000 F780.000
G1 X66.864 Y12.215 Z-0.000 F780.000
G1 X66.917 Y12.251 Z-0.000 F780.000
G1 X66.975 Y12.279 Z-0.000 F780.000
G1 X67.037 Y12.297 Z-0.000 F780.000
G1 X67.101 Y12.304 Z-0.000 F780.000
G1 X67.165 Y12.302 Z-0.000 F780.000
G1 X67.228 Y12.289 Z-0.000 F780.000
G1 X67.288 Y12.266 Z-0.000 F780.000
G1 X67.344 Y12.234 Z-0.000 F780.000
G1 X67.394 Y12.193 Z-0.000 F780.000
G1 X67.437 Y12.145 Z-0.000 F780.000
G1 X67.471 Y12.091 Z-0.000 F780.000
G1 X67.496 Y12.031 Z-0.000 F780.000
G1 X67.512 Y11.969 Z-0.000 F780.000
G1 X67.517 Y11.905 Z-0.000 F780.000
G4 P10.000
G0 X67.517 Y11.905 Z0.100 F300.000
G0 X70.102 Y11.953 Z0.100 F1200.000
G0 X70.102 Y11.953 Z-0.000 F300.000
G1 X70.102 Y11.953 Z-0.000 F780.000
G1 X70.102 Y11.953 Z-0.000 F780.000
G1 X70.097 Y11.889 Z-0.000 F780.000
G1 X70.081 Y11.827 Z-0.000 F780.000
G1 X70.056 Y11.767 Z-0.000 F780.000
G1 X70.022 Y11.713 Z-0.000 F780.000
G1 X69.979 Y11.665 Z-0.000 F780.000
G1 X69.929 Y11.624 Z-0.000 F780.000
G1 X69.873 Y11.592 Z-0.000 F780.000
G1 X69.813 Y11.569 Z-0.000 F780.000
G1 X69.750 Y11.556 Z-0.000 F780.000
G1 X69.686 Y11.554 Z-0.000 F780.000
G1 X69.622 Y11.561 Z-0.000 F780.000
G1 X69.560 Y11.579 Z-0.000 F780.000
G1 X69.502 Y11.607 Z-0.000 F780.000
G1 X69.449 Y11.643 Z-0.000 F780.000
G1 X69.402 Y11.688 Z-0.000 F780.000
G1 X69.364 Y11.740 Z-0.000 F780.000
G1 X69.334 Y11.797 Z-0.000 F780.000
G1 X69.314 Y11.858 Z-0.000 F780.000
G1 X69.303 Y11.921 Z-0.000 F780.000
G1 X69.303 Y11.985 Z-0.000 F780.000
G1 X69.314 Y12.049 Z-0.000 F780.000
G1 X69.334 Y12.110 Z-0.000 F780.000
G1 X69.364 Y12.167 Z-0.000 F780.000
G1 X69.402 Y12.219 Z-0.000 F780.000
G1 X69.449 Y12.263 Z-0.000 F780.000
G1 X69.502 Y12.300 Z-0.000 F780.000
G1 X69.560 Y12.327 Z-0.000 F780.000
G1 X69.622 Y12.345 Z-0.000 F780.000
G1 X69.686 Y12.353 Z-0.000 F780.000
G1 X69.750 Y12.350 Z-0.000 F780.000
G1 X69.813 Y12.337 Z-0.000 F780.000
G1 X69.873 Y12.315 Z-0.000 F780.000
G1 X69.929 Y12.282 Z-0.000 F780.000
G1 X69.979 Y12.242 Z-0.000 F780.000
G1 X70.022 Y12.194 Z-0.000 F780.000
G1 X70.056 Y12.139 Z-0.000 F780.000
G1 X70.081 Y12.080 Z-0.000 F780.000
G1 X70.097 Y12.017 Z-0.000 F780.000
G1 X70.102 Y11.953 Z-0.000 F780.000
G4 P10.000
G0 X70.102 Y11.953 Z0.100 F300.000
G0 X72.634 Y11.923 Z0.100 F1200.000
G0 X72.634 Y11.923 Z-0.000 F300.000
G1 X72.634 Y11.923 Z-0.000 F780.000
G1 X72.634 Y11.923 Z-0.000 F780.000
G1 X72.629 Y11.859 Z-0.000 F780.000
G1 X72.613 Y11.796 Z-0.000 F780.000
G1 X72.588 Y11.737 Z-0.000 F780.000
G1 X72.554 Y11.683 Z-0.000 F780.000
G1 X72.511 Y11.634 Z-0.000 F780.000
G1 X72.461 Y11.594 Z-0.000 F780.000
G1 X72.406 Y11.561 Z-0.000 F780.000
G1 X72.345 Y11.539 Z-0.000 F780.000
G1 X72.282 Y11.526 Z-0.000 F780.000
G1 X72.218 Y11.523 Z-0.000 F780.000
G1 X72.154 Y11.531 Z-0.000 F780.000
G1 X72.092 Y11.549 Z-0.000 F780.000
G1 X72.034 Y11.576 Z-0.000 F780.000
G1 X71.981 Y11.613 Z-0.000 F780.000
G1 X71.935 Y11.658 Z-0.000 F780.000
G1 X71.896 Y11.709 Z-0.000 F780.000
G1 X71.866 Y11.766 Z-0.000 F780.000
G1 X71.846 Y11.827 Z-0.000 F780.000
G1 X71.835 Y11.891 Z-0.000 F780.000
G1 X71.835 Y11.955 Z-0.000 F780.000
G1 X71.846 Y12.019 Z-0.000 F780.000
G1 X71.866 Y12.080 Z-0.000 F780.000
G1 X71.896 Y12.137 Z-0.000 F780.000
G1 X71.935 Y12.188 Z-0.000 F780.000
G1 X71.981 Y12.233 Z-0.000 F780.000
G1 X72.034 Y12.269 Z-0.000 F780.000
G1 X72.092 Y12.297 Z-0.000 F780.000
G1 X72.154 Y12.315 Z-0.000 F780.000
G1 X72.218 Y12.323 Z-0.000 F780.000
G1 X72.282 Y12.320 Z-0.000 F780.000
G1 X72.345 Y12.307 Z-0.000 F780.000
G1 X72.406 Y12.284 Z-0.000 F780.000
G1 X72.461 Y12.252 Z-0.000 F780.000
G1 X72.511 Y12.211 Z-0.000 F780.000
G1 X72.554 Y12.163 Z-0.000 F780.000
G1 X72.588 Y12.109 Z-0.000 F780.000
G1 X72.613 Y12.050 Z-0.000 F780.000
G1 X72.629 Y11.987 Z-0.000 F780.000
G1 X72.634 Y11.923 Z-0.000 F780.000
G4 P10.000
G0 X72.634 Y11.923 Z0.100 F300.000
G0 X78.218 Y6.849 Z0.100 F1200.000
G0 X78.218 Y6.849 Z-0.000 F300.000
G1 X78.218 Y6.849 Z-0.000 F780.000
G1 X78.218 Y6.849 Z-0.000 F780.000
G1 X78.213 Y6.785 Z-0.000 F780.000
G1 X78.197 Y6.723 Z-0.000 F780.000
G1 X78.172 Y6.664 Z-0.000 F780.000
G1 X78.138 Y6.609 Z-0.000 F780.000
G1 X78.095 Y6.561 Z-0.000 F780.000
G1 X78.045 Y6.520 Z-0.000 F780.000
G1 X77.989 Y6.488 Z-0.000 F780.000
G1 X77.929 Y6.465 Z-0.000 F780.000
G1 X77.866 Y6.452 Z-0.000 F780.000
G1 X77.802 Y6.450 Z-0.000 F780.000
G1 X77.738 Y6.458 Z-0.000 F780.000
G1 X77.676 Y6.475 Z-0.000 F780.000
G1 X77.618 Y6.503 Z-0.000 F780.000
G1 X77.565 Y6.540 Z-0.000 F780.000
G1 X77.518 Y6.584 Z-0.000 F780.000
G1 X77.480 Y6.636 Z-0.000 F780.000
G1 X77.450 Y6.693 Z-0.000 F780.000
G1 X77.429 Y6.754 Z-0.000 F780.000
G1 X77.419 Y6.817 Z-0.000 F780.000
G1 X77.419 Y6.882 Z-0.000 F780.000
G1 X77.429 Y6.945 Z-0.000 F780.000
G1 X77.450 Y7.006 Z-0.000 F780.000
G1 X77.480 Y7.063 Z-0.000 F780.000
G1 X77.518 Y7.115 Z-0.000 F780.000
G1 X77.565 Y7.159 Z-0.000 F780.000
G1 X77.618 Y7.196 Z-0.000 F780.000
G1 X77.676 Y7.223 Z-0.000 F780.000
G1 X77.738 Y7.241 Z-0.000 F780.000
G1 X77.802 Y7.249 Z-0.000 F780.000
G1 X77.866 Y7.247 Z-0.000 F780.000
G1 X77.929 Y7.234 Z-0.000 F780.000
G1 X77.989 Y7.211 Z-0.000 F780.000
G1 X78.045 Y7.179 Z-0.000 F780.000
G1 X78.095 Y7.138 Z-0.000 F780.000
G1 X78.138 Y7.090 Z-0.000 F780.000
G1 X78.172 Y7.035 Z-0.000 F780.000
G1 X78.197 Y6.976 Z-0.000 F780.000
G1 X78.213 Y6.914 Z-0.000 F780.000
G1 X78.218 Y6.849 Z-0.000 F780.000
G4 P10.000
G0 X78.218 Y6.849 Z0.100 F300.000
G0 X73.215 Y28.724 Z0.100 F1200.000
G0 X73.215 Y28.724 Z-0.000 F300.000
G1 X73.215 Y28.724 Z-0.000 F780.000
G1 X73.215 Y28.724 Z-0.000 F780.000
G1 X73.210 Y28.660 Z-0.000 F780.000
G1 X73.194 Y28.597 Z-0.000 F780.000
G1 X73.169 Y28.538 Z-0.000 F780.000
G1 X73.135 Y28.484 Z-0.000 F780.000
G1 X73.092 Y28.436 Z-0.000 F780.000
G1 X73.042 Y28.395 Z-0.000 F780.000
G1 X72.986 Y28.363 Z-0.000 F780.000
G1 X72.926 Y28.340 Z-0.000 F780.000
G1 X72.863 Y28.327 Z-0.000 F780.000
G1 X72.799 Y28.324 Z-0.000 F780.000
G1 X72.735 Y28.332 Z-0.000 F780.000
G1 X72.673 Y28.350 Z-0.000 F780.000
G1 X72.615 Y28.378 Z-0.000 F780.000
G1 X72.562 Y28.414 Z-0.000 F780.000
G1 X72.516 Y28.459 Z-0.000 F780.000
G1 X72.477 Y28.510 Z-0.000 F780.000
G1 X72.447 Y28.567 Z-0.000 F780.000
G1 X72.427 Y28.628 Z-0.000 F780.000
G1 X72.416 Y28.692 Z-0.000 F780.000
G1 X72.416 Y28.756 Z-0.000 F780.000
G1 X72.427 Y28.820 Z-0.000 F780.000
G1 X72.447 Y28.881 Z-0.000 F780.000
G1 X72.477 Y28.938 Z-0.000 F780.000
G1 X72.516 Y28.989 Z-0.000 F780.000
G1 X72.562 Y29.034 Z-0.000 F780.000
G1 X72.615 Y29.070 Z-0.000 F780.000
G1 X72.673 Y29.098 Z-0.000 F780.000
G1 X72.735 Y29.116 Z-0.000 F780.000
G1 X72.799 Y29.124 Z-0.000 F780.000
G1 X72.863 Y29.121 Z-0.000 F780.000
G1 X72.926 Y29.108 Z-0.000 F780.000
G1 X72.986 Y29.085 Z-0.000 F780.000
G1 X73.042 Y29.053 Z-0.000 F780.000
G1 X73.092 Y29.013 Z-0.000 F780.000
G1 X73.135 Y28.964 Z-0.000 F780.000
G1 X73.169 Y28.910 Z-0.000 F780.000
G1 X73.194 Y28.851 Z-0.000 F780.000
G1 X73.210 Y28.788 Z-0.000 F780.000
G1 X73.215 Y28.724 Z-0.000 F780.000
G4 P10.000
G0 X73.215 Y28.724 Z0.100 F300.000
G0 X75.117 Y30.356 Z0.100 F1200.000
G0 X75.117 Y30.356 Z-0.000 F300.000
G1 X75.117 Y30.356 Z-0.000 F780.000
G1 X75.117 Y30.356 Z-0.000 F780.000
G1 X75.112 Y30.292 Z-0.000 F780.000
G1 X75.096 Y30.230 Z-0.000 F780.000
G1 X75.071 Y30.170 Z-0.000 F780.000
G1 X75.036 Y30.116 Z-0.000 F780.000
G1 X74.994 Y30.068 Z-0.000 F780.000
G1 X74.944 Y30.027 Z-0.000 F780.000
G1 X74.888 Y29.995 Z-0.000 F780.000
G1 X74.828 Y29.972 Z-0.000 F780.000
G1 X74.765 Y29.959 Z-0.000 F780.000
G1 X74.701 Y29.957 Z-0.000 F780.000
G1 X74.637 Y29.964 Z-0.000 F780.000
G1 X74.575 Y29.982 Z-0.000 F780.000
G1 X74.517 Y30.010 Z-0.000 F780.000
G1 X74.464 Y30.047 Z-0.000 F780.000
G1 X74.417 Y30.091 Z-0.000 F780.000
G1 X74.379 Y30.143 Z-0.000 F780.000
G1 X74.349 Y30.200 Z-0.000 F780.000
G1 X74.328 Y30.261 Z-0.000 F780.000
G1 X74.318 Y30.324 Z-0.000 F780.000
G1 X74.318 Y30.389 Z-0.000 F780.000
G1 X74.328 Y30.452 Z-0.000 F780.000
G1 X74.349 Y30.513 Z-0.000 F780.000
G1 X74.379 Y30.570 Z-0.000 F780.000
G1 X74.417 Y30.622 Z-0.000 F780.000
G1 X74.464 Y30.666 Z-0.000 F780.000
G1 X74.517 Y30.703 Z-0.000 F780.000
G1 X74.575 Y30.730 Z-0.000 F780.000
G1 X74.637 Y30.748 Z-0.000 F780.000
G1 X74.701 Y30.756 Z-0.000 F780.000
G1 X74.765 Y30.753 Z-0.000 F780.000
G1 X74.828 Y30.741 Z-0.000 F780.000
G1 X74.888 Y30.718 Z-0.000 F780.000
G1 X74.944 Y30.686 Z-0.000 F780.000
G1 X74.994 Y30.645 Z-0.000 F780.000
G1 X75.036 Y30.597 Z-0.000 F780.000
G1 X75.071 Y30.542 Z-0.000 F780.000
G1 X75.096 Y30.483 Z-0.000 F780.000
G1 X75.112 Y30.421 Z-0.000 F780.000
G1 X75.117 Y30.356 Z-0.000 F780.000
G4 P10.000
G0 X75.117 Y30.356 Z0.100 F300.000
G0 X96.870 Y42.721 Z0.100 F1200.000
G0 X96.870 Y42.721 Z-0.000 F300.000
G1 X96.870 Y42.721 Z-0.000 F780.000
G1 X96.870 Y42.721 Z-0.000 F780.000
G1 X96.865 Y42.657 Z-0.000 F780.000
G1 X96.850 Y42.595 Z-0.000 F780.000
G1 X96.825 Y42.536 Z-0.000 F780.000
G1 X96.790 Y42.481 Z-0.000 F780.000
G1 X96.748 Y42.433 Z-0.000 F780.000
G1 X96.698 Y42.392 Z-0.000 F780.000
G1 X96.642 Y42.360 Z-0.000 F780.000
G1 X96.582 Y42.337 Z-0.000 F780.000
G1 X96.519 Y42.324 Z-0.000 F780.000
G1 X96.454 Y42.322 Z-0.000 F780.000
G1 X96.390 Y42.329 Z-0.000 F780.000
G1 X96.329 Y42.347 Z-0.000 F780.000
G1 X96.270 Y42.375 Z-0.000 F780.000
G1 X96.217 Y42.412 Z-0.000 F780.000
G1 X96.171 Y42.456 Z-0.000 F780.000
G1 X96.132 Y42.508 Z-0.000 F780.000
G1 X96.102 Y42.565 Z-0.000 F780.000
G1 X96.082 Y42.626 Z-0.000 F780.000
G1 X96.072 Y42.689 Z-0.000 F780.000
G1 X96.072 Y42.754 Z-0.000 F780.000
G1 X96.082 Y42.817 Z-0.000 F780.000
G1 X96.102 Y42.878 Z-0.000 F780.000
G1 X96.132 Y42.935 Z-0.000 F780.000
G1 X96.171 Y42.987 Z-0.000 F780.000
G1 X96.217 Y43.031 Z-0.000 F780.000
G1 X96.270 Y43.068 Z-0.000 F780.000
G1 X96.329 Y43.095 Z-0.000 F780.000
G1 X96.390 Y43.113 Z-0.000 F780.000
G1 X96.454 Y43.121 Z-0.000 F780.000
G1 X96.519 Y43.118 Z-0.000 F780.000
G1 X96.582 Y43.106 Z-0.000 F780.000
G1 X96.642 Y43.083 Z-0.000 F780.000
G1 X96.698 Y43.051 Z-0.000 F780.000
G1 X96.748 Y43.010 Z-0.000 F780.000
G1 X96.790 Y42.962 Z-0.000 F780.000
G1 X96.825 Y42.907 Z-0.000 F780.000
G1 X96.850 Y42.848 Z-0.000 F780.000
G1 X96.865 Y42.786 Z-0.000 F780.000
G1 X96.870 Y42.721 Z-0.000 F780.000
G4 P10.000
G0 X96.870 Y42.721 Z0.100 F300.000
G0 X104.748 Y36.643 Z0.100 F1200.000
G0 X104.748 Y36.643 Z-0.000 F300.000
G1 X104.748 Y36.643 Z-0.000 F780.000
G1 X104.748 Y36.643 Z-0.000 F780.000
G1 X104.743 Y36.579 Z-0.000 F780.000
G1 X104.728 Y36.516 Z-0.000 F780.000
G1 X104.703 Y36.457 Z-0.000 F780.000
G1 X104.668 Y36.403 Z-0.000 F780.000
G1 X104.625 Y36.354 Z-0.000 F780.000
G1 X104.576 Y36.314 Z-0.000 F780.000
G1 X104.520 Y36.281 Z-0.000 F780.000
G1 X104.460 Y36.259 Z-0.000 F780.000
G1 X104.397 Y36.246 Z-0.000 F780.000
G1 X104.332 Y36.243 Z-0.000 F780.000
G1 X104.268 Y36.251 Z-0.000 F780.000
G1 X104.207 Y36.269 Z-0.000 F780.000
G1 X104.148 Y36.296 Z-0.000 F780.000
G1 X104.095 Y36.333 Z-0.000 F780.000
G1 X104.049 Y36.378 Z-0.000 F780.000
G1 X104.010 Y36.429 Z-0.000 F780.000
G1 X103.980 Y36.486 Z-0.000 F780.000
G1 X103.960 Y36.547 Z-0.000 F780.000
G1 X103.950 Y36.611 Z-0.000 F780.000
G1 X103.950 Y36.675 Z-0.000 F780.000
G1 X103.960 Y36.739 Z-0.000 F780.000
G1 X103.980 Y36.800 Z-0.000 F780.000
G1 X104.010 Y36.857 Z-0.000 F780.000
G1 X104.049 Y36.908 Z-0.000 F780.000
G1 X104.095 Y36.953 Z-0.000 F780.000
G1 X104.148 Y36.989 Z-0.000 F780.000
G1 X104.207 Y37.017 Z-0.000 F780.000
G1 X104.268 Y37.035 Z-0.000 F780.000
G1 X104.332 Y37.043 Z-0.000 F780.000
G1 X104.397 Y37.040 Z-0.000 F780.000
G1 X104.460 Y37.027 Z-0.000 F780.000
G1 X104.520 Y37.004 Z-0.000 F780.000
G1 X104.576 Y36.972 Z-0.000 F780.000
G1 X104.625 Y36.931 Z-0.000 F780.000
G1 X104.668 Y36.883 Z-0.000 F780.000
G1 X104.703 Y36.829 Z-0.000 F780.000
G1 X104.728 Y36.769 Z-0.000 F780.000
G1 X104.743 Y36.707 Z-0.000 F780.000
G1 X104.748 Y36.643 Z-0.000 F780.000
G4 P10.000
G0 X104.748 Y36.643 Z0.100 F300.000
G0 X104.583 Y31.711 Z0.100 F1200.000
G0 X104.583 Y31.711 Z-0.000 F300.000
G1 X104.583 Y31.711 Z-0.000 F780.000
G1 X104.583 Y31.711 Z-0.000 F780.000
G1 X104.578 Y31.646 Z-0.000 F780.000
G1 X104.562 Y31.584 Z-0.000 F780.000
G1 X104.537 Y31.525 Z-0.000 F780.000
G1 X104.503 Y31.470 Z-0.000 F780.000
G1 X104.460 Y31.422 Z-0.000 F780.000
G1 X104.410 Y31.381 Z-0.000 F780.000
G1 X104.355 Y31.349 Z-0.000 F780.000
G1 X104.294 Y31.326 Z-0.000 F780.000
G1 X104.231 Y31.313 Z-0.000 F780.000
G1 X104.167 Y31.311 Z-0.000 F780.000
G1 X104.103 Y31.319 Z-0.000 F780.000
G1 X104.041 Y31.337 Z-0.000 F780.000
G1 X103.983 Y31.364 Z-0.000 F780.000
G1 X103.930 Y31.401 Z-0.000 F780.000
G1 X103.884 Y31.445 Z-0.000 F780.000
G1 X103.845 Y31.497 Z-0.000 F780.000
G1 X103.815 Y31.554 Z-0.000 F780.000
G1 X103.795 Y31.615 Z-0.000 F780.000
G1 X103.784 Y31.678 Z-0.000 F780.000
G1 X103.784 Y31.743 Z-0.000 F780.000
G1 X103.795 Y31.806 Z-0.000 F780.000
G1 X103.815 Y31.867 Z-0.000 F780.000
G1 X103.845 Y31.924 Z-0.000 F780.000
G1 X103.884 Y31.976 Z-0.000 F780.000
G1 X103.930 Y32.020 Z-0.000 F780.000
G1 X103.983 Y32.057 Z-0.000 F780.000
G1 X104.041 Y32.085 Z-0.000 F780.000
G1 X104.103 Y32.102 Z-0.000 F780.000
G1 X104.167 Y32.110 Z-0.000 F780.000
G1 X104.231 Y32.108 Z-0.000 F780.000
G1 X104.294 Y32.095 Z-0.000 F780.000
G1 X104.355 Y32.072 Z-0.000 F780.000
G1 X104.410 Y32.040 Z-0.000 F780.000
G1 X104.460 Y31.999 Z-0.000 F780.000
G1 X104.503 Y31.951 Z-0.000 F780.000
G1 X104.537 Y31.896 Z-0.000 F780.000
G1 X104.562 Y31.837 Z-0.000 F780.000
G1 X104.578 Y31.775 Z-0.000 F780.000
G1 X104.583 Y31.711 Z-0.000 F780.000
G4 P10.000
G0 X104.583 Y31.711 Z0.100 F300.000
G0 X49.789 Y60.965 Z0.100 F1200.000
G0 X49.789 Y60.965 Z-0.000 F300.000
G1 X49.789 Y60.965 Z-0.000 F780.000
G1 X49.789 Y60.965 Z-0.000 F780.000
G1 X49.783 Y60.901 Z-0.000 F780.000
G1 X49.768 Y60.838 Z-0.000 F780.000
G1 X49.743 Y60.779 Z-0.000 F780.000
G1 X49.708 Y60.725 Z-0.000 F780.000
G1 X49.666 Y60.677 Z-0.000 F780.000
G1 X49.616 Y60.636 Z-0.000 F780.000
G1 X49.560 Y60.604 Z-0.000 F780.000
G1 X49.500 Y60.581 Z-0.000 F780.000
G1 X49.437 Y60.568 Z-0.000 F780.000
G1 X49.372 Y60.565 Z-0.000 F780.000
G1 X49.309 Y60.573 Z-0.000 F780.000
G1 X49.247 Y60.591 Z-0.000 F780.000
G1 X49.189 Y60.619 Z-0.000 F780.000
G1 X49.136 Y60.655 Z-0.000 F780.000
G1 X49.089 Y60.700 Z-0.000 F780.000
G1 X49.050 Y60.751 Z-0.000 F780.000
G1 X49.021 Y60.808 Z-0.000 F780.000
G1 X49.000 Y60.869 Z-0.000 F780.000
G1 X48.990 Y60.933 Z-0.000 F780.000
G1 X48.990 Y60.997 Z-0.000 F780.000
G1 X49.000 Y61.061 Z-0.000 F780.000
G1 X49.021 Y61.122 Z-0.000 F780.000
G1 X49.050 Y61.179 Z-0.000 F780.000
G1 X49.089 Y61.230 Z-0.000 F780.000
G1 X49.136 Y61.275 Z-0.000 F780.000
G1 X49.189 Y61.311 Z-0.000 F780.000
G1 X49.247 Y61.339 Z-0.000 F780.000
G1 X49.309 Y61.357 Z-0.000 F780.000
G1 X49.372 Y61.365 Z-0.000 F780.000
G1 X49.437 Y61.362 Z-0.000 F780.000
G1 X49.500 Y61.349 Z-0.000 F780.000
G1 X49.560 Y61.326 Z-0.000 F780.000
G1 X49.616 Y61.294 Z-0.000 F780.000
G1 X49.666 Y61.253 Z-0.000 F780.000
G1 X49.708 Y61.205 Z-0.000 F780.000
G1 X49.743 Y61.151 Z-0.000 F780.000
G1 X49.768 Y61.092 Z-0.000 F780.000
G1 X49.783 Y61.029 Z-0.000 F780.000
G1 X49.789 Y60.965 Z-0.000 F780.000
G4 P10.000
G0 X49.789 Y60.965 Z0.100 F300.000
G0 X104.729 Y41.654 Z0.100 F1200.000
G0 X104.729 Y41.654 Z-0.000 F300.000
G1 X104.729 Y41.654 Z-0.000 F780.000
G1 X104.729 Y41.654 Z-0.000 F780.000
G1 X104.724 Y41.590 Z-0.000 F780.000
G1 X104.709 Y41.528 Z-0.000 F780.000
G1 X104.683 Y41.468 Z-0.000 F780.000
G1 X104.649 Y41.414 Z-0.000 F780.000
G1 X104.606 Y41.366 Z-0.000 F780.000
G1 X104.557 Y41.325 Z-0.000 F780.000
G1 X104.501 Y41.293 Z-0.000 F780.000
G1 X104.441 Y41.270 Z-0.000 F780.000
G1 X104.378 Y41.257 Z-0.000 F780.000
G1 X104.313 Y41.255 Z-0.000 F780.000
G1 X104.249 Y41.262 Z-0.000 F780.000
G1 X104.187 Y41.280 Z-0.000 F780.000
G1 X104.129 Y41.308 Z-0.000 F780.000
G1 X104.076 Y41.344 Z-0.000 F780.000
G1 X104.030 Y41.389 Z-0.000 F780.000
G1 X103.991 Y41.441 Z-0.000 F780.000
G1 X103.961 Y41.498 Z-0.000 F780.000
G1 X103.941 Y41.559 Z-0.000 F780.000
G1 X103.931 Y41.622 Z-0.000 F780.000
G1 X103.931 Y41.687 Z-0.000 F780.000
G1 X103.941 Y41.750 Z-0.000 F780.000
G1 X103.961 Y41.811 Z-0.000 F780.000
G1 X103.991 Y41.868 Z-0.000 F780.000
G1 X104.030 Y41.920 Z-0.000 F780.000
G1 X104.076 Y41.964 Z-0.000 F780.000
G1 X104.129 Y42.001 Z-0.000 F780.000
G1 X104.187 Y42.028 Z-0.000 F780.000
G1 X104.249 Y42.046 Z-0.000 F780.000
G1 X104.313 Y42.054 Z-0.000 F780.000
G1 X104.378 Y42.051 Z-0.000 F780.000
G1 X104.441 Y42.039 Z-0.000 F780.000
G1 X104.501 Y42.016 Z-0.000 F780.000
G1 X104.557 Y41.984 Z-0.000 F780.000
G1 X104.606 Y41.943 Z-0.000 F780.000
G1 X104.649 Y41.895 Z-0.000 F780.000
G1 X104.683 Y41.840 Z-0.000 F780.000
G1 X104.709 Y41.781 Z-0.000 F780.000
G1 X104.724 Y41.718 Z-0.000 F780.000
G1 X104.729 Y41.654 Z-0.000 F780.000
G4 P10.000
G0 X104.729 Y41.654 Z0.100 F300.000
G0 X96.905 Y30.561 Z0.100 F1200.000
G0 X96.905 Y30.561 Z-0.000 F300.000
G1 X96.905 Y30.561 Z-0.000 F780.000
G1 X96.905 Y30.561 Z-0.000 F780.000
G1 X96.900 Y30.497 Z-0.000 F780.000
G1 X96.884 Y30.435 Z-0.000 F780.000
G1 X96.859 Y30.375 Z-0.000 F780.000
G1 X96.825 Y30.321 Z-0.000 F780.000
G1 X96.782 Y30.273 Z-0.000 F780.000
G1 X96.732 Y30.232 Z-0.000 F780.000
G1 X96.677 Y30.200 Z-0.000 F780.000
G1 X96.616 Y30.177 Z-0.000 F780.000
G1 X96.553 Y30.164 Z-0.000 F780.000
G1 X96.489 Y30.162 Z-0.000 F780.000
G1 X96.425 Y30.169 Z-0.000 F780.000
G1 X96.363 Y30.187 Z-0.000 F780.000
G1 X96.305 Y30.215 Z-0.000 F780.000
G1 X96.252 Y30.251 Z-0.000 F780.000
G1 X96.206 Y30.296 Z-0.000 F780.000
G1 X96.167 Y30.347 Z-0.000 F780.000
G1 X96.137 Y30.404 Z-0.000 F780.000
G1 X96.117 Y30.466 Z-0.000 F780.000
G1 X96.106 Y30.529 Z-0.000 F780.000
G1 X96.106 Y30.593 Z-0.000 F780.000
G1 X96.117 Y30.657 Z-0.000 F780.000
G1 X96.137 Y30.718 Z-0.000 F780.000
G1 X96.167 Y30.775 Z-0.000 F780.000
G1 X96.206 Y30.827 Z-0.000 F780.000
G1 X96.252 Y30.871 Z-0.000 F780.000
G1 X96.305 Y30.908 Z-0.000 F780.000
G1 X96.363 Y30.935 Z-0.000 F780.000
G1 X96.425 Y30.953 Z-0.000 F780.000
G1 X96.489 Y30.961 Z-0.000 F780.000
G1 X96.553 Y30.958 Z-0.000 F780.000
G1 X96.616 Y30.945 Z-0.000 F780.000
G1 X96.677 Y30.923 Z-0.000 F780.000
G1 X96.732 Y30.890 Z-0.000 F780.000
G1 X96.782 Y30.850 Z-0.000 F780.000
G1 X96.825 Y30.802 Z-0.000 F780.000
G1 X96.859 Y30.747 Z-0.000 F780.000
G1 X96.884 Y30.688 Z-0.000 F780.000
G1 X96.900 Y30.625 Z-0.000 F780.000
G1 X96.905 Y30.561 Z-0.000 F780.000
G4 P10.000
G0 X96.905 Y30.561 Z0.100 F300.000
G0 X52.320 Y60.858 Z0.100 F1200.000
G0 X52.320 Y60.858 Z-0.000 F300.000
G1 X52.320 Y60.858 Z-0.000 F780.000
G1 X52.320 Y60.858 Z-0.000 F780.000
G1 X52.315 Y60.794 Z-0.000 F780.000
G1 X52.299 Y60.731 Z-0.000 F780.000
G1 X52.274 Y60.672 Z-0.000 F780.000
G1 X52.240 Y60.617 Z-0.000 F780.000
G1 X52.197 Y60.569 Z-0.000 F780.000
G1 X52.147 Y60.529 Z-0.000 F780.000
G1 X52.092 Y60.496 Z-0.000 F780.000
G1 X52.031 Y60.474 Z-0.000 F780.000
G1 X51.968 Y60.461 Z-0.000 F780.000
G1 X51.904 Y60.458 Z-0.000 F780.000
G1 X51.840 Y60.466 Z-0.000 F780.000
G1 X51.778 Y60.484 Z-0.000 F780.000
G1 X51.720 Y60.511 Z-0.000 F780.000
G1 X51.667 Y60.548 Z-0.000 F780.000
G1 X51.621 Y60.592 Z-0.000 F780.000
G1 X51.582 Y60.644 Z-0.000 F780.000
G1 X51.552 Y60.701 Z-0.000 F780.000
G1 X51.532 Y60.762 Z-0.000 F780.000
G1 X51.521 Y60.826 Z-0.000 F780.000
G1 X51.521 Y60.890 Z-0.000 F780.000
G1 X51.532 Y60.953 Z-0.000 F780.000
G1 X51.552 Y61.015 Z-0.000 F780.000
G1 X51.582 Y61.072 Z-0.000 F780.000
G1 X51.621 Y61.123 Z-0.000 F780.000
G1 X51.667 Y61.168 Z-0.000 F780.000
G1 X51.720 Y61.204 Z-0.000 F780.000
G1 X51.778 Y61.232 Z-0.000 F780.000
G1 X51.840 Y61.250 Z-0.000 F780.000
G1 X51.904 Y61.257 Z-0.000 F780.000
G1 X51.968 Y61.255 Z-0.000 F780.000
G1 X52.031 Y61.242 Z-0.000 F780.000
G1 X52.092 Y61.219 Z-0.000 F780.000
G1 X52.147 Y61.187 Z-0.000 F780.000
G1 X52.197 Y61.146 Z-0.000 F780.000
G1 X52.240 Y61.098 Z-0.000 F780.000
G1 X52.274 Y61.044 Z-0.000 F780.000
G1 X52.299 Y60.984 Z-0.000 F780.000
G1 X52.315 Y60.922 Z-0.000 F780.000
G1 X52.320 Y60.858 Z-0.000 F780.000
G4 P10.000
G0 X52.320 Y60.858 Z0.100 F300.000
G0 X54.879 Y60.907 Z0.100 F1200.000
G0 X54.879 Y60.907 Z-0.000 F300.000
G1 X54.879 Y60.907 Z-0.000 F780.000
G1 X54.879 Y60.907 Z-0.000 F780.000
G1 X54.874 Y60.843 Z-0.000 F780.000
G1 X54.858 Y60.780 Z-0.000 F780.000
G1 X54.833 Y60.721 Z-0.000 F780.000
G1 X54.798 Y60.666 Z-0.000 F780.000
G1 X54.756 Y60.618 Z-0.000 F780.000
G1 X54.706 Y60.577 Z-0.000 F780.000
G1 X54.650 Y60.545 Z-0.000 F780.000
G1 X54.590 Y60.522 Z-0.000 F780.000
G1 X54.527 Y60.510 Z-0.000 F780.000
G1 X54.463 Y60.507 Z-0.000 F780.000
G1 X54.399 Y60.515 Z-0.000 F780.000
G1 X54.337 Y60.533 Z-0.000 F780.000
G1 X54.279 Y60.560 Z-0.000 F780.000
G1 X54.226 Y60.597 Z-0.000 F780.000
G1 X54.179 Y60.641 Z-0.000 F780.000
G1 X54.141 Y60.693 Z-0.000 F780.000
G1 X54.111 Y60.750 Z-0.000 F780.000
G1 X54.090 Y60.811 Z-0.000 F780.000
G1 X54.080 Y60.874 Z-0.000 F780.000
G1 X54.080 Y60.939 Z-0.000 F780.000
G1 X54.090 Y61.002 Z-0.000 F780.000
G1 X54.111 Y61.063 Z-0.000 F780.000
G1 X54.141 Y61.120 Z-0.000 F780.000
G1 X54.179 Y61.172 Z-0.000 F780.000
G1 X54.226 Y61.217 Z-0.000 F780.000
G1 X54.279 Y61.253 Z-0.000 F780.000
G1 X54.337 Y61.281 Z-0.000 F780.000
G1 X54.399 Y61.299 Z-0.000 F780.000
G1 X54.463 Y61.306 Z-0.000 F780.000
G1 X54.527 Y61.304 Z-0.000 F780.000
G1 X54.590 Y61.291 Z-0.000 F780.000
G1 X54.650 Y61.268 Z-0.000 F780.000
G1 X54.706 Y61.236 Z-0.000 F780.000
G1 X54.756 Y61.195 Z-0.000 F780.000
G1 X54.798 Y61.147 Z-0.000 F780.000
G1 X54.833 Y61.093 Z-0.000 F780.000
G1 X54.858 Y61.033 Z-0.000 F780.000
G1 X54.874 Y60.971 Z-0.000 F780.000
G1 X54.879 Y60.907 Z-0.000 F780.000
G4 P10.000
G0 X54.879 Y60.907 Z0.100 F300.000
G0 X68.017 Y6.856 Z0.100 F1200.000
G0 X68.017 Y6.856 Z-0.000 F300.000
G1 X68.017 Y6.856 Z-0.000 F780.000
G1 X68.017 Y6.856 Z-0.000 F780.000
G1 X68.012 Y6.791 Z-0.000 F780.000
G1 X67.997 Y6.729 Z-0.000 F780.000
G1 X67.971 Y6.670 Z-0.000 F780.000
G1 X67.937 Y6.615 Z-0.000 F780.000
G1 X67.894 Y6.567 Z-0.000 F780.000
G1 X67.844 Y6.526 Z-0.000 F780.000
G1 X67.789 Y6.494 Z-0.000 F780.000
G1 X67.728 Y6.471 Z-0.000 F780.000
G1 X67.665 Y6.459 Z-0.000 F780.000
G1 X67.601 Y6.456 Z-0.000 F780.000
G1 X67.537 Y6.464 Z-0.000 F780.000
G1 X67.475 Y6.482 Z-0.000 F780.000
G1 X67.417 Y6.509 Z-0.000 F780.000
G1 X67.364 Y6.546 Z-0.000 F780.000
G1 X67.318 Y6.590 Z-0.000 F780.000
G1 X67.279 Y6.642 Z-0.000 F780.000
G1 X67.249 Y6.699 Z-0.000 F780.000
G1 X67.229 Y6.760 Z-0.000 F780.000
G1 X67.218 Y6.823 Z-0.000 F780.000
G1 X67.218 Y6.888 Z-0.000 F780.000
G1 X67.229 Y6.951 Z-0.000 F780.000
G1 X67.249 Y7.012 Z-0.000 F780.000
G1 X67.279 Y7.069 Z-0.000 F780.000
G1 X67.318 Y7.121 Z-0.000 F780.000
G1 X67.364 Y7.165 Z-0.000 F780.000
G1 X67.417 Y7.202 Z-0.000 F780.000
G1 X67.475 Y7.230 Z-0.000 F780.000
G1 X67.537 Y7.248 Z-0.000 F780.000
G1 X67.601 Y7.255 Z-0.000 F780.000
G1 X67.665 Y7.253 Z-0.000 F780.000
G1 X67.728 Y7.240 Z-0.000 F780.000
G1 X67.789 Y7.217 Z-0.000 F780.000
G1 X67.844 Y7.185 Z-0.000 F780.000
G1 X67.894 Y7.144 Z-0.000 F780.000
G1 X67.937 Y7.096 Z-0.000 F780.000
G1 X67.971 Y7.042 Z-0.000 F780.000
G1 X67.997 Y6.982 Z-0.000 F780.000
G1 X68.012 Y6.920 Z-0.000 F780.000
G1 X68.017 Y6.856 Z-0.000 F780.000
G4 P10.000
G0 X68.017 Y6.856 Z0.100 F300.000
G0 X75.192 Y11.835 Z0.100 F1200.000
G0 X75.192 Y11.835 Z-0.000 F300.000
G1 X75.192 Y11.835 Z-0.000 F780.000
G1 X75.192 Y11.835 Z-0.000 F780.000
G1 X75.187 Y11.771 Z-0.000 F780.000
G1 X75.172 Y11.709 Z-0.000 F780.000
G1 X75.147 Y11.649 Z-0.000 F780.000
G1 X75.112 Y11.595 Z-0.000 F780.000
G1 X75.069 Y11.547 Z-0.000 F780.000
G1 X75.020 Y11.506 Z-0.000 F780.000
G1 X74.964 Y11.474 Z-0.000 F780.000
G1 X74.904 Y11.451 Z-0.000 F780.000
G1 X74.841 Y11.438 Z-0.000 F780.000
G1 X74.776 Y11.436 Z-0.000 F780.000
G1 X74.712 Y11.443 Z-0.000 F780.000
G1 X74.651 Y11.461 Z-0.000 F780.000
G1 X74.592 Y11.489 Z-0.000 F780.000
G1 X74.539 Y11.525 Z-0.000 F780.000
G1 X74.493 Y11.570 Z-0.000 F780.000
G1 X74.454 Y11.622 Z-0.000 F780.000
G1 X74.424 Y11.679 Z-0.000 F780.000
G1 X74.404 Y11.740 Z-0.000 F780.000
G1 X74.394 Y11.803 Z-0.000 F780.000
G1 X74.394 Y11.867 Z-0.000 F780.000
G1 X74.404 Y11.931 Z-0.000 F780.000
G1 X74.424 Y11.992 Z-0.000 F780.000
G1 X74.454 Y12.049 Z-0.000 F780.000
G1 X74.493 Y12.101 Z-0.000 F780.000
G1 X74.539 Y12.145 Z-0.000 F780.000
G1 X74.592 Y12.182 Z-0.000 F780.000
G1 X74.651 Y12.209 Z-0.000 F780.000
G1 X74.712 Y12.227 Z-0.000 F780.000
G1 X74.776 Y12.235 Z-0.000 F780.000
G1 X74.841 Y12.232 Z-0.000 F780.000
G1 X74.904 Y12.220 Z-0.000 F780.000
G1 X74.964 Y12.197 Z-0.000 F780.000
G1 X75.020 Y12.164 Z-0.000 F780.000
G1 X75.069 Y12.124 Z-0.000 F780.000
G1 X75.112 Y12.076 Z-0.000 F780.000
G1 X75.147 Y12.021 Z-0.000 F780.000
G1 X75.172 Y11.962 Z-0.000 F780.000
G1 X75.187 Y11.899 Z-0.000 F780.000
G1 X75.192 Y11.835 Z-0.000 F780.000
G4 P10.000
G0 X75.192 Y11.835 Z0.100 F300.000
G0 X72.534 Y11.923 Z0.000 F300.000
G0 X72.534 Y11.923 Z-0.000 F1200.000
G1 X72.534 Y11.923 Z-0.000 F780.000
G1 X72.530 Y11.875 Z-0.000 F780.000
G1 X72.518 Y11.828 Z-0.000 F780.000
G1 X72.499 Y11.784 Z-0.000 F780.000
G1 X72.474 Y11.743 Z-0.000 F780.000
G1 X72.442 Y11.707 Z-0.000 F780.000
G1 X72.404 Y11.676 Z-0.000 F780.000
G1 X72.363 Y11.652 Z-0.000 F780.000
G1 X72.317 Y11.635 Z-0.000 F780.000
G1 X72.270 Y11.625 Z-0.000 F780.000
G1 X72.222 Y11.623 Z-0.000 F780.000
G1 X72.174 Y11.629 Z-0.000 F780.000
G1 X72.128 Y11.643 Z-0.000 F780.000
G1 X72.084 Y11.663 Z-0.000 F780.000
G1 X72.045 Y11.691 Z-0.000 F780.000
G1 X72.010 Y11.724 Z-0.000 F780.000
G1 X71.981 Y11.763 Z-0.000 F780.000
G1 X71.958 Y11.805 Z-0.000 F780.000
G1 X71.943 Y11.851 Z-0.000 F780.000
G1 X71.935 Y11.899 Z-0.000 F780.000
G1 X71.935 Y11.947 Z-0.000 F780.000
G1 X71.943 Y11.995 Z-0.000 F780.000
G1 X71.958 Y12.040 Z-0.000 F780.000
G1 X71.981 Y12.083 Z-0.000 F780.000
G1 X72.010 Y12.122 Z-0.000 F780.000
G1 X72.045 Y12.155 Z-0.000 F780.000
G1 X72.084 Y12.182 Z-0.000 F780.000
G1 X72.128 Y12.203 Z-0.000 F780.000
G1 X72.174 Y12.216 Z-0.000 F780.000
G1 X72.222 Y12.222 Z-0.000 F780.000
G1 X72.270 Y12.220 Z-0.000 F780.000
G1 X72.317 Y12.211 Z-0.000 F780.000
G1 X72.363 Y12.194 Z-0.000 F780.000
G1 X72.404 Y12.169 Z-0.000 F780.000
G1 X72.442 Y12.139 Z-0.000 F780.000
G1 X72.474 Y12.103 Z-0.000 F780.000
G1 X72.499 Y12.062 Z-0.000 F780.000
G1 X72.518 Y12.018 Z-0.000 F780.000
G1 X72.530 Y11.971 Z-0.000 F780.000
G1 X72.534 Y11.923 Z-0.000 F780.000
G4 P10.000
G0 X72.534 Y11.923 Z0.100 F300.000
G0 X72.524 Y28.796 Z0.100 F1200.000
G0 X72.524 Y28.796 Z-0.000 F300.000
G1 X72.524 Y28.796 Z-0.000 F780.000
G1 X72.539 Y28.842 Z-0.000 F780.000
G1 X72.562 Y28.884 Z-0.000 F780.000
G1 X72.591 Y28.923 Z-0.000 F780.000
G1 X72.625 Y28.956 Z-0.000 F780.000
G1 X72.665 Y28.984 Z-0.000 F780.000
G1 X72.709 Y29.004 Z-0.000 F780.000
G1 X72.755 Y29.018 Z-0.000 F780.000
G1 X72.803 Y29.023 Z-0.000 F780.000
G1 X72.851 Y29.022 Z-0.000 F780.000
G1 X72.898 Y29.012 Z-0.000 F780.000
G1 X72.943 Y28.995 Z-0.000 F780.000
G1 X72.985 Y28.971 Z-0.000 F780.000
G1 X73.023 Y28.940 Z-0.000 F780.000
G1 X73.055 Y28.904 Z-0.000 F780.000
