; Generated with Voxelizer 2
;; { "info": [
;;         { "toolhead": "Laser" },
;;         { "workflow": "laser cutting" },
;;         { "voxelizer_version": "v2.0.0-macOS-1-g90eaae" },
;;         { "voxel_size": 0.23999999463558197 },
;;         { "printing_time": "16min 58s " },
;;         { "printer": "ZMorph VX" },
;;         { "material_gravity_x": "Left" },
;;         { "material_gravity_y": "Front" },
;;         { "material_size_x": 115.0 },
;;         { "material_size_y": 70.0 },
;;         { "material_size_z": 3.0 }
;;     ] }
G90
G0 X0.000 Y67.208 Z0.000 F1200.000
G0 X0.000 Y67.208 Z-0.000 F1200.000
G1 X0.000 Y67.208 Z-0.000 F780.000
G1 X0.091 Y67.300 Z-0.000 F780.000
G1 X79.934 Y67.259 Z-0.000 F780.000
G1 X79.985 Y48.336 Z-0.000 F780.000
G1 X111.138 Y48.359 Z-0.000 F780.000
G1 X111.252 Y48.235 Z-0.000 F780.000
G1 X111.252 Y24.409 Z-0.000 F780.000
G1 X81.377 Y24.409 Z-0.000 F780.000
G1 X81.377 Y24.409 Z-0.000 F780.000
G1 X81.361 Y24.409 Z-0.000 F780.000
G1 X81.343 Y24.409 Z-0.000 F780.000
G1 X81.343 Y24.409 Z-0.000 F780.000
G1 X81.328 Y24.409 Z-0.000 F780.000
G1 X81.305 Y24.409 Z-0.000 F780.000
G1 X81.255 Y24.359 Z-0.000 F780.000
G1 X81.270 Y24.343 Z-0.000 F780.000
G1 X81.280 Y24.333 Z-0.000 F780.000
G1 X81.280 Y24.293 Z-0.000 F780.000
G1 X81.280 Y24.293 Z-0.000 F780.000
G1 X81.280 Y0.089 Z-0.000 F780.000
G1 X81.191 Y0.000 Z-0.000 F780.000
G1 X0.000 Y0.025 Z-0.000 F780.000
G1 X0.000 Y67.208 Z-0.000 F780.000
G4 P10.000
G0 X0.000 Y67.208 Z0.100 F300.000
G0 X42.748 Y20.023 Z0.100 F1200.000
G0 X42.748 Y20.023 Z-0.000 F300.000
G1 X42.748 Y20.023 Z-0.000 F780.000
G1 X42.484 Y19.987 Z-0.000 F780.000
G1 X42.238 Y19.886 Z-0.000 F780.000
G1 X42.024 Y19.723 Z-0.000 F780.000
G1 X41.862 Y19.510 Z-0.000 F780.000
G1 X41.760 Y19.263 Z-0.000 F780.000
G1 X41.725 Y18.999 Z-0.000 F780.000
G1 X41.760 Y18.733 Z-0.000 F780.000
G1 X41.862 Y18.486 Z-0.000 F780.000
G1 X41.989 Y18.321 Z-0.000 F780.000
G1 X41.989 Y13.091 Z-0.000 F780.000
G1 X41.620 Y13.091 Z-0.000 F780.000
G1 X41.620 Y10.785 Z-0.000 F780.000
G1 X43.929 Y10.785 Z-0.000 F780.000
G1 X43.929 Y13.091 Z-0.000 F780.000
G1 X43.510 Y13.091 Z-0.000 F780.000
G1 X43.510 Y18.321 Z-0.000 F780.000
G1 X43.637 Y18.486 Z-0.000 F780.000
G1 X43.739 Y18.733 Z-0.000 F780.000
G1 X43.774 Y18.999 Z-0.000 F780.000
G1 X43.739 Y19.263 Z-0.000 F780.000
G1 X43.637 Y19.510 Z-0.000 F780.000
G1 X43.475 Y19.723 Z-0.000 F780.000
G1 X43.261 Y19.886 Z-0.000 F780.000
G1 X43.015 Y19.987 Z-0.000 F780.000
G1 X42.748 Y20.023 Z-0.000 F780.000
G4 P10.000
G0 X42.748 Y20.023 Z0.100 F300.000
G0 X48.362 Y37.930 Z0.100 F1200.000
G0 X48.362 Y37.930 Z-0.000 F300.000
G1 X48.362 Y37.930 Z-0.000 F780.000
G1 X48.097 Y37.894 Z-0.000 F780.000
G1 X47.851 Y37.793 Z-0.000 F780.000
G1 X47.638 Y37.630 Z-0.000 F780.000
G1 X47.475 Y37.417 Z-0.000 F780.000
G1 X47.374 Y37.170 Z-0.000 F780.000
G1 X47.338 Y36.906 Z-0.000 F780.000
G1 X47.338 Y36.398 Z-0.000 F780.000
G1 X47.374 Y36.132 Z-0.000 F780.000
G1 X47.475 Y35.885 Z-0.000 F780.000
G1 X47.602 Y35.720 Z-0.000 F780.000
G1 X47.602 Y27.371 Z-0.000 F780.000
G1 X47.475 Y27.206 Z-0.000 F780.000
G1 X47.374 Y26.960 Z-0.000 F780.000
G1 X47.338 Y26.695 Z-0.000 F780.000
G1 X47.338 Y26.187 Z-0.000 F780.000
G1 X47.374 Y25.921 Z-0.000 F780.000
G1 X47.475 Y25.674 Z-0.000 F780.000
G1 X47.602 Y25.509 Z-0.000 F780.000
G1 X47.602 Y23.404 Z-0.000 F780.000
G1 X44.778 Y20.576 Z-0.000 F780.000
G1 X44.656 Y20.419 Z-0.000 F780.000
G1 X44.625 Y20.343 Z-0.000 F780.000
G1 X44.579 Y20.236 Z-0.000 F780.000
G1 X44.554 Y20.041 Z-0.000 F780.000
G1 X44.554 Y12.809 Z-0.000 F780.000
G1 X44.491 Y12.761 Z-0.000 F780.000
G1 X44.308 Y12.520 Z-0.000 F780.000
G1 X44.191 Y12.240 Z-0.000 F780.000
G1 X44.150 Y11.938 Z-0.000 F780.000
G1 X44.191 Y11.636 Z-0.000 F780.000
G1 X44.308 Y11.356 Z-0.000 F780.000
G1 X44.491 Y11.115 Z-0.000 F780.000
G1 X44.732 Y10.930 Z-0.000 F780.000
G1 X45.014 Y10.813 Z-0.000 F780.000
G1 X45.314 Y10.775 Z-0.000 F780.000
G1 X45.616 Y10.813 Z-0.000 F780.000
G1 X45.898 Y10.930 Z-0.000 F780.000
G1 X46.139 Y11.115 Z-0.000 F780.000
G1 X46.322 Y11.356 Z-0.000 F780.000
G1 X46.439 Y11.636 Z-0.000 F780.000
G1 X46.479 Y11.938 Z-0.000 F780.000
G1 X46.439 Y12.240 Z-0.000 F780.000
G1 X46.322 Y12.520 Z-0.000 F780.000
G1 X46.139 Y12.761 Z-0.000 F780.000
G1 X46.076 Y12.809 Z-0.000 F780.000
G1 X46.076 Y19.723 Z-0.000 F780.000
G1 X48.900 Y22.550 Z-0.000 F780.000
G1 X49.022 Y22.708 Z-0.000 F780.000
G1 X49.075 Y22.837 Z-0.000 F780.000
G1 X49.098 Y22.890 Z-0.000 F780.000
G1 X49.124 Y23.089 Z-0.000 F780.000
G1 X49.124 Y25.509 Z-0.000 F780.000
G1 X49.251 Y25.674 Z-0.000 F780.000
G1 X49.352 Y25.921 Z-0.000 F780.000
G1 X49.388 Y26.187 Z-0.000 F780.000
G1 X49.388 Y26.695 Z-0.000 F780.000
G1 X49.352 Y26.960 Z-0.000 F780.000
G1 X49.251 Y27.206 Z-0.000 F780.000
G1 X49.124 Y27.371 Z-0.000 F780.000
G1 X49.124 Y35.720 Z-0.000 F780.000
G1 X49.251 Y35.885 Z-0.000 F780.000
G1 X49.352 Y36.132 Z-0.000 F780.000
G1 X49.388 Y36.398 Z-0.000 F780.000
G1 X49.388 Y36.906 Z-0.000 F780.000
G1 X49.352 Y37.170 Z-0.000 F780.000
G1 X49.251 Y37.417 Z-0.000 F780.000
G1 X49.088 Y37.630 Z-0.000 F780.000
G1 X48.875 Y37.793 Z-0.000 F780.000
G1 X48.628 Y37.894 Z-0.000 F780.000
G1 X48.362 Y37.930 Z-0.000 F780.000
G4 P10.000
G0 X48.362 Y37.930 Z0.100 F300.000
G0 X50.902 Y37.930 Z0.100 F1200.000
G0 X50.902 Y37.930 Z-0.000 F300.000
G1 X50.902 Y37.930 Z-0.000 F780.000
G1 X50.637 Y37.894 Z-0.000 F780.000
G1 X50.391 Y37.793 Z-0.000 F780.000
G1 X50.178 Y37.630 Z-0.000 F780.000
G1 X50.015 Y37.417 Z-0.000 F780.000
G1 X49.914 Y37.170 Z-0.000 F780.000
G1 X49.878 Y36.906 Z-0.000 F780.000
G1 X49.878 Y36.398 Z-0.000 F780.000
G1 X49.914 Y36.132 Z-0.000 F780.000
G1 X50.015 Y35.885 Z-0.000 F780.000
G1 X50.142 Y35.720 Z-0.000 F780.000
G1 X50.142 Y27.371 Z-0.000 F780.000
G1 X50.015 Y27.206 Z-0.000 F780.000
G1 X49.914 Y26.960 Z-0.000 F780.000
G1 X49.878 Y26.695 Z-0.000 F780.000
G1 X49.878 Y26.187 Z-0.000 F780.000
G1 X49.914 Y25.921 Z-0.000 F780.000
G1 X50.015 Y25.674 Z-0.000 F780.000
G1 X50.142 Y25.509 Z-0.000 F780.000
G1 X50.142 Y22.921 Z-0.000 F780.000
G1 X47.318 Y20.094 Z-0.000 F780.000
G1 X47.196 Y19.937 Z-0.000 F780.000
G1 X47.165 Y19.860 Z-0.000 F780.000
G1 X47.119 Y19.754 Z-0.000 F780.000
G1 X47.094 Y19.558 Z-0.000 F780.000
G1 X47.094 Y12.809 Z-0.000 F780.000
G1 X47.031 Y12.761 Z-0.000 F780.000
G1 X46.848 Y12.520 Z-0.000 F780.000
G1 X46.731 Y12.240 Z-0.000 F780.000
G1 X46.690 Y11.938 Z-0.000 F780.000
G1 X46.731 Y11.636 Z-0.000 F780.000
G1 X46.848 Y11.356 Z-0.000 F780.000
G1 X47.031 Y11.115 Z-0.000 F780.000
G1 X47.272 Y10.930 Z-0.000 F780.000
G1 X47.554 Y10.813 Z-0.000 F780.000
G1 X47.854 Y10.775 Z-0.000 F780.000
G1 X48.156 Y10.813 Z-0.000 F780.000
G1 X48.438 Y10.930 Z-0.000 F780.000
G1 X48.679 Y11.115 Z-0.000 F780.000
G1 X48.862 Y11.356 Z-0.000 F780.000
G1 X48.979 Y11.636 Z-0.000 F780.000
G1 X49.020 Y11.938 Z-0.000 F780.000
G1 X48.979 Y12.240 Z-0.000 F780.000
G1 X48.862 Y12.520 Z-0.000 F780.000
G1 X48.679 Y12.761 Z-0.000 F780.000
G1 X48.616 Y12.809 Z-0.000 F780.000
G1 X48.616 Y19.240 Z-0.000 F780.000
G1 X51.440 Y22.067 Z-0.000 F780.000
G1 X51.562 Y22.225 Z-0.000 F780.000
G1 X51.615 Y22.354 Z-0.000 F780.000
G1 X51.638 Y22.408 Z-0.000 F780.000
G1 X51.664 Y22.606 Z-0.000 F780.000
G1 X51.664 Y25.509 Z-0.000 F780.000
G1 X51.791 Y25.674 Z-0.000 F780.000
G1 X51.892 Y25.921 Z-0.000 F780.000
G1 X51.928 Y26.187 Z-0.000 F780.000
G1 X51.928 Y26.695 Z-0.000 F780.000
G1 X51.892 Y26.960 Z-0.000 F780.000
G1 X51.791 Y27.206 Z-0.000 F780.000
G1 X51.664 Y27.371 Z-0.000 F780.000
G1 X51.664 Y35.720 Z-0.000 F780.000
G1 X51.791 Y35.885 Z-0.000 F780.000
G1 X51.892 Y36.132 Z-0.000 F780.000
G1 X51.928 Y36.398 Z-0.000 F780.000
G1 X51.928 Y36.906 Z-0.000 F780.000
G1 X51.892 Y37.170 Z-0.000 F780.000
G1 X51.791 Y37.417 Z-0.000 F780.000
G1 X51.628 Y37.630 Z-0.000 F780.000
G1 X51.415 Y37.793 Z-0.000 F780.000
G1 X51.168 Y37.894 Z-0.000 F780.000
G1 X50.902 Y37.930 Z-0.000 F780.000
G4 P10.000
G0 X50.902 Y37.930 Z0.100 F300.000
G0 X68.148 Y48.052 Z0.100 F1200.000
G0 X68.148 Y48.052 Z-0.000 F300.000
G1 X68.148 Y48.052 Z-0.000 F780.000
G1 X67.874 Y48.016 Z-0.000 F780.000
G1 X67.617 Y47.910 Z-0.000 F780.000
G1 X67.399 Y47.739 Z-0.000 F780.000
G1 X67.229 Y47.521 Z-0.000 F780.000
G1 X67.122 Y47.264 Z-0.000 F780.000
G1 X67.087 Y46.990 Z-0.000 F780.000
G1 X67.087 Y45.466 Z-0.000 F780.000
G1 X67.122 Y45.189 Z-0.000 F780.000
G1 X67.229 Y44.933 Z-0.000 F780.000
G1 X67.389 Y44.724 Z-0.000 F780.000
G1 X67.389 Y40.701 Z-0.000 F780.000
G1 X63.345 Y36.655 Z-0.000 F780.000
G1 X63.223 Y36.497 Z-0.000 F780.000
G1 X63.170 Y36.368 Z-0.000 F780.000
G1 X63.147 Y36.314 Z-0.000 F780.000
G1 X63.121 Y36.119 Z-0.000 F780.000
G1 X63.121 Y19.990 Z-0.000 F780.000
G1 X63.147 Y19.792 Z-0.000 F780.000
G1 X63.193 Y19.685 Z-0.000 F780.000
G1 X63.223 Y19.609 Z-0.000 F780.000
G1 X63.345 Y19.451 Z-0.000 F780.000
G1 X66.347 Y16.447 Z-0.000 F780.000
G1 X66.347 Y12.835 Z-0.000 F780.000
G1 X66.284 Y12.786 Z-0.000 F780.000
G1 X66.101 Y12.545 Z-0.000 F780.000
G1 X65.984 Y12.266 Z-0.000 F780.000
G1 X65.943 Y11.963 Z-0.000 F780.000
G1 X65.984 Y11.661 Z-0.000 F780.000
G1 X66.101 Y11.382 Z-0.000 F780.000
G1 X66.284 Y11.140 Z-0.000 F780.000
G1 X66.525 Y10.955 Z-0.000 F780.000
G1 X66.807 Y10.838 Z-0.000 F780.000
G1 X67.107 Y10.800 Z-0.000 F780.000
G1 X67.409 Y10.838 Z-0.000 F780.000
G1 X67.691 Y10.955 Z-0.000 F780.000
G1 X67.932 Y11.140 Z-0.000 F780.000
G1 X68.115 Y11.382 Z-0.000 F780.000
G1 X68.232 Y11.661 Z-0.000 F780.000
G1 X68.273 Y11.963 Z-0.000 F780.000
G1 X68.232 Y12.266 Z-0.000 F780.000
G1 X68.115 Y12.545 Z-0.000 F780.000
G1 X67.932 Y12.786 Z-0.000 F780.000
G1 X67.869 Y12.835 Z-0.000 F780.000
G1 X67.869 Y16.764 Z-0.000 F780.000
G1 X67.843 Y16.960 Z-0.000 F780.000
G1 X67.821 Y17.013 Z-0.000 F780.000
G1 X67.767 Y17.142 Z-0.000 F780.000
G1 X67.645 Y17.300 Z-0.000 F780.000
G1 X64.643 Y20.305 Z-0.000 F780.000
G1 X64.643 Y35.801 Z-0.000 F780.000
G1 X68.687 Y39.847 Z-0.000 F780.000
G1 X68.809 Y40.005 Z-0.000 F780.000
G1 X68.862 Y40.134 Z-0.000 F780.000
G1 X68.885 Y40.188 Z-0.000 F780.000
G1 X68.910 Y40.386 Z-0.000 F780.000
G1 X68.910 Y44.724 Z-0.000 F780.000
G1 X69.070 Y44.933 Z-0.000 F780.000
G1 X69.177 Y45.189 Z-0.000 F780.000
G1 X69.213 Y45.466 Z-0.000 F780.000
G1 X69.213 Y46.990 Z-0.000 F780.000
G1 X69.177 Y47.264 Z-0.000 F780.000
G1 X69.070 Y47.521 Z-0.000 F780.000
G1 X68.900 Y47.739 Z-0.000 F780.000
G1 X68.682 Y47.910 Z-0.000 F780.000
G1 X68.425 Y48.016 Z-0.000 F780.000
G1 X68.148 Y48.052 Z-0.000 F780.000
G4 P10.000
G0 X68.148 Y48.052 Z0.100 F300.000
G0 X69.596 Y22.601 Z0.100 F1200.000
G0 X69.596 Y22.601 Z-0.000 F300.000
G1 X69.596 Y22.601 Z-0.000 F780.000
G1 X69.296 Y22.560 Z-0.000 F780.000
G1 X69.014 Y22.443 Z-0.000 F780.000
G1 X68.773 Y22.261 Z-0.000 F780.000
G1 X68.590 Y22.019 Z-0.000 F780.000
G1 X68.473 Y21.737 Z-0.000 F780.000
G1 X68.433 Y21.438 Z-0.000 F780.000
G1 X68.473 Y21.135 Z-0.000 F780.000
G1 X68.590 Y20.853 Z-0.000 F780.000
G1 X68.773 Y20.612 Z-0.000 F780.000
G1 X68.887 Y20.526 Z-0.000 F780.000
G1 X68.887 Y12.835 Z-0.000 F780.000
G1 X68.824 Y12.786 Z-0.000 F780.000
G1 X68.641 Y12.545 Z-0.000 F780.000
G1 X68.524 Y12.266 Z-0.000 F780.000
G1 X68.483 Y11.963 Z-0.000 F780.000
G1 X68.524 Y11.661 Z-0.000 F780.000
G1 X68.641 Y11.382 Z-0.000 F780.000
G1 X68.824 Y11.140 Z-0.000 F780.000
G1 X69.065 Y10.955 Z-0.000 F780.000
G1 X69.347 Y10.838 Z-0.000 F780.000
G1 X69.647 Y10.800 Z-0.000 F780.000
G1 X69.949 Y10.838 Z-0.000 F780.000
G1 X70.231 Y10.955 Z-0.000 F780.000
G1 X70.472 Y11.140 Z-0.000 F780.000
G1 X70.655 Y11.382 Z-0.000 F780.000
G1 X70.772 Y11.661 Z-0.000 F780.000
G1 X70.813 Y11.963 Z-0.000 F780.000
G1 X70.772 Y12.266 Z-0.000 F780.000
G1 X70.655 Y12.545 Z-0.000 F780.000
G1 X70.472 Y12.786 Z-0.000 F780.000
G1 X70.409 Y12.835 Z-0.000 F780.000
G1 X70.409 Y20.604 Z-0.000 F780.000
G1 X70.422 Y20.612 Z-0.000 F780.000
G1 X70.604 Y20.853 Z-0.000 F780.000
G1 X70.721 Y21.135 Z-0.000 F780.000
G1 X70.762 Y21.438 Z-0.000 F780.000
G1 X70.721 Y21.737 Z-0.000 F780.000
G1 X70.604 Y22.019 Z-0.000 F780.000
G1 X70.422 Y22.261 Z-0.000 F780.000
G1 X70.180 Y22.443 Z-0.000 F780.000
G1 X69.898 Y22.560 Z-0.000 F780.000
G1 X69.596 Y22.601 Z-0.000 F780.000
G4 P10.000
G0 X69.596 Y22.601 Z0.100 F300.000
G0 X72.136 Y22.601 Z0.100 F1200.000
G0 X72.136 Y22.601 Z-0.000 F300.000
G1 X72.136 Y22.601 Z-0.000 F780.000
G1 X71.836 Y22.560 Z-0.000 F780.000
G1 X71.554 Y22.443 Z-0.000 F780.000
G1 X71.313 Y22.258 Z-0.000 F780.000
G1 X71.130 Y22.019 Z-0.000 F780.000
G1 X71.013 Y21.737 Z-0.000 F780.000
G1 X70.973 Y21.435 Z-0.000 F780.000
G1 X71.013 Y21.135 Z-0.000 F780.000
G1 X71.130 Y20.853 Z-0.000 F780.000
G1 X71.313 Y20.612 Z-0.000 F780.000
G1 X71.377 Y20.566 Z-0.000 F780.000
G1 X71.377 Y12.797 Z-0.000 F780.000
G1 X71.364 Y12.786 Z-0.000 F780.000
G1 X71.181 Y12.545 Z-0.000 F780.000
G1 X71.064 Y12.266 Z-0.000 F780.000
G1 X71.023 Y11.963 Z-0.000 F780.000
G1 X71.064 Y11.661 Z-0.000 F780.000
G1 X71.181 Y11.382 Z-0.000 F780.000
G1 X71.364 Y11.140 Z-0.000 F780.000
G1 X71.605 Y10.955 Z-0.000 F780.000
G1 X71.887 Y10.838 Z-0.000 F780.000
G1 X72.187 Y10.800 Z-0.000 F780.000
G1 X72.489 Y10.838 Z-0.000 F780.000
G1 X72.771 Y10.955 Z-0.000 F780.000
G1 X73.012 Y11.140 Z-0.000 F780.000
G1 X73.195 Y11.382 Z-0.000 F780.000
G1 X73.312 Y11.661 Z-0.000 F780.000
G1 X73.353 Y11.963 Z-0.000 F780.000
G1 X73.312 Y12.266 Z-0.000 F780.000
G1 X73.195 Y12.545 Z-0.000 F780.000
G1 X73.012 Y12.786 Z-0.000 F780.000
G1 X72.898 Y12.873 Z-0.000 F780.000
G1 X72.898 Y20.566 Z-0.000 F780.000
G1 X72.962 Y20.612 Z-0.000 F780.000
G1 X73.144 Y20.853 Z-0.000 F780.000
G1 X73.261 Y21.135 Z-0.000 F780.000
G1 X73.302 Y21.435 Z-0.000 F780.000
G1 X73.261 Y21.737 Z-0.000 F780.000
G1 X73.144 Y22.019 Z-0.000 F780.000
G1 X72.962 Y22.258 Z-0.000 F780.000
G1 X72.720 Y22.443 Z-0.000 F780.000
G1 X72.438 Y22.560 Z-0.000 F780.000
G1 X72.136 Y22.601 Z-0.000 F780.000
G4 P10.000
G0 X72.136 Y22.601 Z0.100 F300.000
G0 X62.027 Y13.127 Z0.100 F1200.000
G0 X62.027 Y13.127 Z-0.000 F300.000
G1 X62.027 Y13.127 Z-0.000 F780.000
G1 X61.727 Y13.089 Z-0.000 F780.000
G1 X61.445 Y12.972 Z-0.000 F780.000
G1 X61.204 Y12.786 Z-0.000 F780.000
G1 X61.021 Y12.545 Z-0.000 F780.000
G1 X60.904 Y12.266 Z-0.000 F780.000
G1 X60.863 Y11.963 Z-0.000 F780.000
G1 X60.904 Y11.661 Z-0.000 F780.000
G1 X61.021 Y11.382 Z-0.000 F780.000
G1 X61.204 Y11.140 Z-0.000 F780.000
G1 X61.267 Y11.092 Z-0.000 F780.000
G1 X61.267 Y8.661 Z-0.000 F780.000
G1 X61.293 Y8.463 Z-0.000 F780.000
G1 X61.331 Y8.372 Z-0.000 F780.000
G1 X61.369 Y8.280 Z-0.000 F780.000
G1 X61.491 Y8.123 Z-0.000 F780.000
G1 X63.269 Y6.345 Z-0.000 F780.000
G1 X63.426 Y6.223 Z-0.000 F780.000
G1 X63.556 Y6.170 Z-0.000 F780.000
G1 X63.609 Y6.147 Z-0.000 F780.000
G1 X63.805 Y6.121 Z-0.000 F780.000
G1 X66.782 Y6.121 Z-0.000 F780.000
G1 X66.802 Y6.096 Z-0.000 F780.000
G1 X67.033 Y5.918 Z-0.000 F780.000
G1 X67.302 Y5.806 Z-0.000 F780.000
G1 X67.589 Y5.768 Z-0.000 F780.000
G1 X67.879 Y5.806 Z-0.000 F780.000
G1 X68.148 Y5.918 Z-0.000 F780.000
G1 X68.377 Y6.096 Z-0.000 F780.000
G1 X68.555 Y6.325 Z-0.000 F780.000
G1 X68.666 Y6.594 Z-0.000 F780.000
G1 X68.704 Y6.883 Z-0.000 F780.000
G1 X68.666 Y7.170 Z-0.000 F780.000
G1 X68.555 Y7.440 Z-0.000 F780.000
G1 X68.377 Y7.671 Z-0.000 F780.000
G1 X68.148 Y7.846 Z-0.000 F780.000
G1 X67.879 Y7.958 Z-0.000 F780.000
G1 X67.589 Y7.996 Z-0.000 F780.000
G1 X67.302 Y7.958 Z-0.000 F780.000
G1 X67.033 Y7.846 Z-0.000 F780.000
G1 X66.802 Y7.671 Z-0.000 F780.000
G1 X66.782 Y7.643 Z-0.000 F780.000
G1 X64.122 Y7.643 Z-0.000 F780.000
G1 X62.789 Y8.976 Z-0.000 F780.000
G1 X62.789 Y11.092 Z-0.000 F780.000
G1 X62.852 Y11.140 Z-0.000 F780.000
G1 X63.035 Y11.382 Z-0.000 F780.000
G1 X63.152 Y11.661 Z-0.000 F780.000
G1 X63.193 Y11.963 Z-0.000 F780.000
G1 X63.152 Y12.266 Z-0.000 F780.000
G1 X63.035 Y12.545 Z-0.000 F780.000
G1 X62.852 Y12.786 Z-0.000 F780.000
G1 X62.611 Y12.972 Z-0.000 F780.000
G1 X62.329 Y13.089 Z-0.000 F780.000
G1 X62.027 Y13.127 Z-0.000 F780.000
G4 P10.000
G0 X62.027 Y13.127 Z0.100 F300.000
G0 X74.778 Y33.985 Z0.100 F1200.000
G0 X74.778 Y33.985 Z-0.000 F300.000
G1 X74.778 Y33.985 Z-0.000 F780.000
G1 X74.503 Y33.950 Z-0.000 F780.000
G1 X74.247 Y33.843 Z-0.000 F780.000
G1 X74.028 Y33.673 Z-0.000 F780.000
G1 X73.858 Y33.454 Z-0.000 F780.000
G1 X73.751 Y33.198 Z-0.000 F780.000
G1 X73.716 Y32.924 Z-0.000 F780.000
G1 X73.751 Y32.647 Z-0.000 F780.000
G1 X73.858 Y32.390 Z-0.000 F780.000
G1 X73.942 Y32.281 Z-0.000 F780.000
G1 X73.942 Y30.927 Z-0.000 F780.000
G1 X73.868 Y30.833 Z-0.000 F780.000
G1 X73.774 Y30.602 Z-0.000 F780.000
G1 X73.741 Y30.353 Z-0.000 F780.000
G1 X73.774 Y30.101 Z-0.000 F780.000
G1 X73.868 Y29.870 Z-0.000 F780.000
G1 X73.942 Y29.776 Z-0.000 F780.000
G1 X73.942 Y25.527 Z-0.000 F780.000
G1 X73.967 Y25.329 Z-0.000 F780.000
G1 X73.990 Y25.275 Z-0.000 F780.000
G1 X74.044 Y25.146 Z-0.000 F780.000
G1 X74.165 Y24.989 Z-0.000 F780.000
G1 X76.914 Y22.238 Z-0.000 F780.000
G1 X76.914 Y7.605 Z-0.000 F780.000
G1 X76.787 Y7.440 Z-0.000 F780.000
G1 X76.675 Y7.170 Z-0.000 F780.000
G1 X76.637 Y6.883 Z-0.000 F780.000
G1 X76.675 Y6.594 Z-0.000 F780.000
G1 X76.787 Y6.325 Z-0.000 F780.000
G1 X76.962 Y6.096 Z-0.000 F780.000
G1 X77.193 Y5.918 Z-0.000 F780.000
G1 X77.462 Y5.806 Z-0.000 F780.000
G1 X77.749 Y5.768 Z-0.000 F780.000
G1 X78.039 Y5.806 Z-0.000 F780.000
G1 X78.308 Y5.918 Z-0.000 F780.000
G1 X78.537 Y6.096 Z-0.000 F780.000
G1 X78.715 Y6.325 Z-0.000 F780.000
G1 X78.826 Y6.594 Z-0.000 F780.000
G1 X78.865 Y6.883 Z-0.000 F780.000
G1 X78.826 Y7.170 Z-0.000 F780.000
G1 X78.715 Y7.440 Z-0.000 F780.000
G1 X78.537 Y7.671 Z-0.000 F780.000
G1 X78.435 Y7.749 Z-0.000 F780.000
G1 X78.435 Y22.555 Z-0.000 F780.000
G1 X78.410 Y22.751 Z-0.000 F780.000
G1 X78.387 Y22.804 Z-0.000 F780.000
G1 X78.334 Y22.934 Z-0.000 F780.000
G1 X78.212 Y23.091 Z-0.000 F780.000
G1 X75.463 Y25.842 Z-0.000 F780.000
G1 X75.463 Y29.776 Z-0.000 F780.000
G1 X75.537 Y29.870 Z-0.000 F780.000
G1 X75.631 Y30.101 Z-0.000 F780.000
G1 X75.664 Y30.353 Z-0.000 F780.000
G1 X75.631 Y30.602 Z-0.000 F780.000
G1 X75.537 Y30.833 Z-0.000 F780.000
G1 X75.463 Y30.927 Z-0.000 F780.000
G1 X75.463 Y32.118 Z-0.000 F780.000
G1 X75.529 Y32.172 Z-0.000 F780.000
G1 X75.700 Y32.390 Z-0.000 F780.000
G1 X75.806 Y32.647 Z-0.000 F780.000
G1 X75.842 Y32.924 Z-0.000 F780.000
G1 X75.806 Y33.198 Z-0.000 F780.000
G1 X75.700 Y33.454 Z-0.000 F780.000
G1 X75.529 Y33.673 Z-0.000 F780.000
G1 X75.311 Y33.843 Z-0.000 F780.000
G1 X75.054 Y33.950 Z-0.000 F780.000
G1 X74.778 Y33.985 Z-0.000 F780.000
G4 P10.000
G0 X74.778 Y33.985 Z0.100 F300.000
G0 X49.334 Y62.088 Z0.100 F1200.000
G0 X49.334 Y62.088 Z-0.000 F300.000
G1 X49.334 Y62.088 Z-0.000 F780.000
G1 X49.035 Y62.047 Z-0.000 F780.000
G1 X48.753 Y61.930 Z-0.000 F780.000
G1 X48.512 Y61.747 Z-0.000 F780.000
G1 X48.326 Y61.506 Z-0.000 F780.000
G1 X48.212 Y61.224 Z-0.000 F780.000
G1 X48.171 Y60.922 Z-0.000 F780.000
G1 X48.212 Y60.622 Z-0.000 F780.000
G1 X48.326 Y60.340 Z-0.000 F780.000
G1 X48.512 Y60.099 Z-0.000 F780.000
G1 X48.575 Y60.053 Z-0.000 F780.000
G1 X48.575 Y55.514 Z-0.000 F780.000
G1 X40.231 Y47.170 Z-0.000 F780.000
G1 X40.109 Y47.013 Z-0.000 F780.000
G1 X40.056 Y46.883 Z-0.000 F780.000
G1 X40.033 Y46.830 Z-0.000 F780.000
G1 X40.007 Y46.634 Z-0.000 F780.000
G1 X40.007 Y37.615 Z-0.000 F780.000
G1 X39.855 Y37.417 Z-0.000 F780.000
G1 X39.754 Y37.170 Z-0.000 F780.000
G1 X39.718 Y36.906 Z-0.000 F780.000
G1 X39.718 Y36.398 Z-0.000 F780.000
G1 X39.754 Y36.132 Z-0.000 F780.000
G1 X39.855 Y35.885 Z-0.000 F780.000
G1 X40.007 Y35.687 Z-0.000 F780.000
G1 X40.007 Y27.404 Z-0.000 F780.000
G1 X39.855 Y27.206 Z-0.000 F780.000
G1 X39.754 Y26.960 Z-0.000 F780.000
G1 X39.718 Y26.695 Z-0.000 F780.000
G1 X39.718 Y26.187 Z-0.000 F780.000
G1 X39.754 Y25.921 Z-0.000 F780.000
G1 X39.855 Y25.674 Z-0.000 F780.000
G1 X39.982 Y25.509 Z-0.000 F780.000
G1 X39.982 Y24.572 Z-0.000 F780.000
G1 X36.954 Y21.542 Z-0.000 F780.000
G1 X36.833 Y21.384 Z-0.000 F780.000
G1 X36.794 Y21.293 Z-0.000 F780.000
G1 X36.756 Y21.201 Z-0.000 F780.000
G1 X36.731 Y21.006 Z-0.000 F780.000
G1 X36.731 Y9.195 Z-0.000 F780.000
G1 X36.756 Y8.997 Z-0.000 F780.000
G1 X36.779 Y8.943 Z-0.000 F780.000
G1 X36.833 Y8.814 Z-0.000 F780.000
G1 X36.954 Y8.656 Z-0.000 F780.000
G1 X41.780 Y3.830 Z-0.000 F780.000
G1 X41.938 Y3.708 Z-0.000 F780.000
G1 X42.068 Y3.655 Z-0.000 F780.000
G1 X42.121 Y3.632 Z-0.000 F780.000
G1 X42.316 Y3.607 Z-0.000 F780.000
G1 X69.469 Y3.607 Z-0.000 F780.000
G1 X69.667 Y3.632 Z-0.000 F780.000
G1 X69.720 Y3.655 Z-0.000 F780.000
G1 X69.850 Y3.708 Z-0.000 F780.000
G1 X70.007 Y3.830 Z-0.000 F780.000
G1 X75.215 Y9.037 Z-0.000 F780.000
G1 X75.336 Y9.195 Z-0.000 F780.000
G1 X75.390 Y9.324 Z-0.000 F780.000
G1 X75.413 Y9.378 Z-0.000 F780.000
G1 X75.438 Y9.576 Z-0.000 F780.000
G1 X75.438 Y20.566 Z-0.000 F780.000
G1 X75.502 Y20.612 Z-0.000 F780.000
G1 X75.684 Y20.853 Z-0.000 F780.000
G1 X75.801 Y21.135 Z-0.000 F780.000
G1 X75.842 Y21.438 Z-0.000 F780.000
G1 X75.801 Y21.737 Z-0.000 F780.000
G1 X75.684 Y22.019 Z-0.000 F780.000
G1 X75.502 Y22.261 Z-0.000 F780.000
G1 X75.260 Y22.443 Z-0.000 F780.000
G1 X74.978 Y22.560 Z-0.000 F780.000
G1 X74.676 Y22.601 Z-0.000 F780.000
G1 X74.376 Y22.560 Z-0.000 F780.000
G1 X74.094 Y22.443 Z-0.000 F780.000
G1 X73.853 Y22.261 Z-0.000 F780.000
G1 X73.670 Y22.019 Z-0.000 F780.000
G1 X73.553 Y21.737 Z-0.000 F780.000
G1 X73.513 Y21.438 Z-0.000 F780.000
G1 X73.553 Y21.135 Z-0.000 F780.000
G1 X73.670 Y20.853 Z-0.000 F780.000
G1 X73.853 Y20.612 Z-0.000 F780.000
G1 X73.916 Y20.566 Z-0.000 F780.000
G1 X73.916 Y9.891 Z-0.000 F780.000
G1 X69.154 Y5.128 Z-0.000 F780.000
G1 X42.634 Y5.128 Z-0.000 F780.000
G1 X38.252 Y9.510 Z-0.000 F780.000
G1 X38.252 Y20.688 Z-0.000 F780.000
G1 X41.280 Y23.719 Z-0.000 F780.000
G1 X41.402 Y23.876 Z-0.000 F780.000
G1 X41.455 Y24.006 Z-0.000 F780.000
G1 X41.478 Y24.059 Z-0.000 F780.000
G1 X41.504 Y24.257 Z-0.000 F780.000
G1 X41.504 Y25.509 Z-0.000 F780.000
G1 X41.631 Y25.674 Z-0.000 F780.000
G1 X41.732 Y25.921 Z-0.000 F780.000
G1 X41.768 Y26.187 Z-0.000 F780.000
G1 X41.768 Y26.695 Z-0.000 F780.000
G1 X41.732 Y26.960 Z-0.000 F780.000
G1 X41.631 Y27.206 Z-0.000 F780.000
G1 X41.529 Y27.338 Z-0.000 F780.000
G1 X41.529 Y35.753 Z-0.000 F780.000
G1 X41.631 Y35.885 Z-0.000 F780.000
G1 X41.732 Y36.132 Z-0.000 F780.000
G1 X41.768 Y36.398 Z-0.000 F780.000
G1 X41.768 Y36.906 Z-0.000 F780.000
G1 X41.732 Y37.170 Z-0.000 F780.000
G1 X41.631 Y37.417 Z-0.000 F780.000
G1 X41.529 Y37.549 Z-0.000 F780.000
G1 X41.529 Y46.317 Z-0.000 F780.000
G1 X49.873 Y54.663 Z-0.000 F780.000
G1 X49.995 Y54.821 Z-0.000 F780.000
G1 X50.048 Y54.950 Z-0.000 F780.000
G1 X50.071 Y55.004 Z-0.000 F780.000
G1 X50.096 Y55.199 Z-0.000 F780.000
G1 X50.096 Y60.053 Z-0.000 F780.000
G1 X50.157 Y60.099 Z-0.000 F780.000
G1 X50.343 Y60.340 Z-0.000 F780.000
G1 X50.460 Y60.622 Z-0.000 F780.000
G1 X50.500 Y60.922 Z-0.000 F780.000
G1 X50.460 Y61.224 Z-0.000 F780.000
G1 X50.343 Y61.506 Z-0.000 F780.000
G1 X50.157 Y61.747 Z-0.000 F780.000
G1 X49.916 Y61.930 Z-0.000 F780.000
G1 X49.637 Y62.047 Z-0.000 F780.000
G1 X49.334 Y62.088 Z-0.000 F780.000
G4 P10.000
G0 X49.334 Y62.088 Z0.100 F300.000
G0 X55.982 Y27.719 Z0.100 F1200.000
G0 X55.982 Y27.719 Z-0.000 F300.000
G1 X55.982 Y27.719 Z-0.000 F780.000
G1 X55.717 Y27.684 Z-0.000 F780.000
G1 X55.471 Y27.582 Z-0.000 F780.000
G1 X55.258 Y27.419 Z-0.000 F780.000
G1 X55.095 Y27.206 Z-0.000 F780.000
G1 X54.993 Y26.960 Z-0.000 F780.000
G1 X54.958 Y26.695 Z-0.000 F780.000
G1 X54.958 Y26.187 Z-0.000 F780.000
G1 X54.993 Y25.921 Z-0.000 F780.000
G1 X55.095 Y25.674 Z-0.000 F780.000
G1 X55.222 Y25.509 Z-0.000 F780.000
G1 X55.222 Y20.635 Z-0.000 F780.000
G1 X52.398 Y17.808 Z-0.000 F780.000
G1 X52.276 Y17.650 Z-0.000 F780.000
G1 X52.245 Y17.574 Z-0.000 F780.000
G1 X52.200 Y17.468 Z-0.000 F780.000
G1 X52.174 Y17.272 Z-0.000 F780.000
G1 X52.174 Y12.809 Z-0.000 F780.000
G1 X52.111 Y12.761 Z-0.000 F780.000
G1 X51.928 Y12.520 Z-0.000 F780.000
G1 X51.811 Y12.240 Z-0.000 F780.000
G1 X51.770 Y11.938 Z-0.000 F780.000
G1 X51.811 Y11.636 Z-0.000 F780.000
G1 X51.928 Y11.356 Z-0.000 F780.000
G1 X52.111 Y11.115 Z-0.000 F780.000
G1 X52.352 Y10.930 Z-0.000 F780.000
G1 X52.634 Y10.813 Z-0.000 F780.000
G1 X52.934 Y10.775 Z-0.000 F780.000
G1 X53.236 Y10.813 Z-0.000 F780.000
G1 X53.518 Y10.930 Z-0.000 F780.000
G1 X53.759 Y11.115 Z-0.000 F780.000
G1 X53.942 Y11.356 Z-0.000 F780.000
G1 X54.059 Y11.636 Z-0.000 F780.000
G1 X54.099 Y11.938 Z-0.000 F780.000
G1 X54.059 Y12.240 Z-0.000 F780.000
G1 X53.942 Y12.520 Z-0.000 F780.000
G1 X53.759 Y12.761 Z-0.000 F780.000
G1 X53.696 Y12.809 Z-0.000 F780.000
G1 X53.696 Y16.955 Z-0.000 F780.000
G1 X56.520 Y19.781 Z-0.000 F780.000
G1 X56.642 Y19.939 Z-0.000 F780.000
G1 X56.695 Y20.069 Z-0.000 F780.000
G1 X56.718 Y20.122 Z-0.000 F780.000
G1 X56.744 Y20.320 Z-0.000 F780.000
G1 X56.744 Y25.509 Z-0.000 F780.000
G1 X56.871 Y25.674 Z-0.000 F780.000
G1 X56.972 Y25.921 Z-0.000 F780.000
G1 X57.008 Y26.187 Z-0.000 F780.000
G1 X57.008 Y26.695 Z-0.000 F780.000
G1 X56.972 Y26.960 Z-0.000 F780.000
G1 X56.871 Y27.206 Z-0.000 F780.000
G1 X56.708 Y27.419 Z-0.000 F780.000
G1 X56.495 Y27.582 Z-0.000 F780.000
G1 X56.248 Y27.684 Z-0.000 F780.000
G1 X55.982 Y27.719 Z-0.000 F780.000
G4 P10.000
G0 X55.982 Y27.719 Z0.100 F300.000
G0 X55.982 Y37.930 Z0.100 F1200.000
G0 X55.982 Y37.930 Z-0.000 F300.000
G1 X55.982 Y37.930 Z-0.000 F780.000
G1 X55.717 Y37.894 Z-0.000 F780.000
G1 X55.471 Y37.793 Z-0.000 F780.000
G1 X55.258 Y37.630 Z-0.000 F780.000
G1 X55.095 Y37.417 Z-0.000 F780.000
G1 X54.993 Y37.170 Z-0.000 F780.000
G1 X54.958 Y36.906 Z-0.000 F780.000
G1 X54.958 Y36.398 Z-0.000 F780.000
G1 X54.993 Y36.132 Z-0.000 F780.000
G1 X55.095 Y35.885 Z-0.000 F780.000
G1 X55.222 Y35.720 Z-0.000 F780.000
G1 X55.222 Y33.020 Z-0.000 F780.000
G1 X55.248 Y32.822 Z-0.000 F780.000
G1 X55.270 Y32.769 Z-0.000 F780.000
G1 X55.324 Y32.639 Z-0.000 F780.000
G1 X55.446 Y32.481 Z-0.000 F780.000
G1 X57.457 Y30.467 Z-0.000 F780.000
G1 X57.457 Y19.695 Z-0.000 F780.000
G1 X54.938 Y17.173 Z-0.000 F780.000
G1 X54.816 Y17.015 Z-0.000 F780.000
G1 X54.762 Y16.886 Z-0.000 F780.000
G1 X54.739 Y16.833 Z-0.000 F780.000
G1 X54.714 Y16.637 Z-0.000 F780.000
G1 X54.714 Y12.809 Z-0.000 F780.000
G1 X54.651 Y12.761 Z-0.000 F780.000
G1 X54.468 Y12.520 Z-0.000 F780.000
G1 X54.351 Y12.240 Z-0.000 F780.000
G1 X54.310 Y11.938 Z-0.000 F780.000
G1 X54.351 Y11.636 Z-0.000 F780.000
G1 X54.468 Y11.356 Z-0.000 F780.000
G1 X54.651 Y11.115 Z-0.000 F780.000
G1 X54.892 Y10.930 Z-0.000 F780.000
G1 X55.174 Y10.813 Z-0.000 F780.000
G1 X55.474 Y10.775 Z-0.000 F780.000
G1 X55.776 Y10.813 Z-0.000 F780.000
G1 X56.058 Y10.930 Z-0.000 F780.000
G1 X56.299 Y11.115 Z-0.000 F780.000
G1 X56.482 Y11.356 Z-0.000 F780.000
G1 X56.599 Y11.636 Z-0.000 F780.000
G1 X56.639 Y11.938 Z-0.000 F780.000
G1 X56.599 Y12.240 Z-0.000 F780.000
G1 X56.482 Y12.520 Z-0.000 F780.000
G1 X56.299 Y12.761 Z-0.000 F780.000
G1 X56.236 Y12.809 Z-0.000 F780.000
G1 X56.236 Y16.319 Z-0.000 F780.000
G1 X58.755 Y18.842 Z-0.000 F780.000
G1 X58.877 Y18.999 Z-0.000 F780.000
G1 X58.931 Y19.129 Z-0.000 F780.000
G1 X58.953 Y19.182 Z-0.000 F780.000
G1 X58.979 Y19.380 Z-0.000 F780.000
G1 X58.979 Y30.785 Z-0.000 F780.000
G1 X58.953 Y30.980 Z-0.000 F780.000
G1 X58.931 Y31.034 Z-0.000 F780.000
G1 X58.877 Y31.163 Z-0.000 F780.000
G1 X58.755 Y31.321 Z-0.000 F780.000
G1 X56.744 Y33.335 Z-0.000 F780.000
G1 X56.744 Y35.720 Z-0.000 F780.000
G1 X56.871 Y35.885 Z-0.000 F780.000
G1 X56.972 Y36.132 Z-0.000 F780.000
G1 X57.008 Y36.398 Z-0.000 F780.000
G1 X57.008 Y36.906 Z-0.000 F780.000
G1 X56.972 Y37.170 Z-0.000 F780.000
G1 X56.871 Y37.417 Z-0.000 F780.000
G1 X56.708 Y37.630 Z-0.000 F780.000
G1 X56.495 Y37.793 Z-0.000 F780.000
G1 X56.248 Y37.894 Z-0.000 F780.000
G1 X55.982 Y37.930 Z-0.000 F780.000
G4 P10.000
G0 X55.982 Y37.930 Z0.100 F300.000
G0 X43.282 Y37.930 Z0.100 F1200.000
G0 X43.282 Y37.930 Z-0.000 F300.000
G1 X43.282 Y37.930 Z-0.000 F780.000
G1 X43.017 Y37.894 Z-0.000 F780.000
G1 X42.771 Y37.793 Z-0.000 F780.000
G1 X42.558 Y37.630 Z-0.000 F780.000
G1 X42.395 Y37.417 Z-0.000 F780.000
G1 X42.293 Y37.170 Z-0.000 F780.000
G1 X42.258 Y36.906 Z-0.000 F780.000
G1 X42.258 Y36.398 Z-0.000 F780.000
G1 X42.293 Y36.132 Z-0.000 F780.000
G1 X42.395 Y35.885 Z-0.000 F780.000
G1 X42.548 Y35.687 Z-0.000 F780.000
G1 X42.548 Y27.404 Z-0.000 F780.000
G1 X42.395 Y27.206 Z-0.000 F780.000
G1 X42.293 Y26.960 Z-0.000 F780.000
G1 X42.258 Y26.695 Z-0.000 F780.000
G1 X42.258 Y26.187 Z-0.000 F780.000
G1 X42.293 Y25.921 Z-0.000 F780.000
G1 X42.395 Y25.674 Z-0.000 F780.000
G1 X42.522 Y25.509 Z-0.000 F780.000
G1 X42.522 Y23.378 Z-0.000 F780.000
G1 X39.291 Y20.145 Z-0.000 F780.000
G1 X39.169 Y19.987 Z-0.000 F780.000
G1 X39.131 Y19.896 Z-0.000 F780.000
G1 X39.093 Y19.804 Z-0.000 F780.000
G1 X39.068 Y19.609 Z-0.000 F780.000
G1 X39.068 Y10.058 Z-0.000 F780.000
G1 X39.093 Y9.860 Z-0.000 F780.000
G1 X39.116 Y9.807 Z-0.000 F780.000
G1 X39.169 Y9.677 Z-0.000 F780.000
G1 X39.291 Y9.520 Z-0.000 F780.000
G1 X41.120 Y7.691 Z-0.000 F780.000
G1 X41.278 Y7.569 Z-0.000 F780.000
G1 X41.407 Y7.516 Z-0.000 F780.000
G1 X41.460 Y7.493 Z-0.000 F780.000
G1 X41.656 Y7.468 Z-0.000 F780.000
G1 X49.174 Y7.468 Z-0.000 F780.000
G1 X49.373 Y7.493 Z-0.000 F780.000
G1 X49.449 Y7.526 Z-0.000 F780.000
G1 X49.555 Y7.569 Z-0.000 F780.000
G1 X49.713 Y7.691 Z-0.000 F780.000
G1 X50.932 Y8.910 Z-0.000 F780.000
G1 X51.054 Y9.068 Z-0.000 F780.000
G1 X51.107 Y9.197 Z-0.000 F780.000
G1 X51.130 Y9.251 Z-0.000 F780.000
G1 X51.156 Y9.449 Z-0.000 F780.000
G1 X51.156 Y11.067 Z-0.000 F780.000
G1 X51.219 Y11.115 Z-0.000 F780.000
G1 X51.402 Y11.356 Z-0.000 F780.000
G1 X51.519 Y11.636 Z-0.000 F780.000
G1 X51.560 Y11.938 Z-0.000 F780.000
G1 X51.519 Y12.240 Z-0.000 F780.000
G1 X51.402 Y12.520 Z-0.000 F780.000
G1 X51.219 Y12.761 Z-0.000 F780.000
G1 X50.978 Y12.946 Z-0.000 F780.000
G1 X50.696 Y13.063 Z-0.000 F780.000
G1 X50.394 Y13.101 Z-0.000 F780.000
G1 X50.094 Y13.063 Z-0.000 F780.000
G1 X49.812 Y12.946 Z-0.000 F780.000
G1 X49.571 Y12.761 Z-0.000 F780.000
G1 X49.388 Y12.520 Z-0.000 F780.000
G1 X49.271 Y12.240 Z-0.000 F780.000
G1 X49.230 Y11.938 Z-0.000 F780.000
G1 X49.271 Y11.636 Z-0.000 F780.000
G1 X49.388 Y11.356 Z-0.000 F780.000
G1 X49.571 Y11.115 Z-0.000 F780.000
G1 X49.634 Y11.067 Z-0.000 F780.000
G1 X49.634 Y9.764 Z-0.000 F780.000
G1 X48.859 Y8.989 Z-0.000 F780.000
G1 X41.973 Y8.989 Z-0.000 F780.000
G1 X40.589 Y10.373 Z-0.000 F780.000
G1 X40.589 Y19.291 Z-0.000 F780.000
G1 X43.820 Y22.525 Z-0.000 F780.000
G1 X43.942 Y22.682 Z-0.000 F780.000
G1 X43.995 Y22.812 Z-0.000 F780.000
G1 X44.018 Y22.865 Z-0.000 F780.000
G1 X44.044 Y23.063 Z-0.000 F780.000
G1 X44.044 Y25.509 Z-0.000 F780.000
G1 X44.171 Y25.674 Z-0.000 F780.000
G1 X44.272 Y25.921 Z-0.000 F780.000
G1 X44.308 Y26.187 Z-0.000 F780.000
G1 X44.308 Y26.695 Z-0.000 F780.000
G1 X44.272 Y26.960 Z-0.000 F780.000
G1 X44.171 Y27.206 Z-0.000 F780.000
G1 X44.069 Y27.338 Z-0.000 F780.000
G1 X44.069 Y35.753 Z-0.000 F780.000
G1 X44.171 Y35.885 Z-0.000 F780.000
G1 X44.272 Y36.132 Z-0.000 F780.000
G1 X44.308 Y36.398 Z-0.000 F780.000
G1 X44.308 Y36.906 Z-0.000 F780.000
G1 X44.272 Y37.170 Z-0.000 F780.000
G1 X44.171 Y37.417 Z-0.000 F780.000
G1 X44.008 Y37.630 Z-0.000 F780.000
G1 X43.795 Y37.793 Z-0.000 F780.000
G1 X43.548 Y37.894 Z-0.000 F780.000
G1 X43.282 Y37.930 Z-0.000 F780.000
G4 P10.000
G0 X43.282 Y37.930 Z0.100 F300.000
G0 X96.408 Y44.470 Z0.100 F1200.000
G0 X96.408 Y44.470 Z-0.000 F300.000
G1 X96.408 Y44.470 Z-0.000 F780.000
G1 X96.063 Y44.437 Z-0.000 F780.000
G1 X95.733 Y44.336 Z-0.000 F780.000
G1 X95.428 Y44.173 Z-0.000 F780.000
G1 X95.161 Y43.955 Z-0.000 F780.000
G1 X94.943 Y43.688 Z-0.000 F780.000
G1 X94.780 Y43.383 Z-0.000 F780.000
G1 X94.678 Y43.053 Z-0.000 F780.000
G1 X94.646 Y42.708 Z-0.000 F780.000
G1 X94.678 Y42.365 Z-0.000 F780.000
G1 X94.780 Y42.035 Z-0.000 F780.000
G1 X94.943 Y41.730 Z-0.000 F780.000
G1 X95.161 Y41.463 Z-0.000 F780.000
G1 X96.230 Y40.391 Z-0.000 F780.000
G1 X96.500 Y40.173 Z-0.000 F780.000
G1 X96.804 Y40.010 Z-0.000 F780.000
G1 X97.135 Y39.909 Z-0.000 F780.000
G1 X97.478 Y39.875 Z-0.000 F780.000
G1 X104.104 Y39.875 Z-0.000 F780.000
G1 X104.447 Y39.909 Z-0.000 F780.000
G1 X104.777 Y40.010 Z-0.000 F780.000
G1 X105.082 Y40.173 Z-0.000 F780.000
G1 X105.349 Y40.391 Z-0.000 F780.000
G1 X105.570 Y40.658 Z-0.000 F780.000
G1 X105.733 Y40.963 Z-0.000 F780.000
G1 X105.832 Y41.295 Z-0.000 F780.000
G1 X105.865 Y41.638 Z-0.000 F780.000
G1 X105.832 Y41.981 Z-0.000 F780.000
G1 X105.733 Y42.311 Z-0.000 F780.000
G1 X105.570 Y42.616 Z-0.000 F780.000
G1 X105.349 Y42.885 Z-0.000 F780.000
G1 X105.082 Y43.104 Z-0.000 F780.000
G1 X104.777 Y43.266 Z-0.000 F780.000
G1 X104.447 Y43.365 Z-0.000 F780.000
G1 X104.104 Y43.401 Z-0.000 F780.000
G1 X98.209 Y43.401 Z-0.000 F780.000
G1 X97.653 Y43.955 Z-0.000 F780.000
G1 X97.386 Y44.173 Z-0.000 F780.000
G1 X97.081 Y44.336 Z-0.000 F780.000
G1 X96.751 Y44.437 Z-0.000 F780.000
G1 X96.408 Y44.470 Z-0.000 F780.000
G4 P10.000
G0 X96.408 Y44.470 Z0.100 F300.000
G0 X82.184 Y38.374 Z0.100 F1200.000
G0 X82.184 Y38.374 Z-0.000 F300.000
G1 X82.184 Y38.374 Z-0.000 F780.000
G1 X81.839 Y38.341 Z-0.000 F780.000
G1 X81.509 Y38.240 Z-0.000 F780.000
G1 X81.204 Y38.077 Z-0.000 F780.000
G1 X80.937 Y37.859 Z-0.000 F780.000
G1 X80.719 Y37.592 Z-0.000 F780.000
G1 X80.556 Y37.287 Z-0.000 F780.000
G1 X80.454 Y36.957 Z-0.000 F780.000
G1 X80.422 Y36.612 Z-0.000 F780.000
G1 X80.454 Y36.269 Z-0.000 F780.000
G1 X80.556 Y35.938 Z-0.000 F780.000
G1 X80.719 Y35.634 Z-0.000 F780.000
G1 X80.937 Y35.367 Z-0.000 F780.000
G1 X81.204 Y35.146 Z-0.000 F780.000
G1 X81.509 Y34.983 Z-0.000 F780.000
G1 X81.839 Y34.884 Z-0.000 F780.000
G1 X82.184 Y34.851 Z-0.000 F780.000
G1 X104.079 Y34.851 Z-0.000 F780.000
G1 X104.422 Y34.884 Z-0.000 F780.000
G1 X104.752 Y34.983 Z-0.000 F780.000
G1 X105.057 Y35.146 Z-0.000 F780.000
G1 X105.324 Y35.367 Z-0.000 F780.000
G1 X105.545 Y35.634 Z-0.000 F780.000
G1 X105.707 Y35.938 Z-0.000 F780.000
G1 X105.806 Y36.269 Z-0.000 F780.000
G1 X105.839 Y36.612 Z-0.000 F780.000
G1 X105.806 Y36.957 Z-0.000 F780.000
G1 X105.707 Y37.287 Z-0.000 F780.000
G1 X105.545 Y37.592 Z-0.000 F780.000
G1 X105.324 Y37.859 Z-0.000 F780.000
G1 X105.057 Y38.077 Z-0.000 F780.000
G1 X104.752 Y38.240 Z-0.000 F780.000
G1 X104.422 Y38.341 Z-0.000 F780.000
G1 X104.079 Y38.374 Z-0.000 F780.000
G1 X82.184 Y38.374 Z-0.000 F780.000
G4 P10.000
G0 X82.184 Y38.374 Z0.100 F300.000
G0 X65.608 Y48.052 Z0.100 F1200.000
G0 X65.608 Y48.052 Z-0.000 F300.000
G1 X65.608 Y48.052 Z-0.000 F780.000
G1 X65.334 Y48.016 Z-0.000 F780.000
G1 X65.077 Y47.910 Z-0.000 F780.000
G1 X64.859 Y47.739 Z-0.000 F780.000
G1 X64.689 Y47.521 Z-0.000 F780.000
G1 X64.582 Y47.264 Z-0.000 F780.000
G1 X64.547 Y46.990 Z-0.000 F780.000
G1 X64.547 Y45.466 Z-0.000 F780.000
G1 X64.582 Y45.189 Z-0.000 F780.000
G1 X64.689 Y44.933 Z-0.000 F780.000
G1 X64.849 Y44.724 Z-0.000 F780.000
G1 X64.849 Y43.470 Z-0.000 F780.000
G1 X61.107 Y39.726 Z-0.000 F780.000
G1 X60.899 Y39.698 Z-0.000 F780.000
G1 X60.653 Y39.596 Z-0.000 F780.000
G1 X60.439 Y39.433 Z-0.000 F780.000
G1 X60.277 Y39.220 Z-0.000 F780.000
G1 X60.175 Y38.974 Z-0.000 F780.000
G1 X60.140 Y38.710 Z-0.000 F780.000
G1 X60.175 Y38.443 Z-0.000 F780.000
G1 X60.277 Y38.196 Z-0.000 F780.000
G1 X60.404 Y38.031 Z-0.000 F780.000
G1 X60.404 Y32.789 Z-0.000 F780.000
G1 X60.389 Y32.779 Z-0.000 F780.000
G1 X60.226 Y32.565 Z-0.000 F780.000
G1 X60.124 Y32.319 Z-0.000 F780.000
G1 X60.089 Y32.055 Z-0.000 F780.000
G1 X60.124 Y31.788 Z-0.000 F780.000
G1 X60.226 Y31.542 Z-0.000 F780.000
G1 X60.389 Y31.328 Z-0.000 F780.000
G1 X60.602 Y31.166 Z-0.000 F780.000
G1 X60.848 Y31.064 Z-0.000 F780.000
G1 X61.112 Y31.029 Z-0.000 F780.000
G1 X61.379 Y31.064 Z-0.000 F780.000
G1 X61.625 Y31.166 Z-0.000 F780.000
G1 X61.839 Y31.328 Z-0.000 F780.000
G1 X62.001 Y31.542 Z-0.000 F780.000
G1 X62.103 Y31.788 Z-0.000 F780.000
G1 X62.139 Y32.055 Z-0.000 F780.000
G1 X62.103 Y32.319 Z-0.000 F780.000
G1 X62.001 Y32.565 Z-0.000 F780.000
G1 X61.925 Y32.664 Z-0.000 F780.000
G1 X61.925 Y38.031 Z-0.000 F780.000
G1 X62.052 Y38.196 Z-0.000 F780.000
G1 X62.154 Y38.443 Z-0.000 F780.000
G1 X62.182 Y38.651 Z-0.000 F780.000
G1 X66.147 Y42.616 Z-0.000 F780.000
G1 X66.269 Y42.774 Z-0.000 F780.000
G1 X66.322 Y42.903 Z-0.000 F780.000
G1 X66.345 Y42.957 Z-0.000 F780.000
G1 X66.370 Y43.155 Z-0.000 F780.000
G1 X66.370 Y44.724 Z-0.000 F780.000
G1 X66.530 Y44.933 Z-0.000 F780.000
G1 X66.637 Y45.189 Z-0.000 F780.000
G1 X66.673 Y45.466 Z-0.000 F780.000
G1 X66.673 Y46.990 Z-0.000 F780.000
G1 X66.637 Y47.264 Z-0.000 F780.000
G1 X66.530 Y47.521 Z-0.000 F780.000
G1 X66.360 Y47.739 Z-0.000 F780.000
G1 X66.142 Y47.910 Z-0.000 F780.000
G1 X65.885 Y48.016 Z-0.000 F780.000
G1 X65.608 Y48.052 Z-0.000 F780.000
G4 P10.000
G0 X65.608 Y48.052 Z0.100 F300.000
G0 X53.391 Y64.844 Z0.100 F1200.000
G0 X53.391 Y64.844 Z-0.000 F300.000
G1 X53.391 Y64.844 Z-0.000 F780.000
G1 X53.195 Y64.818 Z-0.000 F780.000
G1 X53.142 Y64.795 Z-0.000 F780.000
G1 X53.012 Y64.742 Z-0.000 F780.000
G1 X52.855 Y64.620 Z-0.000 F780.000
G1 X51.339 Y63.104 Z-0.000 F780.000
G1 X51.217 Y62.946 Z-0.000 F780.000
G1 X51.163 Y62.817 Z-0.000 F780.000
G1 X51.140 Y62.763 Z-0.000 F780.000
G1 X51.115 Y62.565 Z-0.000 F780.000
G1 X51.115 Y61.793 Z-0.000 F780.000
G1 X51.051 Y61.747 Z-0.000 F780.000
G1 X50.866 Y61.506 Z-0.000 F780.000
G1 X50.752 Y61.224 Z-0.000 F780.000
G1 X50.711 Y60.922 Z-0.000 F780.000
G1 X50.752 Y60.622 Z-0.000 F780.000
G1 X50.866 Y60.340 Z-0.000 F780.000
G1 X51.051 Y60.099 Z-0.000 F780.000
G1 X51.293 Y59.916 Z-0.000 F780.000
G1 X51.575 Y59.799 Z-0.000 F780.000
G1 X51.874 Y59.759 Z-0.000 F780.000
G1 X52.177 Y59.799 Z-0.000 F780.000
G1 X52.456 Y59.916 Z-0.000 F780.000
G1 X52.697 Y60.099 Z-0.000 F780.000
G1 X52.883 Y60.340 Z-0.000 F780.000
G1 X53.000 Y60.622 Z-0.000 F780.000
G1 X53.040 Y60.922 Z-0.000 F780.000
G1 X53.000 Y61.224 Z-0.000 F780.000
G1 X52.883 Y61.506 Z-0.000 F780.000
G1 X52.697 Y61.747 Z-0.000 F780.000
G1 X52.636 Y61.793 Z-0.000 F780.000
G1 X52.636 Y62.250 Z-0.000 F780.000
G1 X53.708 Y63.322 Z-0.000 F780.000
G1 X60.569 Y63.322 Z-0.000 F780.000
G1 X72.469 Y51.422 Z-0.000 F780.000
G1 X72.469 Y47.729 Z-0.000 F780.000
G1 X72.309 Y47.521 Z-0.000 F780.000
G1 X72.202 Y47.264 Z-0.000 F780.000
G1 X72.166 Y46.990 Z-0.000 F780.000
G1 X72.166 Y45.466 Z-0.000 F780.000
G1 X72.202 Y45.189 Z-0.000 F780.000
G1 X72.240 Y45.098 Z-0.000 F780.000
G1 X72.240 Y44.239 Z-0.000 F780.000
G1 X72.266 Y44.044 Z-0.000 F780.000
G1 X72.304 Y43.952 Z-0.000 F780.000
G1 X72.342 Y43.861 Z-0.000 F780.000
G1 X72.464 Y43.703 Z-0.000 F780.000
G1 X73.726 Y42.441 Z-0.000 F780.000
G1 X73.726 Y41.407 Z-0.000 F780.000
G1 X75.832 Y41.407 Z-0.000 F780.000
G1 X75.832 Y41.897 Z-0.000 F780.000
G1 X83.035 Y41.897 Z-0.000 F780.000
G1 X83.035 Y41.554 Z-0.000 F780.000
G1 X85.242 Y41.554 Z-0.000 F780.000
G1 X85.242 Y43.762 Z-0.000 F780.000
G1 X83.035 Y43.762 Z-0.000 F780.000
G1 X83.035 Y43.419 Z-0.000 F780.000
G1 X75.832 Y43.419 Z-0.000 F780.000
G1 X75.832 Y43.515 Z-0.000 F780.000
G1 X74.800 Y43.515 Z-0.000 F780.000
G1 X73.835 Y44.480 Z-0.000 F780.000
G1 X73.843 Y44.607 Z-0.000 F780.000
G1 X73.980 Y44.714 Z-0.000 F780.000
G1 X74.150 Y44.933 Z-0.000 F780.000
G1 X74.257 Y45.189 Z-0.000 F780.000
G1 X74.293 Y45.466 Z-0.000 F780.000
G1 X74.293 Y46.990 Z-0.000 F780.000
G1 X74.257 Y47.264 Z-0.000 F780.000
G1 X74.150 Y47.521 Z-0.000 F780.000
G1 X73.990 Y47.729 Z-0.000 F780.000
G1 X73.990 Y51.740 Z-0.000 F780.000
G1 X73.965 Y51.935 Z-0.000 F780.000
G1 X73.942 Y51.989 Z-0.000 F780.000
G1 X73.889 Y52.118 Z-0.000 F780.000
G1 X73.767 Y52.276 Z-0.000 F780.000
G1 X61.422 Y64.620 Z-0.000 F780.000
G1 X61.265 Y64.742 Z-0.000 F780.000
G1 X61.135 Y64.795 Z-0.000 F780.000
G1 X61.082 Y64.818 Z-0.000 F780.000
G1 X60.884 Y64.844 Z-0.000 F780.000
G1 X53.391 Y64.844 Z-0.000 F780.000
G4 P10.000
G0 X53.391 Y64.844 Z0.100 F300.000
G0 X62.017 Y48.042 Z0.100 F1200.000
G0 X62.017 Y48.042 Z-0.000 F300.000
G1 X62.017 Y48.042 Z-0.000 F780.000
G1 X62.017 Y44.412 Z-0.000 F780.000
G1 X64.122 Y44.412 Z-0.000 F780.000
G1 X64.122 Y48.042 Z-0.000 F780.000
G1 X62.017 Y48.042 Z-0.000 F780.000
G4 P10.000
G0 X62.017 Y48.042 Z0.100 F300.000
G0 X75.768 Y48.052 Z0.100 F1200.000
G0 X75.768 Y48.052 Z-0.000 F300.000
G1 X75.768 Y48.052 Z-0.000 F780.000
G1 X75.494 Y48.016 Z-0.000 F780.000
G1 X75.237 Y47.910 Z-0.000 F780.000
G1 X75.019 Y47.739 Z-0.000 F780.000
G1 X74.849 Y47.521 Z-0.000 F780.000
G1 X74.742 Y47.264 Z-0.000 F780.000
G1 X74.706 Y46.990 Z-0.000 F780.000
G1 X74.706 Y45.466 Z-0.000 F780.000
G1 X74.742 Y45.189 Z-0.000 F780.000
G1 X74.849 Y44.933 Z-0.000 F780.000
G1 X75.019 Y44.714 Z-0.000 F780.000
G1 X75.237 Y44.544 Z-0.000 F780.000
G1 X75.494 Y44.437 Z-0.000 F780.000
G1 X75.768 Y44.402 Z-0.000 F780.000
G1 X76.045 Y44.437 Z-0.000 F780.000
G1 X76.302 Y44.544 Z-0.000 F780.000
G1 X76.520 Y44.714 Z-0.000 F780.000
G1 X76.690 Y44.933 Z-0.000 F780.000
G1 X76.797 Y45.189 Z-0.000 F780.000
G1 X76.832 Y45.466 Z-0.000 F780.000
G1 X76.832 Y46.990 Z-0.000 F780.000
G1 X76.797 Y47.264 Z-0.000 F780.000
G1 X76.690 Y47.521 Z-0.000 F780.000
G1 X76.520 Y47.739 Z-0.000 F780.000
G1 X76.302 Y47.910 Z-0.000 F780.000
G1 X76.045 Y48.016 Z-0.000 F780.000
G1 X75.768 Y48.052 Z-0.000 F780.000
G4 P10.000
G0 X75.768 Y48.052 Z0.100 F300.000
G0 X53.442 Y37.930 Z0.100 F1200.000
G0 X53.442 Y37.930 Z-0.000 F300.000
G1 X53.442 Y37.930 Z-0.000 F780.000
G1 X53.177 Y37.894 Z-0.000 F780.000
G1 X52.931 Y37.793 Z-0.000 F780.000
G1 X52.718 Y37.630 Z-0.000 F780.000
G1 X52.555 Y37.417 Z-0.000 F780.000
G1 X52.453 Y37.170 Z-0.000 F780.000
G1 X52.418 Y36.906 Z-0.000 F780.000
G1 X52.418 Y36.398 Z-0.000 F780.000
G1 X52.453 Y36.132 Z-0.000 F780.000
G1 X52.555 Y35.885 Z-0.000 F780.000
G1 X52.708 Y35.687 Z-0.000 F780.000
G1 X52.708 Y27.404 Z-0.000 F780.000
G1 X52.555 Y27.206 Z-0.000 F780.000
G1 X52.453 Y26.960 Z-0.000 F780.000
G1 X52.418 Y26.695 Z-0.000 F780.000
G1 X52.418 Y26.187 Z-0.000 F780.000
G1 X52.453 Y25.921 Z-0.000 F780.000
G1 X52.555 Y25.674 Z-0.000 F780.000
G1 X52.708 Y25.476 Z-0.000 F780.000
G1 X52.708 Y21.298 Z-0.000 F780.000
G1 X51.168 Y19.759 Z-0.000 F780.000
G1 X51.097 Y19.759 Z-0.000 F780.000
G1 X50.932 Y19.886 Z-0.000 F780.000
G1 X50.686 Y19.987 Z-0.000 F780.000
G1 X50.419 Y20.023 Z-0.000 F780.000
G1 X50.155 Y19.987 Z-0.000 F780.000
G1 X49.909 Y19.886 Z-0.000 F780.000
G1 X49.695 Y19.723 Z-0.000 F780.000
G1 X49.533 Y19.510 Z-0.000 F780.000
G1 X49.431 Y19.263 Z-0.000 F780.000
G1 X49.395 Y18.999 Z-0.000 F780.000
G1 X49.431 Y18.733 Z-0.000 F780.000
G1 X49.533 Y18.486 Z-0.000 F780.000
G1 X49.695 Y18.273 Z-0.000 F780.000
G1 X49.909 Y18.110 Z-0.000 F780.000
G1 X50.155 Y18.009 Z-0.000 F780.000
G1 X50.419 Y17.973 Z-0.000 F780.000
G1 X50.686 Y18.009 Z-0.000 F780.000
G1 X50.932 Y18.110 Z-0.000 F780.000
G1 X51.097 Y18.237 Z-0.000 F780.000
G1 X51.483 Y18.237 Z-0.000 F780.000
G1 X51.679 Y18.263 Z-0.000 F780.000
G1 X51.735 Y18.285 Z-0.000 F780.000
G1 X51.864 Y18.339 Z-0.000 F780.000
G1 X52.022 Y18.461 Z-0.000 F780.000
G1 X54.006 Y20.444 Z-0.000 F780.000
G1 X54.127 Y20.602 Z-0.000 F780.000
G1 X54.181 Y20.732 Z-0.000 F780.000
G1 X54.204 Y20.787 Z-0.000 F780.000
G1 X54.229 Y20.983 Z-0.000 F780.000
G1 X54.229 Y25.542 Z-0.000 F780.000
G1 X54.331 Y25.674 Z-0.000 F780.000
G1 X54.432 Y25.921 Z-0.000 F780.000
G1 X54.468 Y26.187 Z-0.000 F780.000
G1 X54.468 Y26.695 Z-0.000 F780.000
G1 X54.432 Y26.960 Z-0.000 F780.000
G1 X54.331 Y27.206 Z-0.000 F780.000
G1 X54.229 Y27.338 Z-0.000 F780.000
G1 X54.229 Y35.753 Z-0.000 F780.000
G1 X54.331 Y35.885 Z-0.000 F780.000
G1 X54.432 Y36.132 Z-0.000 F780.000
G1 X54.468 Y36.398 Z-0.000 F780.000
G1 X54.468 Y36.906 Z-0.000 F780.000
G1 X54.432 Y37.170 Z-0.000 F780.000
G1 X54.331 Y37.417 Z-0.000 F780.000
G1 X54.168 Y37.630 Z-0.000 F780.000
G1 X53.955 Y37.793 Z-0.000 F780.000
G1 X53.708 Y37.894 Z-0.000 F780.000
G1 X53.442 Y37.930 Z-0.000 F780.000
G4 P10.000
G0 X53.442 Y37.930 Z0.100 F300.000
G0 X58.334 Y13.117 Z0.100 F1200.000
G0 X58.334 Y13.117 Z-0.000 F300.000
G1 X58.334 Y13.117 Z-0.000 F780.000
G1 X58.334 Y10.810 Z-0.000 F780.000
G1 X60.643 Y10.810 Z-0.000 F780.000
G1 X60.643 Y13.117 Z-0.000 F780.000
G1 X58.334 Y13.117 Z-0.000 F780.000
G4 P10.000
G0 X58.334 Y13.117 Z0.100 F300.000
G0 X61.112 Y22.918 Z0.100 F1200.000
G0 X61.112 Y22.918 Z-0.000 F300.000
G1 X61.112 Y22.918 Z-0.000 F780.000
G1 X60.848 Y22.883 Z-0.000 F780.000
G1 X60.602 Y22.781 Z-0.000 F780.000
G1 X60.389 Y22.619 Z-0.000 F780.000
G1 X60.226 Y22.405 Z-0.000 F780.000
G1 X60.124 Y22.159 Z-0.000 F780.000
G1 X60.089 Y21.895 Z-0.000 F780.000
G1 X60.124 Y21.628 Z-0.000 F780.000
G1 X60.226 Y21.382 Z-0.000 F780.000
G1 X60.353 Y21.217 Z-0.000 F780.000
G1 X60.353 Y18.186 Z-0.000 F780.000
G1 X60.378 Y17.988 Z-0.000 F780.000
G1 X60.416 Y17.897 Z-0.000 F780.000
G1 X60.454 Y17.805 Z-0.000 F780.000
G1 X60.576 Y17.648 Z-0.000 F780.000
G1 X63.807 Y14.415 Z-0.000 F780.000
G1 X63.807 Y12.835 Z-0.000 F780.000
G1 X63.744 Y12.786 Z-0.000 F780.000
G1 X63.561 Y12.545 Z-0.000 F780.000
G1 X63.444 Y12.266 Z-0.000 F780.000
G1 X63.403 Y11.963 Z-0.000 F780.000
G1 X63.444 Y11.661 Z-0.000 F780.000
G1 X63.561 Y11.382 Z-0.000 F780.000
G1 X63.744 Y11.140 Z-0.000 F780.000
G1 X63.985 Y10.955 Z-0.000 F780.000
G1 X64.267 Y10.838 Z-0.000 F780.000
G1 X64.567 Y10.800 Z-0.000 F780.000
G1 X64.869 Y10.838 Z-0.000 F780.000
G1 X65.151 Y10.955 Z-0.000 F780.000
G1 X65.392 Y11.140 Z-0.000 F780.000
G1 X65.575 Y11.382 Z-0.000 F780.000
G1 X65.692 Y11.661 Z-0.000 F780.000
G1 X65.733 Y11.963 Z-0.000 F780.000
G1 X65.692 Y12.266 Z-0.000 F780.000
G1 X65.575 Y12.545 Z-0.000 F780.000
G1 X65.392 Y12.786 Z-0.000 F780.000
G1 X65.329 Y12.835 Z-0.000 F780.000
G1 X65.329 Y14.732 Z-0.000 F780.000
G1 X65.303 Y14.928 Z-0.000 F780.000
G1 X65.281 Y14.981 Z-0.000 F780.000
G1 X65.227 Y15.111 Z-0.000 F780.000
G1 X65.105 Y15.268 Z-0.000 F780.000
G1 X61.874 Y18.501 Z-0.000 F780.000
G1 X61.874 Y21.217 Z-0.000 F780.000
G1 X62.001 Y21.382 Z-0.000 F780.000
G1 X62.103 Y21.628 Z-0.000 F780.000
G1 X62.139 Y21.895 Z-0.000 F780.000
G1 X62.103 Y22.159 Z-0.000 F780.000
G1 X62.001 Y22.405 Z-0.000 F780.000
G1 X61.839 Y22.619 Z-0.000 F780.000
G1 X61.625 Y22.781 Z-0.000 F780.000
G1 X61.379 Y22.883 Z-0.000 F780.000
G1 X61.112 Y22.918 Z-0.000 F780.000
G4 P10.000
G0 X61.112 Y22.918 Z0.100 F300.000
G0 X97.401 Y33.401 Z0.100 F1200.000
G0 X97.401 Y33.401 Z-0.000 F300.000
G1 X97.401 Y33.401 Z-0.000 F780.000
G1 X97.059 Y33.365 Z-0.000 F780.000
G1 X96.728 Y33.266 Z-0.000 F780.000
G1 X96.424 Y33.104 Z-0.000 F780.000
G1 X96.154 Y32.885 Z-0.000 F780.000
G1 X95.161 Y31.890 Z-0.000 F780.000
G1 X94.943 Y31.623 Z-0.000 F780.000
G1 X94.780 Y31.318 Z-0.000 F780.000
G1 X94.678 Y30.988 Z-0.000 F780.000
G1 X94.646 Y30.643 Z-0.000 F780.000
G1 X94.678 Y30.300 Z-0.000 F780.000
G1 X94.780 Y29.969 Z-0.000 F780.000
G1 X94.943 Y29.665 Z-0.000 F780.000
G1 X95.161 Y29.398 Z-0.000 F780.000
G1 X95.428 Y29.177 Z-0.000 F780.000
G1 X95.733 Y29.014 Z-0.000 F780.000
G1 X96.063 Y28.915 Z-0.000 F780.000
G1 X96.408 Y28.882 Z-0.000 F780.000
G1 X96.751 Y28.915 Z-0.000 F780.000
G1 X97.081 Y29.014 Z-0.000 F780.000
G1 X97.386 Y29.177 Z-0.000 F780.000
G1 X97.653 Y29.398 Z-0.000 F780.000
G1 X98.133 Y29.875 Z-0.000 F780.000
G1 X104.104 Y29.875 Z-0.000 F780.000
G1 X104.447 Y29.909 Z-0.000 F780.000
G1 X104.777 Y30.010 Z-0.000 F780.000
G1 X105.082 Y30.173 Z-0.000 F780.000
G1 X105.349 Y30.391 Z-0.000 F780.000
G1 X105.570 Y30.658 Z-0.000 F780.000
G1 X105.733 Y30.963 Z-0.000 F780.000
G1 X105.832 Y31.295 Z-0.000 F780.000
G1 X105.865 Y31.638 Z-0.000 F780.000
G1 X105.832 Y31.981 Z-0.000 F780.000
G1 X105.733 Y32.311 Z-0.000 F780.000
G1 X105.570 Y32.616 Z-0.000 F780.000
G1 X105.349 Y32.885 Z-0.000 F780.000
G1 X105.082 Y33.104 Z-0.000 F780.000
G1 X104.777 Y33.266 Z-0.000 F780.000
G1 X104.447 Y33.365 Z-0.000 F780.000
G1 X104.104 Y33.401 Z-0.000 F780.000
G1 X97.401 Y33.401 Z-0.000 F780.000
G4 P10.000
G0 X97.401 Y33.401 Z0.100 F300.000
G0 X84.089 Y31.758 Z0.100 F1200.000
G0 X84.089 Y31.758 Z-0.000 F300.000
G1 X84.089 Y31.758 Z-0.000 F780.000
G1 X83.800 Y31.719 Z-0.000 F780.000
G1 X83.530 Y31.608 Z-0.000 F780.000
G1 X83.302 Y31.430 Z-0.000 F780.000
G1 X83.279 Y31.405 Z-0.000 F780.000
G1 X78.549 Y31.405 Z-0.000 F780.000
G1 X78.354 Y31.379 Z-0.000 F780.000
G1 X78.301 Y31.356 Z-0.000 F780.000
G1 X78.171 Y31.303 Z-0.000 F780.000
G1 X78.014 Y31.181 Z-0.000 F780.000
G1 X76.477 Y29.647 Z-0.000 F780.000
G1 X76.357 Y29.629 Z-0.000 F780.000
G1 X76.126 Y29.535 Z-0.000 F780.000
G1 X75.928 Y29.380 Z-0.000 F780.000
G1 X75.773 Y29.182 Z-0.000 F780.000
G1 X75.679 Y28.951 Z-0.000 F780.000
G1 X75.646 Y28.702 Z-0.000 F780.000
G1 X75.679 Y28.451 Z-0.000 F780.000
G1 X75.773 Y28.219 Z-0.000 F780.000
G1 X75.928 Y28.021 Z-0.000 F780.000
G1 X76.126 Y27.866 Z-0.000 F780.000
G1 X76.357 Y27.772 Z-0.000 F780.000
G1 X76.606 Y27.739 Z-0.000 F780.000
G1 X76.858 Y27.772 Z-0.000 F780.000
G1 X77.089 Y27.866 Z-0.000 F780.000
G1 X77.287 Y28.021 Z-0.000 F780.000
G1 X77.442 Y28.219 Z-0.000 F780.000
G1 X77.536 Y28.451 Z-0.000 F780.000
G1 X77.554 Y28.570 Z-0.000 F780.000
G1 X78.865 Y29.883 Z-0.000 F780.000
G1 X83.279 Y29.883 Z-0.000 F780.000
G1 X83.302 Y29.855 Z-0.000 F780.000
G1 X83.530 Y29.680 Z-0.000 F780.000
G1 X83.800 Y29.568 Z-0.000 F780.000
G1 X84.089 Y29.530 Z-0.000 F780.000
G1 X84.376 Y29.568 Z-0.000 F780.000
G1 X84.646 Y29.680 Z-0.000 F780.000
G1 X84.877 Y29.855 Z-0.000 F780.000
G1 X85.052 Y30.086 Z-0.000 F780.000
G1 X85.164 Y30.355 Z-0.000 F780.000
G1 X85.202 Y30.643 Z-0.000 F780.000
G1 X85.164 Y30.932 Z-0.000 F780.000
G1 X85.052 Y31.201 Z-0.000 F780.000
G1 X84.877 Y31.430 Z-0.000 F780.000
G1 X84.646 Y31.608 Z-0.000 F780.000
G1 X84.376 Y31.719 Z-0.000 F780.000
G1 X84.089 Y31.758 Z-0.000 F780.000
G4 P10.000
G0 X84.089 Y31.758 Z0.100 F300.000
G0 X53.261 Y62.078 Z0.100 F1200.000
G0 X53.261 Y62.078 Z-0.000 F300.000
G1 X53.261 Y62.078 Z-0.000 F780.000
G1 X53.261 Y59.769 Z-0.000 F780.000
G1 X53.655 Y59.769 Z-0.000 F780.000
G1 X53.655 Y55.514 Z-0.000 F780.000
G1 X45.286 Y47.145 Z-0.000 F780.000
G1 X45.164 Y46.987 Z-0.000 F780.000
G1 X45.133 Y46.911 Z-0.000 F780.000
G1 X45.088 Y46.805 Z-0.000 F780.000
G1 X45.062 Y46.609 Z-0.000 F780.000
G1 X45.062 Y37.582 Z-0.000 F780.000
G1 X44.935 Y37.417 Z-0.000 F780.000
G1 X44.833 Y37.170 Z-0.000 F780.000
G1 X44.798 Y36.906 Z-0.000 F780.000
G1 X44.798 Y36.398 Z-0.000 F780.000
G1 X44.833 Y36.132 Z-0.000 F780.000
G1 X44.935 Y35.885 Z-0.000 F780.000
G1 X45.088 Y35.687 Z-0.000 F780.000
G1 X45.088 Y27.404 Z-0.000 F780.000
G1 X44.935 Y27.206 Z-0.000 F780.000
G1 X44.833 Y26.960 Z-0.000 F780.000
G1 X44.798 Y26.695 Z-0.000 F780.000
G1 X44.798 Y26.187 Z-0.000 F780.000
G1 X44.833 Y25.921 Z-0.000 F780.000
G1 X44.935 Y25.674 Z-0.000 F780.000
G1 X45.098 Y25.461 Z-0.000 F780.000
G1 X45.311 Y25.298 Z-0.000 F780.000
G1 X45.557 Y25.197 Z-0.000 F780.000
G1 X45.822 Y25.161 Z-0.000 F780.000
G1 X46.088 Y25.197 Z-0.000 F780.000
G1 X46.335 Y25.298 Z-0.000 F780.000
G1 X46.548 Y25.461 Z-0.000 F780.000
G1 X46.711 Y25.674 Z-0.000 F780.000
G1 X46.812 Y25.921 Z-0.000 F780.000
G1 X46.848 Y26.187 Z-0.000 F780.000
G1 X46.848 Y26.695 Z-0.000 F780.000
G1 X46.812 Y26.960 Z-0.000 F780.000
G1 X46.711 Y27.206 Z-0.000 F780.000
G1 X46.609 Y27.338 Z-0.000 F780.000
G1 X46.609 Y35.753 Z-0.000 F780.000
G1 X46.711 Y35.885 Z-0.000 F780.000
G1 X46.812 Y36.132 Z-0.000 F780.000
G1 X46.848 Y36.398 Z-0.000 F780.000
G1 X46.848 Y36.906 Z-0.000 F780.000
G1 X46.812 Y37.170 Z-0.000 F780.000
G1 X46.711 Y37.417 Z-0.000 F780.000
G1 X46.584 Y37.582 Z-0.000 F780.000
G1 X46.584 Y46.292 Z-0.000 F780.000
G1 X54.729 Y54.440 Z-0.000 F780.000
G1 X66.025 Y54.440 Z-0.000 F780.000
G1 X69.929 Y50.533 Z-0.000 F780.000
G1 X69.929 Y47.729 Z-0.000 F780.000
G1 X69.769 Y47.521 Z-0.000 F780.000
G1 X69.662 Y47.264 Z-0.000 F780.000
G1 X69.627 Y46.990 Z-0.000 F780.000
G1 X69.627 Y45.466 Z-0.000 F780.000
G1 X69.662 Y45.189 Z-0.000 F780.000
G1 X69.769 Y44.933 Z-0.000 F780.000
G1 X69.929 Y44.724 Z-0.000 F780.000
G1 X69.929 Y43.612 Z-0.000 F780.000
G1 X69.954 Y43.414 Z-0.000 F780.000
G1 X69.992 Y43.322 Z-0.000 F780.000
G1 X70.030 Y43.231 Z-0.000 F780.000
G1 X70.152 Y43.073 Z-0.000 F780.000
G1 X70.564 Y42.659 Z-0.000 F780.000
G1 X70.564 Y39.385 Z-0.000 F780.000
G1 X70.437 Y39.220 Z-0.000 F780.000
G1 X70.335 Y38.974 Z-0.000 F780.000
G1 X70.300 Y38.710 Z-0.000 F780.000
G1 X70.335 Y38.443 Z-0.000 F780.000
G1 X70.437 Y38.196 Z-0.000 F780.000
G1 X70.564 Y38.031 Z-0.000 F780.000
G1 X70.564 Y35.570 Z-0.000 F780.000
G1 X66.520 Y31.524 Z-0.000 F780.000
G1 X66.398 Y31.367 Z-0.000 F780.000
G1 X66.345 Y31.237 Z-0.000 F780.000
G1 X66.322 Y31.184 Z-0.000 F780.000
G1 X66.297 Y30.988 Z-0.000 F780.000
G1 X66.297 Y22.306 Z-0.000 F780.000
G1 X66.233 Y22.261 Z-0.000 F780.000
G1 X66.050 Y22.019 Z-0.000 F780.000
G1 X65.933 Y21.737 Z-0.000 F780.000
G1 X65.893 Y21.438 Z-0.000 F780.000
G1 X65.933 Y21.135 Z-0.000 F780.000
G1 X66.050 Y20.853 Z-0.000 F780.000
G1 X66.233 Y20.612 Z-0.000 F780.000
G1 X66.474 Y20.429 Z-0.000 F780.000
G1 X66.756 Y20.312 Z-0.000 F780.000
G1 X67.056 Y20.272 Z-0.000 F780.000
G1 X67.358 Y20.312 Z-0.000 F780.000
G1 X67.640 Y20.429 Z-0.000 F780.000
G1 X67.882 Y20.612 Z-0.000 F780.000
G1 X68.064 Y20.853 Z-0.000 F780.000
G1 X68.181 Y21.135 Z-0.000 F780.000
G1 X68.222 Y21.438 Z-0.000 F780.000
G1 X68.181 Y21.737 Z-0.000 F780.000
G1 X68.064 Y22.019 Z-0.000 F780.000
G1 X67.882 Y22.261 Z-0.000 F780.000
G1 X67.818 Y22.306 Z-0.000 F780.000
G1 X67.818 Y30.670 Z-0.000 F780.000
G1 X70.447 Y33.299 Z-0.000 F780.000
G1 X70.564 Y33.251 Z-0.000 F780.000
G1 X70.564 Y32.385 Z-0.000 F780.000
G1 X70.589 Y32.187 Z-0.000 F780.000
G1 X70.612 Y32.133 Z-0.000 F780.000
G1 X70.665 Y32.004 Z-0.000 F780.000
G1 X70.787 Y31.847 Z-0.000 F780.000
G1 X72.037 Y30.594 Z-0.000 F780.000
G1 X72.037 Y29.276 Z-0.000 F780.000
G1 X71.963 Y29.182 Z-0.000 F780.000
G1 X71.869 Y28.951 Z-0.000 F780.000
G1 X71.836 Y28.702 Z-0.000 F780.000
G1 X71.869 Y28.451 Z-0.000 F780.000
G1 X71.963 Y28.219 Z-0.000 F780.000
G1 X72.118 Y28.021 Z-0.000 F780.000
G1 X72.316 Y27.866 Z-0.000 F780.000
G1 X72.548 Y27.772 Z-0.000 F780.000
G1 X72.796 Y27.739 Z-0.000 F780.000
G1 X73.048 Y27.772 Z-0.000 F780.000
G1 X73.279 Y27.866 Z-0.000 F780.000
G1 X73.477 Y28.021 Z-0.000 F780.000
G1 X73.632 Y28.219 Z-0.000 F780.000
G1 X73.726 Y28.451 Z-0.000 F780.000
G1 X73.759 Y28.702 Z-0.000 F780.000
G1 X73.726 Y28.951 Z-0.000 F780.000
G1 X73.632 Y29.182 Z-0.000 F780.000
G1 X73.558 Y29.276 Z-0.000 F780.000
G1 X73.558 Y30.912 Z-0.000 F780.000
G1 X73.533 Y31.107 Z-0.000 F780.000
G1 X73.510 Y31.161 Z-0.000 F780.000
G1 X73.457 Y31.290 Z-0.000 F780.000
G1 X73.335 Y31.448 Z-0.000 F780.000
G1 X72.085 Y32.700 Z-0.000 F780.000
G1 X72.085 Y35.255 Z-0.000 F780.000
G1 X72.085 Y38.031 Z-0.000 F780.000
G1 X72.212 Y38.196 Z-0.000 F780.000
G1 X72.314 Y38.443 Z-0.000 F780.000
G1 X72.349 Y38.710 Z-0.000 F780.000
G1 X72.314 Y38.974 Z-0.000 F780.000
G1 X72.212 Y39.220 Z-0.000 F780.000
G1 X72.085 Y39.385 Z-0.000 F780.000
G1 X72.085 Y42.977 Z-0.000 F780.000
G1 X72.060 Y43.172 Z-0.000 F780.000
G1 X72.037 Y43.226 Z-0.000 F780.000
G1 X71.984 Y43.355 Z-0.000 F780.000
G1 X71.862 Y43.513 Z-0.000 F780.000
G1 X71.450 Y43.927 Z-0.000 F780.000
G1 X71.450 Y44.724 Z-0.000 F780.000
G1 X71.610 Y44.933 Z-0.000 F780.000
G1 X71.717 Y45.189 Z-0.000 F780.000
G1 X71.753 Y45.466 Z-0.000 F780.000
G1 X71.753 Y46.990 Z-0.000 F780.000
G1 X71.717 Y47.264 Z-0.000 F780.000
G1 X71.610 Y47.521 Z-0.000 F780.000
G1 X71.450 Y47.729 Z-0.000 F780.000
G1 X71.450 Y50.851 Z-0.000 F780.000
G1 X71.425 Y51.046 Z-0.000 F780.000
G1 X71.402 Y51.100 Z-0.000 F780.000
G1 X71.349 Y51.229 Z-0.000 F780.000
G1 X71.227 Y51.387 Z-0.000 F780.000
G1 X66.876 Y55.738 Z-0.000 F780.000
G1 X66.718 Y55.860 Z-0.000 F780.000
G1 X66.627 Y55.898 Z-0.000 F780.000
G1 X66.535 Y55.936 Z-0.000 F780.000
G1 X66.340 Y55.961 Z-0.000 F780.000
G1 X55.176 Y55.961 Z-0.000 F780.000
G1 X55.176 Y59.769 Z-0.000 F780.000
G1 X55.570 Y59.769 Z-0.000 F780.000
G1 X55.570 Y62.078 Z-0.000 F780.000
G1 X53.261 Y62.078 Z-0.000 F780.000
G4 P10.000
G0 X53.261 Y62.078 Z0.100 F300.000
G0 X0.100 Y0.125 Z0.000 F300.000
G0 X0.100 Y0.125 Z-0.000 F1200.000
G1 X0.100 Y0.125 Z-0.000 F780.000
G1 X0.100 Y67.167 Z-0.000 F780.000
G1 X0.133 Y67.200 Z-0.000 F780.000
G1 X79.834 Y67.159 Z-0.000 F780.000
G1 X79.885 Y48.336 Z-0.000 F780.000
G1 X79.885 Y48.236 Z-0.000 F780.000
G1 X79.985 Y48.236 Z-0.000 F780.000
G1 X111.094 Y48.259 Z-0.000 F780.000
G1 X111.152 Y48.196 Z-0.000 F780.000
G1 X111.152 Y24.509 Z-0.000 F780.000
G1 X81.305 Y24.509 Z-0.000 F780.000
G1 X81.264 Y24.509 Z-0.000 F780.000
G1 X81.235 Y24.480 Z-0.000 F780.000
G1 X81.184 Y24.429 Z-0.000 F780.000
G1 X81.113 Y24.359 Z-0.000 F780.000
G1 X81.180 Y24.292 Z-0.000 F780.000
G1 X81.180 Y0.130 Z-0.000 F780.000
G1 X81.150 Y0.100 Z-0.000 F780.000
G1 X0.100 Y0.125 Z-0.000 F780.000
G4 P10.000
G0 X0.100 Y0.125 Z0.100 F300.000
G0 X82.184 Y38.474 Z0.100 F1200.000
G0 X82.184 Y38.474 Z-0.000 F300.000
G1 X82.184 Y38.474 Z-0.000 F780.000
G1 X82.179 Y38.474 Z-0.000 F780.000
G1 X82.175 Y38.474 Z-0.000 F780.000
G1 X81.829 Y38.441 Z-0.000 F780.000
G1 X81.819 Y38.440 Z-0.000 F780.000
G1 X81.809 Y38.437 Z-0.000 F780.000
G1 X81.479 Y38.335 Z-0.000 F780.000
G1 X81.470 Y38.332 Z-0.000 F780.000
G1 X81.462 Y38.328 Z-0.000 F780.000
G1 X81.157 Y38.165 Z-0.000 F780.000
G1 X81.148 Y38.161 Z-0.000 F780.000
G1 X81.140 Y38.154 Z-0.000 F780.000
G1 X80.874 Y37.936 Z-0.000 F780.000
G1 X80.866 Y37.930 Z-0.000 F780.000
G1 X80.860 Y37.922 Z-0.000 F780.000
G1 X80.641 Y37.655 Z-0.000 F780.000
G1 X80.635 Y37.648 Z-0.000 F780.000
G1 X80.630 Y37.639 Z-0.000 F780.000
G1 X80.468 Y37.334 Z-0.000 F780.000
G1 X80.463 Y37.326 Z-0.000 F780.000
G1 X80.461 Y37.317 Z-0.000 F780.000
G1 X80.359 Y36.986 Z-0.000 F780.000
G1 X80.356 Y36.977 Z-0.000 F780.000
G1 X80.355 Y36.967 Z-0.000 F780.000
G1 X80.322 Y36.621 Z-0.000 F780.000
G1 X80.321 Y36.612 Z-0.000 F780.000
G1 X80.322 Y36.602 Z-0.000 F780.000
G1 X80.355 Y36.259 Z-0.000 F780.000
G1 X80.356 Y36.249 Z-0.000 F780.000
G1 X80.359 Y36.239 Z-0.000 F780.000
G1 X80.461 Y35.909 Z-0.000 F780.000
G1 X80.463 Y35.900 Z-0.000 F780.000
G1 X80.468 Y35.891 Z-0.000 F780.000
G1 X80.630 Y35.587 Z-0.000 F780.000
G1 X80.635 Y35.578 Z-0.000 F780.000
G1 X80.641 Y35.570 Z-0.000 F780.000
G1 X80.860 Y35.304 Z-0.000 F780.000
G1 X80.866 Y35.296 Z-0.000 F780.000
G1 X80.873 Y35.290 Z-0.000 F780.000
G1 X81.140 Y35.069 Z-0.000 F780.000
G1 X81.148 Y35.063 Z-0.000 F780.000
G1 X81.157 Y35.058 Z-0.000 F780.000
G1 X81.462 Y34.895 Z-0.000 F780.000
G1 X81.470 Y34.890 Z-0.000 F780.000
G1 X81.480 Y34.888 Z-0.000 F780.000
G1 X81.810 Y34.789 Z-0.000 F780.000
G1 X81.819 Y34.786 Z-0.000 F780.000
G1 X81.829 Y34.785 Z-0.000 F780.000
G1 X82.175 Y34.752 Z-0.000 F780.000
G1 X82.179 Y34.751 Z-0.000 F780.000
G1 X82.184 Y34.751 Z-0.000 F780.000
G1 X104.079 Y34.751 Z-0.000 F780.000
G1 X104.084 Y34.751 Z-0.000 F780.000
G1 X104.089 Y34.752 Z-0.000 F780.000
G1 X104.432 Y34.785 Z-0.000 F780.000
G1 X104.441 Y34.786 Z-0.000 F780.000
G1 X104.451 Y34.789 Z-0.000 F780.000
G1 X104.781 Y34.888 Z-0.000 F780.000
G1 X104.790 Y34.890 Z-0.000 F780.000
G1 X104.799 Y34.895 Z-0.000 F780.000
G1 X105.104 Y35.058 Z-0.000 F780.000
G1 X105.113 Y35.063 Z-0.000 F780.000
G1 X105.121 Y35.069 Z-0.000 F780.000
G1 X105.387 Y35.290 Z-0.000 F780.000
G1 X105.395 Y35.296 Z-0.000 F780.000
G1 X105.401 Y35.303 Z-0.000 F780.000
G1 X105.622 Y35.570 Z-0.000 F780.000
G1 X105.628 Y35.578 Z-0.000 F780.000
G1 X105.633 Y35.587 Z-0.000 F780.000
G1 X105.795 Y35.891 Z-0.000 F780.000
G1 X105.800 Y35.900 Z-0.000 F780.000
G1 X105.803 Y35.910 Z-0.000 F780.000
G1 X105.902 Y36.240 Z-0.000 F780.000
G1 X105.905 Y36.249 Z-0.000 F780.000
G1 X105.906 Y36.259 Z-0.000 F780.000
G1 X105.939 Y36.602 Z-0.000 F780.000
G1 X105.940 Y36.612 Z-0.000 F780.000
G1 X105.939 Y36.621 Z-0.000 F780.000
G1 X105.906 Y36.967 Z-0.000 F780.000
G1 X105.905 Y36.976 Z-0.000 F780.000
G1 X105.902 Y36.986 Z-0.000 F780.000
G1 X105.803 Y37.316 Z-0.000 F780.000
G1 X105.800 Y37.325 Z-0.000 F780.000
G1 X105.795 Y37.334 Z-0.000 F780.000
G1 X105.633 Y37.639 Z-0.000 F780.000
G1 X105.628 Y37.648 Z-0.000 F780.000
G1 X105.622 Y37.656 Z-0.000 F780.000
G1 X105.401 Y37.923 Z-0.000 F780.000
G1 X105.394 Y37.930 Z-0.000 F780.000
G1 X105.387 Y37.936 Z-0.000 F780.000
G1 X105.120 Y38.154 Z-0.000 F780.000
G1 X105.113 Y38.161 Z-0.000 F780.000
G1 X105.104 Y38.165 Z-0.000 F780.000
G1 X104.799 Y38.328 Z-0.000 F780.000
G1 X104.791 Y38.332 Z-0.000 F780.000
G1 X104.782 Y38.335 Z-0.000 F780.000
G1 X104.451 Y38.437 Z-0.000 F780.000
G1 X104.442 Y38.440 Z-0.000 F780.000
G1 X104.431 Y38.441 Z-0.000 F780.000
G1 X104.089 Y38.474 Z-0.000 F780.000
G1 X104.084 Y38.474 Z-0.000 F780.000
G1 X104.079 Y38.474 Z-0.000 F780.000
G1 X82.184 Y38.474 Z-0.000 F780.000
G4 P10.000
G0 X82.184 Y38.474 Z0.100 F300.000
G0 X62.017 Y48.142 Z0.100 F1200.000
G0 X62.017 Y48.142 Z-0.000 F300.000
G1 X62.017 Y48.142 Z-0.000 F780.000
G1 X61.917 Y48.142 Z-0.000 F780.000
G1 X61.917 Y48.042 Z-0.000 F780.000
G1 X61.917 Y44.412 Z-0.000 F780.000
G1 X61.917 Y44.312 Z-0.000 F780.000
G1 X62.017 Y44.312 Z-0.000 F780.000
G1 X64.122 Y44.312 Z-0.000 F780.000
G1 X64.222 Y44.312 Z-0.000 F780.000
G1 X64.222 Y44.412 Z-0.000 F780.000
G1 X64.222 Y48.042 Z-0.000 F780.000
G1 X64.222 Y48.142 Z-0.000 F780.000
G1 X64.122 Y48.142 Z-0.000 F780.000
G1 X62.017 Y48.142 Z-0.000 F780.000
G4 P10.000
G0 X62.017 Y48.142 Z0.100 F300.000
G0 X75.781 Y48.151 Z0.100 F1200.000
G0 X75.781 Y48.151 Z-0.000 F300.000
G1 X75.781 Y48.151 Z-0.000 F780.000
G1 X75.768 Y48.153 Z-0.000 F780.000
G1 X75.755 Y48.151 Z-0.000 F780.000
G1 X75.481 Y48.115 Z-0.000 F780.000
G1 X75.468 Y48.114 Z-0.000 F780.000
G1 X75.455 Y48.109 Z-0.000 F780.000
G1 X75.199 Y48.002 Z-0.000 F780.000
G1 X75.186 Y47.997 Z-0.000 F780.000
G1 X75.176 Y47.988 Z-0.000 F780.000
G1 X74.957 Y47.818 Z-0.000 F780.000
G1 X74.948 Y47.811 Z-0.000 F780.000
G1 X74.940 Y47.801 Z-0.000 F780.000
G1 X74.770 Y47.582 Z-0.000 F780.000
G1 X74.762 Y47.572 Z-0.000 F780.000
G1 X74.756 Y47.559 Z-0.000 F780.000
G1 X74.650 Y47.303 Z-0.000 F780.000
G1 X74.645 Y47.290 Z-0.000 F780.000
G1 X74.643 Y47.277 Z-0.000 F780.000
G1 X74.607 Y47.003 Z-0.000 F780.000
G1 X74.606 Y46.996 Z-0.000 F780.000
G1 X74.606 Y46.990 Z-0.000 F780.000
G1 X74.606 Y45.466 Z-0.000 F780.000
G1 X74.606 Y45.460 Z-0.000 F780.000
G1 X74.607 Y45.453 Z-0.000 F780.000
G1 X74.643 Y45.176 Z-0.000 F780.000
G1 X74.645 Y45.163 Z-0.000 F780.000
G1 X74.650 Y45.151 Z-0.000 F780.000
G1 X74.756 Y44.894 Z-0.000 F780.000
G1 X74.762 Y44.882 Z-0.000 F780.000
G1 X74.770 Y44.871 Z-0.000 F780.000
G1 X74.940 Y44.653 Z-0.000 F780.000
G1 X74.948 Y44.643 Z-0.000 F780.000
G1 X74.957 Y44.635 Z-0.000 F780.000
G1 X75.176 Y44.465 Z-0.000 F780.000
G1 X75.186 Y44.457 Z-0.000 F780.000
G1 X75.199 Y44.452 Z-0.000 F780.000
G1 X75.456 Y44.345 Z-0.000 F780.000
G1 X75.468 Y44.340 Z-0.000 F780.000
G1 X75.481 Y44.338 Z-0.000 F780.000
G1 X75.755 Y44.303 Z-0.000 F780.000
G1 X75.768 Y44.301 Z-0.000 F780.000
G1 X75.781 Y44.303 Z-0.000 F780.000
G1 X76.058 Y44.338 Z-0.000 F780.000
G1 X76.071 Y44.340 Z-0.000 F780.000
G1 X76.084 Y44.345 Z-0.000 F780.000
G1 X76.340 Y44.452 Z-0.000 F780.000
G1 X76.352 Y44.457 Z-0.000 F780.000
G1 X76.363 Y44.465 Z-0.000 F780.000
G1 X76.581 Y44.635 Z-0.000 F780.000
G1 X76.591 Y44.643 Z-0.000 F780.000
G1 X76.599 Y44.653 Z-0.000 F780.000
G1 X76.769 Y44.871 Z-0.000 F780.000
G1 X76.777 Y44.882 Z-0.000 F780.000
G1 X76.783 Y44.894 Z-0.000 F780.000
G1 X76.889 Y45.151 Z-0.000 F780.000
G1 X76.894 Y45.163 Z-0.000 F780.000
G1 X76.896 Y45.176 Z-0.000 F780.000
G1 X76.932 Y45.453 Z-0.000 F780.000
G1 X76.932 Y45.460 Z-0.000 F780.000
G1 X76.932 Y45.466 Z-0.000 F780.000
G1 X76.932 Y46.990 Z-0.000 F780.000
G1 X76.932 Y46.996 Z-0.000 F780.000
G1 X76.932 Y47.003 Z-0.000 F780.000
G1 X76.896 Y47.277 Z-0.000 F780.000
G1 X76.894 Y47.290 Z-0.000 F780.000
G1 X76.889 Y47.303 Z-0.000 F780.000
G1 X76.783 Y47.559 Z-0.000 F780.000
G1 X76.777 Y47.572 Z-0.000 F780.000
G1 X76.769 Y47.582 Z-0.000 F780.000
G1 X76.599 Y47.801 Z-0.000 F780.000
G1 X76.591 Y47.811 Z-0.000 F780.000
G1 X76.581 Y47.818 Z-0.000 F780.000
G1 X76.363 Y47.988 Z-0.000 F780.000
G1 X76.352 Y47.997 Z-0.000 F780.000
G1 X76.340 Y48.002 Z-0.000 F780.000
G1 X76.084 Y48.109 Z-0.000 F780.000
G1 X76.071 Y48.114 Z-0.000 F780.000
G1 X76.058 Y48.115 Z-0.000 F780.000
G1 X75.781 Y48.151 Z-0.000 F780.000
G4 P10.000
G0 X75.781 Y48.151 Z0.100 F300.000
G0 X58.334 Y13.217 Z0.100 F1200.000
G0 X58.334 Y13.217 Z-0.000 F300.000
G1 X58.334 Y13.217 Z-0.000 F780.000
G1 X58.234 Y13.217 Z-0.000 F780.000
G1 X58.234 Y13.117 Z-0.000 F780.000
G1 X58.234 Y10.810 Z-0.000 F780.000
G1 X58.234 Y10.710 Z-0.000 F780.000
G1 X58.334 Y10.710 Z-0.000 F780.000
G1 X60.643 Y10.710 Z-0.000 F780.000
G1 X60.743 Y10.710 Z-0.000 F780.000
G1 X60.743 Y10.810 Z-0.000 F780.000
G1 X60.743 Y13.117 Z-0.000 F780.000
G1 X60.743 Y13.217 Z-0.000 F780.000
G1 X60.643 Y13.217 Z-0.000 F780.000
G1 X58.334 Y13.217 Z-0.000 F780.000
G4 P10.000
G0 X58.334 Y13.217 Z0.100 F300.000
G0 X42.675 Y5.228 Z0.100 F1200.000
G0 X42.675 Y5.228 Z-0.000 F300.000
G1 X42.675 Y5.228 Z-0.000 F780.000
G1 X38.352 Y9.551 Z-0.000 F780.000
G1 X38.352 Y20.647 Z-0.000 F780.000
G1 X41.351 Y23.648 Z-0.000 F780.000
G1 X41.355 Y23.652 Z-0.000 F780.000
G1 X41.359 Y23.657 Z-0.000 F780.000
G1 X41.481 Y23.815 Z-0.000 F780.000
G1 X41.489 Y23.825 Z-0.000 F780.000
G1 X41.494 Y23.838 Z-0.000 F780.000
G1 X41.548 Y23.967 Z-0.000 F780.000
G1 X41.570 Y24.019 Z-0.000 F780.000
G1 X41.576 Y24.032 Z-0.000 F780.000
G1 X41.577 Y24.046 Z-0.000 F780.000
G1 X41.603 Y24.244 Z-0.000 F780.000
G1 X41.604 Y24.251 Z-0.000 F780.000
G1 X41.604 Y24.257 Z-0.000 F780.000
G1 X41.604 Y25.475 Z-0.000 F780.000
G1 X41.710 Y25.613 Z-0.000 F780.000
G1 X41.718 Y25.624 Z-0.000 F780.000
G1 X41.723 Y25.636 Z-0.000 F780.000
G1 X41.825 Y25.883 Z-0.000 F780.000
G1 X41.830 Y25.895 Z-0.000 F780.000
G1 X41.831 Y25.907 Z-0.000 F780.000
G1 X41.867 Y26.174 Z-0.000 F780.000
G1 X41.868 Y26.181 Z-0.000 F780.000
G1 X41.868 Y26.187 Z-0.000 F780.000
G1 X41.868 Y26.695 Z-0.000 F780.000
G1 X41.868 Y26.702 Z-0.000 F780.000
G1 X41.867 Y26.709 Z-0.000 F780.000
G1 X41.831 Y26.973 Z-0.000 F780.000
G1 X41.830 Y26.986 Z-0.000 F780.000
G1 X41.825 Y26.998 Z-0.000 F780.000
G1 X41.723 Y27.244 Z-0.000 F780.000
G1 X41.718 Y27.256 Z-0.000 F780.000
G1 X41.710 Y27.267 Z-0.000 F780.000
G1 X41.629 Y27.372 Z-0.000 F780.000
G1 X41.629 Y35.719 Z-0.000 F780.000
G1 X41.710 Y35.824 Z-0.000 F780.000
G1 X41.718 Y35.835 Z-0.000 F780.000
G1 X41.723 Y35.847 Z-0.000 F780.000
G1 X41.825 Y36.093 Z-0.000 F780.000
G1 X41.830 Y36.105 Z-0.000 F780.000
G1 X41.831 Y36.118 Z-0.000 F780.000
G1 X41.867 Y36.385 Z-0.000 F780.000
G1 X41.868 Y36.392 Z-0.000 F780.000
G1 X41.868 Y36.398 Z-0.000 F780.000
G1 X41.868 Y36.906 Z-0.000 F780.000
G1 X41.868 Y36.913 Z-0.000 F780.000
G1 X41.867 Y36.920 Z-0.000 F780.000
G1 X41.831 Y37.184 Z-0.000 F780.000
G1 X41.830 Y37.197 Z-0.000 F780.000
G1 X41.825 Y37.209 Z-0.000 F780.000
G1 X41.723 Y37.455 Z-0.000 F780.000
G1 X41.718 Y37.467 Z-0.000 F780.000
G1 X41.710 Y37.478 Z-0.000 F780.000
G1 X41.629 Y37.583 Z-0.000 F780.000
G1 X41.629 Y46.275 Z-0.000 F780.000
G1 X49.944 Y54.593 Z-0.000 F780.000
G1 X49.948 Y54.597 Z-0.000 F780.000
G1 X49.952 Y54.602 Z-0.000 F780.000
G1 X50.074 Y54.760 Z-0.000 F780.000
G1 X50.082 Y54.770 Z-0.000 F780.000
G1 X50.087 Y54.783 Z-0.000 F780.000
G1 X50.141 Y54.912 Z-0.000 F780.000
G1 X50.163 Y54.964 Z-0.000 F780.000
G1 X50.168 Y54.977 Z-0.000 F780.000
G1 X50.170 Y54.991 Z-0.000 F780.000
G1 X50.196 Y55.186 Z-0.000 F780.000
G1 X50.196 Y55.193 Z-0.000 F780.000
G1 X50.196 Y55.199 Z-0.000 F780.000
G1 X50.196 Y60.003 Z-0.000 F780.000
G1 X50.217 Y60.019 Z-0.000 F780.000
G1 X50.228 Y60.027 Z-0.000 F780.000
G1 X50.237 Y60.038 Z-0.000 F780.000
G1 X50.422 Y60.279 Z-0.000 F780.000
G1 X50.430 Y60.290 Z-0.000 F780.000
G1 X50.435 Y60.302 Z-0.000 F780.000
G1 X50.552 Y60.584 Z-0.000 F780.000
G1 X50.557 Y60.596 Z-0.000 F780.000
G1 X50.559 Y60.609 Z-0.000 F780.000
G1 X50.599 Y60.908 Z-0.000 F780.000
G1 X50.601 Y60.922 Z-0.000 F780.000
G1 X50.599 Y60.935 Z-0.000 F780.000
G1 X50.559 Y61.238 Z-0.000 F780.000
G1 X50.557 Y61.250 Z-0.000 F780.000
G1 X50.552 Y61.262 Z-0.000 F780.000
G1 X50.435 Y61.544 Z-0.000 F780.000
G1 X50.430 Y61.557 Z-0.000 F780.000
G1 X50.422 Y61.567 Z-0.000 F780.000
G1 X50.237 Y61.808 Z-0.000 F780.000
G1 X50.229 Y61.819 Z-0.000 F780.000
G1 X50.218 Y61.827 Z-0.000 F780.000
G1 X49.977 Y62.010 Z-0.000 F780.000
G1 X49.966 Y62.018 Z-0.000 F780.000
G1 X49.955 Y62.023 Z-0.000 F780.000
G1 X49.675 Y62.139 Z-0.000 F780.000
G1 X49.663 Y62.144 Z-0.000 F780.000
G1 X49.650 Y62.146 Z-0.000 F780.000
G1 X49.348 Y62.187 Z-0.000 F780.000
G1 X49.334 Y62.189 Z-0.000 F780.000
G1 X49.321 Y62.187 Z-0.000 F780.000
G1 X49.021 Y62.146 Z-0.000 F780.000
G1 X49.008 Y62.144 Z-0.000 F780.000
G1 X48.996 Y62.139 Z-0.000 F780.000
G1 X48.715 Y62.023 Z-0.000 F780.000
G1 X48.703 Y62.018 Z-0.000 F780.000
G1 X48.692 Y62.010 Z-0.000 F780.000
G1 X48.451 Y61.827 Z-0.000 F780.000
G1 X48.440 Y61.819 Z-0.000 F780.000
G1 X48.432 Y61.808 Z-0.000 F780.000
G1 X48.247 Y61.567 Z-0.000 F780.000
G1 X48.238 Y61.556 Z-0.000 F780.000
G1 X48.233 Y61.544 Z-0.000 F780.000
G1 X48.119 Y61.262 Z-0.000 F780.000
G1 X48.114 Y61.250 Z-0.000 F780.000
G1 X48.113 Y61.238 Z-0.000 F780.000
G1 X48.072 Y60.935 Z-0.000 F780.000
G1 X48.070 Y60.922 Z-0.000 F780.000
G1 X48.072 Y60.908 Z-0.000 F780.000
G1 X48.113 Y60.609 Z-0.000 F780.000
G1 X48.114 Y60.596 Z-0.000 F780.000
G1 X48.119 Y60.585 Z-0.000 F780.000
G1 X48.233 Y60.303 Z-0.000 F780.000
G1 X48.238 Y60.290 Z-0.000 F780.000
G1 X48.247 Y60.279 Z-0.000 F780.000
G1 X48.432 Y60.038 Z-0.000 F780.000
G1 X48.441 Y60.026 Z-0.000 F780.000
G1 X48.453 Y60.018 Z-0.000 F780.000
G1 X48.475 Y60.002 Z-0.000 F780.000
G1 X48.475 Y55.556 Z-0.000 F780.000
G1 X40.160 Y47.241 Z-0.000 F780.000
G1 X40.156 Y47.237 Z-0.000 F780.000
G1 X40.152 Y47.232 Z-0.000 F780.000
G1 X40.030 Y47.074 Z-0.000 F780.000
G1 X40.022 Y47.063 Z-0.000 F780.000
G1 X40.017 Y47.051 Z-0.000 F780.000
G1 X39.963 Y46.922 Z-0.000 F780.000
G1 X39.941 Y46.869 Z-0.000 F780.000
G1 X39.936 Y46.857 Z-0.000 F780.000
G1 X39.934 Y46.843 Z-0.000 F780.000
G1 X39.908 Y46.647 Z-0.000 F780.000
G1 X39.908 Y46.641 Z-0.000 F780.000
G1 X39.908 Y46.634 Z-0.000 F780.000
G1 X39.908 Y37.649 Z-0.000 F780.000
G1 X39.776 Y37.478 Z-0.000 F780.000
G1 X39.768 Y37.467 Z-0.000 F780.000
G1 X39.763 Y37.455 Z-0.000 F780.000
G1 X39.661 Y37.209 Z-0.000 F780.000
G1 X39.656 Y37.197 Z-0.000 F780.000
G1 X39.654 Y37.184 Z-0.000 F780.000
G1 X39.619 Y36.920 Z-0.000 F780.000
G1 X39.618 Y36.913 Z-0.000 F780.000
G1 X39.618 Y36.906 Z-0.000 F780.000
G1 X39.618 Y36.398 Z-0.000 F780.000
G1 X39.618 Y36.392 Z-0.000 F780.000
G1 X39.619 Y36.385 Z-0.000 F780.000
G1 X39.654 Y36.118 Z-0.000 F780.000
G1 X39.656 Y36.105 Z-0.000 F780.000
G1 X39.661 Y36.093 Z-0.000 F780.000
G1 X39.763 Y35.847 Z-0.000 F780.000
G1 X39.768 Y35.835 Z-0.000 F780.000
G1 X39.776 Y35.824 Z-0.000 F780.000
G1 X39.908 Y35.653 Z-0.000 F780.000
G1 X39.908 Y27.438 Z-0.000 F780.000
G1 X39.776 Y27.267 Z-0.000 F780.000
G1 X39.768 Y27.256 Z-0.000 F780.000
G1 X39.763 Y27.244 Z-0.000 F780.000
G1 X39.661 Y26.998 Z-0.000 F780.000
G1 X39.656 Y26.986 Z-0.000 F780.000
G1 X39.654 Y26.973 Z-0.000 F780.000
G1 X39.619 Y26.709 Z-0.000 F780.000
G1 X39.618 Y26.702 Z-0.000 F780.000
G1 X39.618 Y26.695 Z-0.000 F780.000
G1 X39.618 Y26.187 Z-0.000 F780.000
G1 X39.618 Y26.181 Z-0.000 F780.000
G1 X39.619 Y26.174 Z-0.000 F780.000
G1 X39.654 Y25.908 Z-0.000 F780.000
G1 X39.656 Y25.895 Z-0.000 F780.000
G1 X39.661 Y25.883 Z-0.000 F780.000
G1 X39.763 Y25.636 Z-0.000 F780.000
G1 X39.768 Y25.624 Z-0.000 F780.000
G1 X39.776 Y25.613 Z-0.000 F780.000
G1 X39.882 Y25.475 Z-0.000 F780.000
G1 X39.882 Y24.613 Z-0.000 F780.000
G1 X36.884 Y21.612 Z-0.000 F780.000
G1 X36.879 Y21.608 Z-0.000 F780.000
G1 X36.875 Y21.603 Z-0.000 F780.000
G1 X36.753 Y21.446 Z-0.000 F780.000
G1 X36.745 Y21.435 Z-0.000 F780.000
G1 X36.740 Y21.423 Z-0.000 F780.000
G1 X36.664 Y21.240 Z-0.000 F780.000
G1 X36.659 Y21.228 Z-0.000 F780.000
G1 X36.657 Y21.214 Z-0.000 F780.000
G1 X36.632 Y21.019 Z-0.000 F780.000
G1 X36.631 Y21.012 Z-0.000 F780.000
G1 X36.631 Y21.006 Z-0.000 F780.000
G1 X36.631 Y9.195 Z-0.000 F780.000
G1 X36.631 Y9.188 Z-0.000 F780.000
G1 X36.632 Y9.182 Z-0.000 F780.000
G1 X36.657 Y8.984 Z-0.000 F780.000
G1 X36.659 Y8.970 Z-0.000 F780.000
G1 X36.664 Y8.957 Z-0.000 F780.000
G1 X36.687 Y8.905 Z-0.000 F780.000
G1 X36.740 Y8.776 Z-0.000 F780.000
G1 X36.745 Y8.763 Z-0.000 F780.000
G1 X36.753 Y8.753 Z-0.000 F780.000
G1 X36.875 Y8.595 Z-0.000 F780.000
G1 X36.879 Y8.590 Z-0.000 F780.000
G1 X36.884 Y8.586 Z-0.000 F780.000
G1 X41.710 Y3.760 Z-0.000 F780.000
G1 X41.714 Y3.755 Z-0.000 F780.000
G1 X41.719 Y3.751 Z-0.000 F780.000
G1 X41.877 Y3.629 Z-0.000 F780.000
G1 X41.887 Y3.621 Z-0.000 F780.000
G1 X41.900 Y3.616 Z-0.000 F780.000
G1 X42.029 Y3.563 Z-0.000 F780.000
G1 X42.081 Y3.540 Z-0.000 F780.000
G1 X42.094 Y3.535 Z-0.000 F780.000
G1 X42.108 Y3.533 Z-0.000 F780.000
G1 X42.304 Y3.508 Z-0.000 F780.000
G1 X42.310 Y3.507 Z-0.000 F780.000
G1 X42.316 Y3.507 Z-0.000 F780.000
G1 X69.469 Y3.507 Z-0.000 F780.000
G1 X69.475 Y3.507 Z-0.000 F780.000
G1 X69.482 Y3.508 Z-0.000 F780.000
G1 X69.680 Y3.533 Z-0.000 F780.000
G1 X69.694 Y3.535 Z-0.000 F780.000
G1 X69.707 Y3.540 Z-0.000 F780.000
G1 X69.759 Y3.563 Z-0.000 F780.000
G1 X69.888 Y3.616 Z-0.000 F780.000
G1 X69.901 Y3.621 Z-0.000 F780.000
G1 X69.911 Y3.629 Z-0.000 F780.000
G1 X70.069 Y3.751 Z-0.000 F780.000
G1 X70.074 Y3.755 Z-0.000 F780.000
G1 X70.078 Y3.760 Z-0.000 F780.000
G1 X75.285 Y8.967 Z-0.000 F780.000
G1 X75.290 Y8.971 Z-0.000 F780.000
G1 X75.294 Y8.976 Z-0.000 F780.000
G1 X75.415 Y9.134 Z-0.000 F780.000
G1 X75.424 Y9.144 Z-0.000 F780.000
G1 X75.429 Y9.157 Z-0.000 F780.000
G1 X75.482 Y9.285 Z-0.000 F780.000
G1 X75.505 Y9.338 Z-0.000 F780.000
G1 X75.510 Y9.351 Z-0.000 F780.000
G1 X75.512 Y9.365 Z-0.000 F780.000
G1 X75.537 Y9.563 Z-0.000 F780.000
G1 X75.538 Y9.569 Z-0.000 F780.000
G1 X75.538 Y9.576 Z-0.000 F780.000
G1 X75.538 Y20.515 Z-0.000 F780.000
G1 X75.560 Y20.531 Z-0.000 F780.000
G1 X75.572 Y20.540 Z-0.000 F780.000
G1 X75.581 Y20.552 Z-0.000 F780.000
G1 X75.764 Y20.793 Z-0.000 F780.000
G1 X75.772 Y20.803 Z-0.000 F780.000
G1 X75.777 Y20.815 Z-0.000 F780.000
G1 X75.894 Y21.097 Z-0.000 F780.000
G1 X75.899 Y21.109 Z-0.000 F780.000
G1 X75.900 Y21.122 Z-0.000 F780.000
G1 X75.941 Y21.424 Z-0.000 F780.000
G1 X75.943 Y21.438 Z-0.000 F780.000
G1 X75.941 Y21.451 Z-0.000 F780.000
G1 X75.900 Y21.751 Z-0.000 F780.000
G1 X75.899 Y21.764 Z-0.000 F780.000
G1 X75.894 Y21.776 Z-0.000 F780.000
G1 X75.777 Y22.058 Z-0.000 F780.000
G1 X75.772 Y22.069 Z-0.000 F780.000
G1 X75.764 Y22.080 Z-0.000 F780.000
G1 X75.581 Y22.321 Z-0.000 F780.000
G1 X75.573 Y22.332 Z-0.000 F780.000
G1 X75.562 Y22.340 Z-0.000 F780.000
G1 X75.321 Y22.523 Z-0.000 F780.000
G1 X75.310 Y22.531 Z-0.000 F780.000
G1 X75.299 Y22.536 Z-0.000 F780.000
G1 X75.017 Y22.653 Z-0.000 F780.000
G1 X75.005 Y22.658 Z-0.000 F780.000
G1 X74.992 Y22.659 Z-0.000 F780.000
G1 X74.689 Y22.700 Z-0.000 F780.000
G1 X74.676 Y22.702 Z-0.000 F780.000
G1 X74.663 Y22.700 Z-0.000 F780.000
G1 X74.363 Y22.659 Z-0.000 F780.000
G1 X74.350 Y22.658 Z-0.000 F780.000
G1 X74.338 Y22.653 Z-0.000 F780.000
G1 X74.056 Y22.536 Z-0.000 F780.000
G1 X74.044 Y22.531 Z-0.000 F780.000
G1 X74.034 Y22.523 Z-0.000 F780.000
G1 X73.793 Y22.340 Z-0.000 F780.000
G1 X73.782 Y22.332 Z-0.000 F780.000
G1 X73.773 Y22.321 Z-0.000 F780.000
G1 X73.590 Y22.080 Z-0.000 F780.000
G1 X73.583 Y22.069 Z-0.000 F780.000
G1 X73.578 Y22.058 Z-0.000 F780.000
G1 X73.461 Y21.776 Z-0.000 F780.000
G1 X73.456 Y21.764 Z-0.000 F780.000
G1 X73.454 Y21.751 Z-0.000 F780.000
G1 X73.414 Y21.451 Z-0.000 F780.000
G1 X73.412 Y21.438 Z-0.000 F780.000
G1 X73.414 Y21.424 Z-0.000 F780.000
G1 X73.454 Y21.122 Z-0.000 F780.000
G1 X73.456 Y21.109 Z-0.000 F780.000
G1 X73.461 Y21.097 Z-0.000 F780.000
G1 X73.578 Y20.815 Z-0.000 F780.000
G1 X73.583 Y20.803 Z-0.000 F780.000
G1 X73.590 Y20.793 Z-0.000 F780.000
G1 X73.773 Y20.552 Z-0.000 F780.000
G1 X73.782 Y20.540 Z-0.000 F780.000
G1 X73.795 Y20.531 Z-0.000 F780.000
G1 X73.816 Y20.515 Z-0.000 F780.000
G1 X73.816 Y9.932 Z-0.000 F780.000
G1 X69.113 Y5.228 Z-0.000 F780.000
G1 X42.675 Y5.228 Z-0.000 F780.000
G4 P10.000
G0 X42.675 Y5.228 Z0.100 F300.000
G0 X53.796 Y16.913 Z0.100 F1200.000
G0 X53.796 Y16.913 Z-0.000 F300.000
G1 X53.796 Y16.913 Z-0.000 F780.000
G1 X56.591 Y19.711 Z-0.000 F780.000
G1 X56.595 Y19.715 Z-0.000 F780.000
G1 X56.599 Y19.720 Z-0.000 F780.000
G1 X56.721 Y19.878 Z-0.000 F780.000
G1 X56.729 Y19.888 Z-0.000 F780.000
G1 X56.734 Y19.901 Z-0.000 F780.000
G1 X56.788 Y20.030 Z-0.000 F780.000
G1 X56.810 Y20.082 Z-0.000 F780.000
G1 X56.816 Y20.095 Z-0.000 F780.000
G1 X56.817 Y20.109 Z-0.000 F780.000
G1 X56.843 Y20.307 Z-0.000 F780.000
G1 X56.844 Y20.314 Z-0.000 F780.000
G1 X56.844 Y20.320 Z-0.000 F780.000
G1 X56.844 Y25.475 Z-0.000 F780.000
G1 X56.950 Y25.613 Z-0.000 F780.000
G1 X56.958 Y25.624 Z-0.000 F780.000
G1 X56.963 Y25.636 Z-0.000 F780.000
G1 X57.065 Y25.883 Z-0.000 F780.000
G1 X57.070 Y25.895 Z-0.000 F780.000
G1 X57.071 Y25.907 Z-0.000 F780.000
G1 X57.107 Y26.174 Z-0.000 F780.000
G1 X57.108 Y26.181 Z-0.000 F780.000
G1 X57.108 Y26.187 Z-0.000 F780.000
G1 X57.108 Y26.695 Z-0.000 F780.000
G1 X57.108 Y26.702 Z-0.000 F780.000
G1 X57.107 Y26.709 Z-0.000 F780.000
G1 X57.071 Y26.973 Z-0.000 F780.000
G1 X57.070 Y26.986 Z-0.000 F780.000
G1 X57.065 Y26.998 Z-0.000 F780.000
G1 X56.963 Y27.244 Z-0.000 F780.000
G1 X56.958 Y27.256 Z-0.000 F780.000
G1 X56.950 Y27.267 Z-0.000 F780.000
G1 X56.788 Y27.480 Z-0.000 F780.000
G1 X56.779 Y27.491 Z-0.000 F780.000
G1 X56.769 Y27.499 Z-0.000 F780.000
G1 X56.555 Y27.661 Z-0.000 F780.000
G1 X56.545 Y27.669 Z-0.000 F780.000
G1 X56.533 Y27.674 Z-0.000 F780.000
G1 X56.286 Y27.776 Z-0.000 F780.000
G1 X56.274 Y27.781 Z-0.000 F780.000
G1 X56.261 Y27.783 Z-0.000 F780.000
G1 X55.995 Y27.818 Z-0.000 F780.000
G1 X55.982 Y27.820 Z-0.000 F780.000
G1 X55.968 Y27.818 Z-0.000 F780.000
G1 X55.704 Y27.783 Z-0.000 F780.000
G1 X55.691 Y27.781 Z-0.000 F780.000
G1 X55.679 Y27.776 Z-0.000 F780.000
G1 X55.433 Y27.674 Z-0.000 F780.000
G1 X55.421 Y27.669 Z-0.000 F780.000
G1 X55.410 Y27.661 Z-0.000 F780.000
G1 X55.197 Y27.499 Z-0.000 F780.000
G1 X55.186 Y27.491 Z-0.000 F780.000
G1 X55.178 Y27.480 Z-0.000 F780.000
G1 X55.016 Y27.267 Z-0.000 F780.000
G1 X55.008 Y27.256 Z-0.000 F780.000
G1 X55.003 Y27.244 Z-0.000 F780.000
G1 X54.901 Y26.998 Z-0.000 F780.000
G1 X54.896 Y26.986 Z-0.000 F780.000
G1 X54.894 Y26.973 Z-0.000 F780.000
G1 X54.859 Y26.709 Z-0.000 F780.000
G1 X54.858 Y26.702 Z-0.000 F780.000
G1 X54.858 Y26.695 Z-0.000 F780.000
G1 X54.858 Y26.187 Z-0.000 F780.000
G1 X54.858 Y26.181 Z-0.000 F780.000
G1 X54.859 Y26.174 Z-0.000 F780.000
G1 X54.894 Y25.908 Z-0.000 F780.000
G1 X54.896 Y25.895 Z-0.000 F780.000
G1 X54.901 Y25.883 Z-0.000 F780.000
G1 X55.003 Y25.636 Z-0.000 F780.000
G1 X55.008 Y25.624 Z-0.000 F780.000
G1 X55.016 Y25.613 Z-0.000 F780.000
G1 X55.122 Y25.475 Z-0.000 F780.000
G1 X55.122 Y20.676 Z-0.000 F780.000
G1 X52.327 Y17.879 Z-0.000 F780.000
G1 X52.323 Y17.874 Z-0.000 F780.000
G1 X52.319 Y17.869 Z-0.000 F780.000
G1 X52.197 Y17.712 Z-0.000 F780.000
G1 X52.188 Y17.701 Z-0.000 F780.000
G1 X52.183 Y17.688 Z-0.000 F780.000
G1 X52.153 Y17.612 Z-0.000 F780.000
G1 X52.108 Y17.507 Z-0.000 F780.000
G1 X52.102 Y17.494 Z-0.000 F780.000
G1 X52.100 Y17.480 Z-0.000 F780.000
G1 X52.075 Y17.285 Z-0.000 F780.000
G1 X52.074 Y17.278 Z-0.000 F780.000
G1 X52.074 Y17.272 Z-0.000 F780.000
G1 X52.074 Y12.859 Z-0.000 F780.000
G1 X52.050 Y12.841 Z-0.000 F780.000
G1 X52.039 Y12.832 Z-0.000 F780.000
G1 X52.031 Y12.821 Z-0.000 F780.000
G1 X51.848 Y12.580 Z-0.000 F780.000
G1 X51.840 Y12.570 Z-0.000 F780.000
G1 X51.836 Y12.558 Z-0.000 F780.000
G1 X51.719 Y12.279 Z-0.000 F780.000
G1 X51.714 Y12.267 Z-0.000 F780.000
G1 X51.712 Y12.254 Z-0.000 F780.000
G1 X51.671 Y11.951 Z-0.000 F780.000
G1 X51.669 Y11.938 Z-0.000 F780.000
G1 X51.671 Y11.925 Z-0.000 F780.000
G1 X51.712 Y11.622 Z-0.000 F780.000
G1 X51.714 Y11.609 Z-0.000 F780.000
G1 X51.719 Y11.597 Z-0.000 F780.000
G1 X51.836 Y11.318 Z-0.000 F780.000
G1 X51.840 Y11.306 Z-0.000 F780.000
G1 X51.848 Y11.296 Z-0.000 F780.000
G1 X52.031 Y11.055 Z-0.000 F780.000
G1 X52.039 Y11.044 Z-0.000 F780.000
G1 X52.050 Y11.036 Z-0.000 F780.000
G1 X52.291 Y10.850 Z-0.000 F780.000
G1 X52.301 Y10.842 Z-0.000 F780.000
G1 X52.314 Y10.837 Z-0.000 F780.000
G1 X52.596 Y10.720 Z-0.000 F780.000
G1 X52.608 Y10.715 Z-0.000 F780.000
G1 X52.621 Y10.714 Z-0.000 F780.000
G1 X52.921 Y10.675 Z-0.000 F780.000
G1 X52.934 Y10.674 Z-0.000 F780.000
G1 X52.946 Y10.675 Z-0.000 F780.000
G1 X53.248 Y10.714 Z-0.000 F780.000
G1 X53.262 Y10.715 Z-0.000 F780.000
G1 X53.274 Y10.720 Z-0.000 F780.000
G1 X53.556 Y10.837 Z-0.000 F780.000
G1 X53.568 Y10.842 Z-0.000 F780.000
G1 X53.579 Y10.850 Z-0.000 F780.000
G1 X53.820 Y11.036 Z-0.000 F780.000
G1 X53.831 Y11.044 Z-0.000 F780.000
G1 X53.839 Y11.055 Z-0.000 F780.000
G1 X54.022 Y11.296 Z-0.000 F780.000
G1 X54.029 Y11.306 Z-0.000 F780.000
G1 X54.034 Y11.318 Z-0.000 F780.000
G1 X54.151 Y11.597 Z-0.000 F780.000
G1 X54.156 Y11.609 Z-0.000 F780.000
G1 X54.158 Y11.622 Z-0.000 F780.000
G1 X54.199 Y11.925 Z-0.000 F780.000
G1 X54.200 Y11.938 Z-0.000 F780.000
G1 X54.199 Y11.951 Z-0.000 F780.000
G1 X54.158 Y12.254 Z-0.000 F780.000
G1 X54.156 Y12.267 Z-0.000 F780.000
G1 X54.151 Y12.279 Z-0.000 F780.000
G1 X54.034 Y12.558 Z-0.000 F780.000
G1 X54.029 Y12.570 Z-0.000 F780.000
G1 X54.022 Y12.580 Z-0.000 F780.000
G1 X53.839 Y12.821 Z-0.000 F780.000
G1 X53.831 Y12.832 Z-0.000 F780.000
G1 X53.820 Y12.841 Z-0.000 F780.000
G1 X53.796 Y12.859 Z-0.000 F780.000
G1 X53.796 Y16.913 Z-0.000 F780.000
G4 P10.000
G0 X53.796 Y16.913 Z0.100 F300.000
G0 X53.750 Y63.222 Z0.100 F1200.000
G0 X53.750 Y63.222 Z-0.000 F300.000
G1 X53.750 Y63.222 Z-0.000 F780.000
G1 X60.527 Y63.222 Z-0.000 F780.000
G1 X72.369 Y51.381 Z-0.000 F780.000
G1 X72.369 Y47.763 Z-0.000 F780.000
G1 X72.229 Y47.582 Z-0.000 F780.000
G1 X72.221 Y47.571 Z-0.000 F780.000
G1 X72.216 Y47.559 Z-0.000 F780.000
G1 X72.110 Y47.303 Z-0.000 F780.000
G1 X72.105 Y47.290 Z-0.000 F780.000
G1 X72.103 Y47.277 Z-0.000 F780.000
G1 X72.067 Y47.003 Z-0.000 F780.000
G1 X72.066 Y46.996 Z-0.000 F780.000
G1 X72.066 Y46.990 Z-0.000 F780.000
G1 X72.066 Y45.466 Z-0.000 F780.000
G1 X72.066 Y45.460 Z-0.000 F780.000
G1 X72.067 Y45.453 Z-0.000 F780.000
G1 X72.103 Y45.176 Z-0.000 F780.000
G1 X72.105 Y45.163 Z-0.000 F780.000
G1 X72.110 Y45.151 Z-0.000 F780.000
G1 X72.140 Y45.078 Z-0.000 F780.000
G1 X72.140 Y44.239 Z-0.000 F780.000
G1 X72.140 Y44.233 Z-0.000 F780.000
G1 X72.141 Y44.226 Z-0.000 F780.000
G1 X72.166 Y44.031 Z-0.000 F780.000
G1 X72.168 Y44.017 Z-0.000 F780.000
G1 X72.173 Y44.005 Z-0.000 F780.000
G1 X72.249 Y43.822 Z-0.000 F780.000
G1 X72.255 Y43.810 Z-0.000 F780.000
G1 X72.263 Y43.799 Z-0.000 F780.000
G1 X72.385 Y43.642 Z-0.000 F780.000
G1 X72.389 Y43.637 Z-0.000 F780.000
G1 X72.393 Y43.632 Z-0.000 F780.000
G1 X73.626 Y42.399 Z-0.000 F780.000
G1 X73.626 Y41.407 Z-0.000 F780.000
G1 X73.626 Y41.307 Z-0.000 F780.000
G1 X73.726 Y41.307 Z-0.000 F780.000
G1 X75.832 Y41.307 Z-0.000 F780.000
G1 X75.932 Y41.307 Z-0.000 F780.000
G1 X75.932 Y41.407 Z-0.000 F780.000
G1 X75.932 Y41.797 Z-0.000 F780.000
G1 X82.935 Y41.797 Z-0.000 F780.000
G1 X82.935 Y41.554 Z-0.000 F780.000
G1 X82.935 Y41.454 Z-0.000 F780.000
G1 X83.035 Y41.454 Z-0.000 F780.000
G1 X85.242 Y41.454 Z-0.000 F780.000
G1 X85.342 Y41.454 Z-0.000 F780.000
G1 X85.342 Y41.554 Z-0.000 F780.000
G1 X85.342 Y43.762 Z-0.000 F780.000
G1 X85.342 Y43.862 Z-0.000 F780.000
G1 X85.242 Y43.862 Z-0.000 F780.000
G1 X83.035 Y43.862 Z-0.000 F780.000
G1 X82.935 Y43.862 Z-0.000 F780.000
G1 X82.935 Y43.762 Z-0.000 F780.000
G1 X82.935 Y43.519 Z-0.000 F780.000
G1 X75.932 Y43.519 Z-0.000 F780.000
G1 X75.932 Y43.615 Z-0.000 F780.000
G1 X75.832 Y43.615 Z-0.000 F780.000
G1 X74.842 Y43.615 Z-0.000 F780.000
G1 X73.938 Y44.519 Z-0.000 F780.000
G1 X73.940 Y44.556 Z-0.000 F780.000
G1 X74.041 Y44.635 Z-0.000 F780.000
G1 X74.051 Y44.643 Z-0.000 F780.000
G1 X74.059 Y44.653 Z-0.000 F780.000
G1 X74.229 Y44.871 Z-0.000 F780.000
G1 X74.237 Y44.882 Z-0.000 F780.000
G1 X74.243 Y44.894 Z-0.000 F780.000
G1 X74.349 Y45.151 Z-0.000 F780.000
G1 X74.354 Y45.163 Z-0.000 F780.000
G1 X74.356 Y45.176 Z-0.000 F780.000
G1 X74.392 Y45.453 Z-0.000 F780.000
G1 X74.393 Y45.460 Z-0.000 F780.000
G1 X74.393 Y45.466 Z-0.000 F780.000
G1 X74.393 Y46.990 Z-0.000 F780.000
G1 X74.393 Y46.996 Z-0.000 F780.000
G1 X74.392 Y47.003 Z-0.000 F780.000
G1 X74.356 Y47.277 Z-0.000 F780.000
G1 X74.354 Y47.290 Z-0.000 F780.000
G1 X74.349 Y47.303 Z-0.000 F780.000
G1 X74.243 Y47.559 Z-0.000 F780.000
G1 X74.237 Y47.571 Z-0.000 F780.000
G1 X74.229 Y47.582 Z-0.000 F780.000
G1 X74.090 Y47.763 Z-0.000 F780.000
G1 X74.090 Y51.740 Z-0.000 F780.000
G1 X74.090 Y51.746 Z-0.000 F780.000
G1 X74.089 Y51.753 Z-0.000 F780.000
G1 X74.064 Y51.948 Z-0.000 F780.000
G1 X74.062 Y51.962 Z-0.000 F780.000
G1 X74.057 Y51.975 Z-0.000 F780.000
G1 X74.034 Y52.028 Z-0.000 F780.000
G1 X73.981 Y52.156 Z-0.000 F780.000
G1 X73.976 Y52.169 Z-0.000 F780.000
G1 X73.968 Y52.180 Z-0.000 F780.000
G1 X73.846 Y52.337 Z-0.000 F780.000
G1 X73.842 Y52.342 Z-0.000 F780.000
G1 X73.837 Y52.346 Z-0.000 F780.000
G1 X61.493 Y64.691 Z-0.000 F780.000
G1 X61.489 Y64.695 Z-0.000 F780.000
G1 X61.484 Y64.699 Z-0.000 F780.000
G1 X61.326 Y64.821 Z-0.000 F780.000
G1 X61.315 Y64.829 Z-0.000 F780.000
G1 X61.303 Y64.835 Z-0.000 F780.000
G1 X61.174 Y64.888 Z-0.000 F780.000
G1 X61.121 Y64.910 Z-0.000 F780.000
G1 X61.108 Y64.916 Z-0.000 F780.000
G1 X61.095 Y64.917 Z-0.000 F780.000
G1 X60.897 Y64.943 Z-0.000 F780.000
G1 X60.890 Y64.944 Z-0.000 F780.000
G1 X60.884 Y64.944 Z-0.000 F780.000
G1 X53.391 Y64.944 Z-0.000 F780.000
G1 X53.384 Y64.944 Z-0.000 F780.000
G1 X53.378 Y64.943 Z-0.000 F780.000
G1 X53.182 Y64.917 Z-0.000 F780.000
G1 X53.169 Y64.916 Z-0.000 F780.000
G1 X53.156 Y64.910 Z-0.000 F780.000
G1 X53.103 Y64.888 Z-0.000 F780.000
G1 X52.974 Y64.835 Z-0.000 F780.000
G1 X52.962 Y64.829 Z-0.000 F780.000
G1 X52.951 Y64.821 Z-0.000 F780.000
G1 X52.794 Y64.699 Z-0.000 F780.000
G1 X52.789 Y64.695 Z-0.000 F780.000
G1 X52.784 Y64.691 Z-0.000 F780.000
G1 X51.268 Y63.175 Z-0.000 F780.000
G1 X51.263 Y63.170 Z-0.000 F780.000
G1 X51.259 Y63.165 Z-0.000 F780.000
G1 X51.138 Y63.008 Z-0.000 F780.000
G1 X51.129 Y62.997 Z-0.000 F780.000
G1 X51.124 Y62.984 Z-0.000 F780.000
G1 X51.071 Y62.856 Z-0.000 F780.000
G1 X51.048 Y62.803 Z-0.000 F780.000
G1 X51.043 Y62.790 Z-0.000 F780.000
G1 X51.041 Y62.776 Z-0.000 F780.000
G1 X51.016 Y62.578 Z-0.000 F780.000
G1 X51.015 Y62.572 Z-0.000 F780.000
G1 X51.015 Y62.565 Z-0.000 F780.000
G1 X51.015 Y61.844 Z-0.000 F780.000
G1 X50.993 Y61.829 Z-0.000 F780.000
G1 X50.981 Y61.820 Z-0.000 F780.000
G1 X50.972 Y61.808 Z-0.000 F780.000
G1 X50.787 Y61.567 Z-0.000 F780.000
G1 X50.778 Y61.556 Z-0.000 F780.000
G1 X50.773 Y61.544 Z-0.000 F780.000
G1 X50.659 Y61.262 Z-0.000 F780.000
G1 X50.654 Y61.250 Z-0.000 F780.000
G1 X50.653 Y61.238 Z-0.000 F780.000
G1 X50.612 Y60.935 Z-0.000 F780.000
G1 X50.610 Y60.922 Z-0.000 F780.000
G1 X50.612 Y60.908 Z-0.000 F780.000
G1 X50.653 Y60.609 Z-0.000 F780.000
G1 X50.654 Y60.596 Z-0.000 F780.000
G1 X50.659 Y60.585 Z-0.000 F780.000
G1 X50.773 Y60.303 Z-0.000 F780.000
G1 X50.778 Y60.290 Z-0.000 F780.000
G1 X50.787 Y60.279 Z-0.000 F780.000
G1 X50.972 Y60.038 Z-0.000 F780.000
G1 X50.980 Y60.027 Z-0.000 F780.000
G1 X50.991 Y60.019 Z-0.000 F780.000
G1 X51.232 Y59.836 Z-0.000 F780.000
G1 X51.243 Y59.829 Z-0.000 F780.000
G1 X51.254 Y59.824 Z-0.000 F780.000
G1 X51.536 Y59.707 Z-0.000 F780.000
G1 X51.548 Y59.702 Z-0.000 F780.000
G1 X51.561 Y59.700 Z-0.000 F780.000
G1 X51.861 Y59.660 Z-0.000 F780.000
G1 X51.874 Y59.658 Z-0.000 F780.000
G1 X51.888 Y59.659 Z-0.000 F780.000
G1 X52.190 Y59.700 Z-0.000 F780.000
G1 X52.203 Y59.702 Z-0.000 F780.000
G1 X52.215 Y59.707 Z-0.000 F780.000
G1 X52.495 Y59.824 Z-0.000 F780.000
G1 X52.506 Y59.829 Z-0.000 F780.000
G1 X52.516 Y59.836 Z-0.000 F780.000
G1 X52.758 Y60.019 Z-0.000 F780.000
G1 X52.769 Y60.027 Z-0.000 F780.000
G1 X52.777 Y60.038 Z-0.000 F780.000
G1 X52.962 Y60.279 Z-0.000 F780.000
G1 X52.970 Y60.290 Z-0.000 F780.000
G1 X52.975 Y60.302 Z-0.000 F780.000
G1 X53.092 Y60.584 Z-0.000 F780.000
G1 X53.097 Y60.596 Z-0.000 F780.000
G1 X53.099 Y60.609 Z-0.000 F780.000
G1 X53.139 Y60.908 Z-0.000 F780.000
G1 X53.141 Y60.922 Z-0.000 F780.000
G1 X53.139 Y60.935 Z-0.000 F780.000
G1 X53.099 Y61.238 Z-0.000 F780.000
G1 X53.097 Y61.250 Z-0.000 F780.000
G1 X53.092 Y61.262 Z-0.000 F780.000
G1 X52.975 Y61.544 Z-0.000 F780.000
G1 X52.970 Y61.557 Z-0.000 F780.000
G1 X52.962 Y61.567 Z-0.000 F780.000
G1 X52.777 Y61.808 Z-0.000 F780.000
G1 X52.768 Y61.819 Z-0.000 F780.000
G1 X52.757 Y61.827 Z-0.000 F780.000
G1 X52.736 Y61.843 Z-0.000 F780.000
G1 X52.736 Y62.209 Z-0.000 F780.000
G1 X53.750 Y63.222 Z-0.000 F780.000
G4 P10.000
G0 X53.750 Y63.222 Z0.100 F300.000
G0 X55.276 Y56.061 Z0.100 F1200.000
G0 X55.276 Y56.061 Z-0.000 F300.000
G1 X55.276 Y56.061 Z-0.000 F780.000
G1 X55.276 Y59.669 Z-0.000 F780.000
G1 X55.570 Y59.669 Z-0.000 F780.000
G1 X55.670 Y59.669 Z-0.000 F780.000
G1 X55.670 Y59.769 Z-0.000 F780.000
G1 X55.670 Y62.078 Z-0.000 F780.000
G1 X55.670 Y62.178 Z-0.000 F780.000
G1 X55.570 Y62.178 Z-0.000 F780.000
G1 X53.261 Y62.178 Z-0.000 F780.000
G1 X53.161 Y62.178 Z-0.000 F780.000
G1 X53.161 Y62.078 Z-0.000 F780.000
G1 X53.161 Y59.769 Z-0.000 F780.000
G1 X53.161 Y59.669 Z-0.000 F780.000
G1 X53.261 Y59.669 Z-0.000 F780.000
G1 X53.555 Y59.669 Z-0.000 F780.000
G1 X53.555 Y55.556 Z-0.000 F780.000
G1 X45.215 Y47.216 Z-0.000 F780.000
G1 X45.211 Y47.211 Z-0.000 F780.000
G1 X45.207 Y47.206 Z-0.000 F780.000
G1 X45.085 Y47.049 Z-0.000 F780.000
G1 X45.076 Y47.038 Z-0.000 F780.000
G1 X45.071 Y47.025 Z-0.000 F780.000
G1 X45.041 Y46.950 Z-0.000 F780.000
G1 X44.996 Y46.844 Z-0.000 F780.000
G1 X44.990 Y46.831 Z-0.000 F780.000
G1 X44.988 Y46.817 Z-0.000 F780.000
G1 X44.963 Y46.622 Z-0.000 F780.000
G1 X44.962 Y46.615 Z-0.000 F780.000
G1 X44.962 Y46.609 Z-0.000 F780.000
G1 X44.962 Y37.616 Z-0.000 F780.000
G1 X44.856 Y37.478 Z-0.000 F780.000
G1 X44.848 Y37.467 Z-0.000 F780.000
G1 X44.843 Y37.455 Z-0.000 F780.000
G1 X44.741 Y37.209 Z-0.000 F780.000
G1 X44.736 Y37.197 Z-0.000 F780.000
G1 X44.734 Y37.184 Z-0.000 F780.000
G1 X44.699 Y36.920 Z-0.000 F780.000
G1 X44.698 Y36.913 Z-0.000 F780.000
G1 X44.698 Y36.906 Z-0.000 F780.000
G1 X44.698 Y36.398 Z-0.000 F780.000
G1 X44.698 Y36.392 Z-0.000 F780.000
G1 X44.699 Y36.385 Z-0.000 F780.000
G1 X44.734 Y36.118 Z-0.000 F780.000
G1 X44.736 Y36.105 Z-0.000 F780.000
G1 X44.741 Y36.093 Z-0.000 F780.000
G1 X44.843 Y35.847 Z-0.000 F780.000
G1 X44.848 Y35.835 Z-0.000 F780.000
G1 X44.856 Y35.824 Z-0.000 F780.000
G1 X44.988 Y35.653 Z-0.000 F780.000
G1 X44.988 Y27.438 Z-0.000 F780.000
G1 X44.856 Y27.267 Z-0.000 F780.000
G1 X44.848 Y27.256 Z-0.000 F780.000
G1 X44.843 Y27.244 Z-0.000 F780.000
G1 X44.741 Y26.998 Z-0.000 F780.000
G1 X44.736 Y26.986 Z-0.000 F780.000
G1 X44.734 Y26.973 Z-0.000 F780.000
G1 X44.699 Y26.709 Z-0.000 F780.000
G1 X44.698 Y26.702 Z-0.000 F780.000
G1 X44.698 Y26.695 Z-0.000 F780.000
G1 X44.698 Y26.187 Z-0.000 F780.000
G1 X44.698 Y26.181 Z-0.000 F780.000
G1 X44.699 Y26.174 Z-0.000 F780.000
G1 X44.734 Y25.908 Z-0.000 F780.000
G1 X44.736 Y25.895 Z-0.000 F780.000
G1 X44.741 Y25.883 Z-0.000 F780.000
G1 X44.843 Y25.636 Z-0.000 F780.000
G1 X44.848 Y25.624 Z-0.000 F780.000
G1 X44.856 Y25.614 Z-0.000 F780.000
G1 X45.018 Y25.400 Z-0.000 F780.000
G1 X45.026 Y25.390 Z-0.000 F780.000
G1 X45.037 Y25.381 Z-0.000 F780.000
G1 X45.250 Y25.219 Z-0.000 F780.000
G1 X45.261 Y25.211 Z-0.000 F780.000
G1 X45.273 Y25.206 Z-0.000 F780.000
G1 X45.519 Y25.104 Z-0.000 F780.000
G1 X45.531 Y25.099 Z-0.000 F780.000
G1 X45.544 Y25.098 Z-0.000 F780.000
G1 X45.808 Y25.062 Z-0.000 F780.000
G1 X45.822 Y25.060 Z-0.000 F780.000
G1 X45.835 Y25.062 Z-0.000 F780.000
G1 X46.102 Y25.098 Z-0.000 F780.000
G1 X46.114 Y25.099 Z-0.000 F780.000
G1 X46.126 Y25.104 Z-0.000 F780.000
G1 X46.373 Y25.206 Z-0.000 F780.000
G1 X46.385 Y25.211 Z-0.000 F780.000
G1 X46.395 Y25.219 Z-0.000 F780.000
G1 X46.609 Y25.381 Z-0.000 F780.000
G1 X46.619 Y25.390 Z-0.000 F780.000
G1 X46.628 Y25.400 Z-0.000 F780.000
G1 X46.790 Y25.614 Z-0.000 F780.000
G1 X46.798 Y25.624 Z-0.000 F780.000
G1 X46.803 Y25.636 Z-0.000 F780.000
G1 X46.905 Y25.883 Z-0.000 F780.000
G1 X46.910 Y25.895 Z-0.000 F780.000
G1 X46.911 Y25.907 Z-0.000 F780.000
G1 X46.947 Y26.174 Z-0.000 F780.000
G1 X46.948 Y26.181 Z-0.000 F780.000
G1 X46.948 Y26.187 Z-0.000 F780.000
G1 X46.948 Y26.695 Z-0.000 F780.000
G1 X46.948 Y26.702 Z-0.000 F780.000
G1 X46.947 Y26.709 Z-0.000 F780.000
G1 X46.911 Y26.973 Z-0.000 F780.000
G1 X46.910 Y26.986 Z-0.000 F780.000
G1 X46.905 Y26.998 Z-0.000 F780.000
G1 X46.803 Y27.244 Z-0.000 F780.000
G1 X46.798 Y27.256 Z-0.000 F780.000
G1 X46.790 Y27.267 Z-0.000 F780.000
G1 X46.709 Y27.372 Z-0.000 F780.000
G1 X46.709 Y35.719 Z-0.000 F780.000
G1 X46.790 Y35.824 Z-0.000 F780.000
G1 X46.798 Y35.835 Z-0.000 F780.000
G1 X46.803 Y35.847 Z-0.000 F780.000
G1 X46.905 Y36.093 Z-0.000 F780.000
G1 X46.910 Y36.105 Z-0.000 F780.000
G1 X46.911 Y36.118 Z-0.000 F780.000
G1 X46.947 Y36.385 Z-0.000 F780.000
G1 X46.948 Y36.392 Z-0.000 F780.000
G1 X46.948 Y36.398 Z-0.000 F780.000
G1 X46.948 Y36.906 Z-0.000 F780.000
G1 X46.948 Y36.913 Z-0.000 F780.000
G1 X46.947 Y36.920 Z-0.000 F780.000
G1 X46.911 Y37.184 Z-0.000 F780.000
G1 X46.910 Y37.197 Z-0.000 F780.000
G1 X46.905 Y37.209 Z-0.000 F780.000
G1 X46.803 Y37.455 Z-0.000 F780.000
G1 X46.798 Y37.467 Z-0.000 F780.000
G1 X46.790 Y37.478 Z-0.000 F780.000
G1 X46.684 Y37.616 Z-0.000 F780.000
G1 X46.684 Y46.250 Z-0.000 F780.000
G1 X54.771 Y54.340 Z-0.000 F780.000
G1 X65.983 Y54.340 Z-0.000 F780.000
G1 X69.829 Y50.492 Z-0.000 F780.000
G1 X69.829 Y47.763 Z-0.000 F780.000
G1 X69.689 Y47.582 Z-0.000 F780.000
G1 X69.681 Y47.571 Z-0.000 F780.000
G1 X69.676 Y47.559 Z-0.000 F780.000
G1 X69.570 Y47.303 Z-0.000 F780.000
G1 X69.565 Y47.290 Z-0.000 F780.000
G1 X69.563 Y47.277 Z-0.000 F780.000
G1 X69.527 Y47.003 Z-0.000 F780.000
G1 X69.527 Y46.996 Z-0.000 F780.000
G1 X69.527 Y46.990 Z-0.000 F780.000
G1 X69.527 Y45.466 Z-0.000 F780.000
G1 X69.527 Y45.460 Z-0.000 F780.000
G1 X69.527 Y45.453 Z-0.000 F780.000
G1 X69.563 Y45.176 Z-0.000 F780.000
G1 X69.565 Y45.163 Z-0.000 F780.000
G1 X69.570 Y45.151 Z-0.000 F780.000
G1 X69.676 Y44.894 Z-0.000 F780.000
G1 X69.681 Y44.882 Z-0.000 F780.000
G1 X69.689 Y44.872 Z-0.000 F780.000
G1 X69.829 Y44.690 Z-0.000 F780.000
G1 X69.829 Y43.612 Z-0.000 F780.000
G1 X69.829 Y43.605 Z-0.000 F780.000
G1 X69.830 Y43.599 Z-0.000 F780.000
G1 X69.855 Y43.401 Z-0.000 F780.000
G1 X69.857 Y43.388 Z-0.000 F780.000
G1 X69.862 Y43.375 Z-0.000 F780.000
G1 X69.938 Y43.192 Z-0.000 F780.000
G1 X69.943 Y43.180 Z-0.000 F780.000
G1 X69.951 Y43.170 Z-0.000 F780.000
G1 X70.073 Y43.012 Z-0.000 F780.000
G1 X70.077 Y43.007 Z-0.000 F780.000
G1 X70.081 Y43.003 Z-0.000 F780.000
G1 X70.464 Y42.618 Z-0.000 F780.000
G1 X70.464 Y39.419 Z-0.000 F780.000
G1 X70.357 Y39.281 Z-0.000 F780.000
G1 X70.349 Y39.271 Z-0.000 F780.000
G1 X70.344 Y39.258 Z-0.000 F780.000
G1 X70.243 Y39.012 Z-0.000 F780.000
G1 X70.238 Y39.000 Z-0.000 F780.000
G1 X70.236 Y38.987 Z-0.000 F780.000
G1 X70.200 Y38.723 Z-0.000 F780.000
G1 X70.199 Y38.710 Z-0.000 F780.000
G1 X70.200 Y38.696 Z-0.000 F780.000
G1 X70.236 Y38.430 Z-0.000 F780.000
G1 X70.238 Y38.417 Z-0.000 F780.000
G1 X70.243 Y38.405 Z-0.000 F780.000
G1 X70.344 Y38.158 Z-0.000 F780.000
G1 X70.349 Y38.146 Z-0.000 F780.000
G1 X70.357 Y38.136 Z-0.000 F780.000
G1 X70.464 Y37.997 Z-0.000 F780.000
G1 X70.464 Y35.612 Z-0.000 F780.000
G1 X66.449 Y31.595 Z-0.000 F780.000
G1 X66.445 Y31.590 Z-0.000 F780.000
G1 X66.441 Y31.585 Z-0.000 F780.000
G1 X66.319 Y31.428 Z-0.000 F780.000
G1 X66.311 Y31.417 Z-0.000 F780.000
G1 X66.306 Y31.405 Z-0.000 F780.000
G1 X66.252 Y31.275 Z-0.000 F780.000
G1 X66.230 Y31.223 Z-0.000 F780.000
G1 X66.225 Y31.210 Z-0.000 F780.000
G1 X66.223 Y31.196 Z-0.000 F780.000
G1 X66.197 Y31.001 Z-0.000 F780.000
G1 X66.197 Y30.994 Z-0.000 F780.000
G1 X66.197 Y30.988 Z-0.000 F780.000
G1 X66.197 Y22.358 Z-0.000 F780.000
G1 X66.175 Y22.342 Z-0.000 F780.000
G1 X66.162 Y22.333 Z-0.000 F780.000
G1 X66.153 Y22.321 Z-0.000 F780.000
G1 X65.970 Y22.080 Z-0.000 F780.000
G1 X65.963 Y22.069 Z-0.000 F780.000
G1 X65.958 Y22.058 Z-0.000 F780.000
G1 X65.841 Y21.776 Z-0.000 F780.000
G1 X65.836 Y21.764 Z-0.000 F780.000
G1 X65.834 Y21.751 Z-0.000 F780.000
G1 X65.794 Y21.451 Z-0.000 F780.000
G1 X65.792 Y21.438 Z-0.000 F780.000
G1 X65.794 Y21.424 Z-0.000 F780.000
G1 X65.834 Y21.122 Z-0.000 F780.000
G1 X65.836 Y21.109 Z-0.000 F780.000
G1 X65.841 Y21.097 Z-0.000 F780.000
G1 X65.958 Y20.815 Z-0.000 F780.000
G1 X65.963 Y20.803 Z-0.000 F780.000
G1 X65.970 Y20.793 Z-0.000 F780.000
G1 X66.153 Y20.552 Z-0.000 F780.000
G1 X66.162 Y20.541 Z-0.000 F780.000
G1 X66.173 Y20.532 Z-0.000 F780.000
G1 X66.414 Y20.350 Z-0.000 F780.000
G1 X66.424 Y20.342 Z-0.000 F780.000
G1 X66.436 Y20.337 Z-0.000 F780.000
G1 X66.718 Y20.220 Z-0.000 F780.000
G1 X66.730 Y20.215 Z-0.000 F780.000
G1 X66.743 Y20.213 Z-0.000 F780.000
G1 X67.043 Y20.173 Z-0.000 F780.000
G1 X67.056 Y20.171 Z-0.000 F780.000
G1 X67.069 Y20.173 Z-0.000 F780.000
G1 X67.372 Y20.213 Z-0.000 F780.000
G1 X67.385 Y20.215 Z-0.000 F780.000
G1 X67.397 Y20.220 Z-0.000 F780.000
G1 X67.678 Y20.337 Z-0.000 F780.000
G1 X67.690 Y20.342 Z-0.000 F780.000
G1 X67.701 Y20.350 Z-0.000 F780.000
G1 X67.942 Y20.532 Z-0.000 F780.000
G1 X67.953 Y20.541 Z-0.000 F780.000
G1 X67.961 Y20.552 Z-0.000 F780.000
G1 X68.144 Y20.793 Z-0.000 F780.000
G1 X68.152 Y20.803 Z-0.000 F780.000
G1 X68.157 Y20.815 Z-0.000 F780.000
G1 X68.274 Y21.097 Z-0.000 F780.000
G1 X68.279 Y21.109 Z-0.000 F780.000
G1 X68.280 Y21.122 Z-0.000 F780.000
G1 X68.321 Y21.424 Z-0.000 F780.000
G1 X68.323 Y21.438 Z-0.000 F780.000
G1 X68.321 Y21.451 Z-0.000 F780.000
G1 X68.280 Y21.751 Z-0.000 F780.000
G1 X68.279 Y21.764 Z-0.000 F780.000
G1 X68.274 Y21.776 Z-0.000 F780.000
G1 X68.157 Y22.058 Z-0.000 F780.000
G1 X68.152 Y22.069 Z-0.000 F780.000
G1 X68.144 Y22.080 Z-0.000 F780.000
G1 X67.961 Y22.321 Z-0.000 F780.000
G1 X67.952 Y22.333 Z-0.000 F780.000
G1 X67.940 Y22.342 Z-0.000 F780.000
G1 X67.918 Y22.358 Z-0.000 F780.000
G1 X67.918 Y30.629 Z-0.000 F780.000
G1 X70.464 Y33.175 Z-0.000 F780.000
G1 X70.464 Y32.385 Z-0.000 F780.000
G1 X70.464 Y32.379 Z-0.000 F780.000
G1 X70.465 Y32.372 Z-0.000 F780.000
G1 X70.490 Y32.174 Z-0.000 F780.000
G1 X70.492 Y32.160 Z-0.000 F780.000
G1 X70.497 Y32.147 Z-0.000 F780.000
G1 X70.520 Y32.094 Z-0.000 F780.000
G1 X70.573 Y31.966 Z-0.000 F780.000
G1 X70.578 Y31.953 Z-0.000 F780.000
G1 X70.586 Y31.943 Z-0.000 F780.000
G1 X70.708 Y31.785 Z-0.000 F780.000
G1 X70.712 Y31.780 Z-0.000 F780.000
G1 X70.717 Y31.776 Z-0.000 F780.000
G1 X71.937 Y30.553 Z-0.000 F780.000
G1 X71.937 Y29.311 Z-0.000 F780.000
G1 X71.885 Y29.244 Z-0.000 F780.000
G1 X71.876 Y29.233 Z-0.000 F780.000
G1 X71.871 Y29.220 Z-0.000 F780.000
G1 X71.777 Y28.989 Z-0.000 F780.000
G1 X71.772 Y28.977 Z-0.000 F780.000
G1 X71.770 Y28.964 Z-0.000 F780.000
G1 X71.737 Y28.715 Z-0.000 F780.000
G1 X71.735 Y28.702 Z-0.000 F780.000
G1 X71.737 Y28.689 Z-0.000 F780.000
G1 X71.770 Y28.437 Z-0.000 F780.000
G1 X71.772 Y28.425 Z-0.000 F780.000
G1 X71.777 Y28.413 Z-0.000 F780.000
G1 X71.871 Y28.182 Z-0.000 F780.000
G1 X71.876 Y28.169 Z-0.000 F780.000
G1 X71.885 Y28.158 Z-0.000 F780.000
G1 X72.039 Y27.960 Z-0.000 F780.000
G1 X72.047 Y27.950 Z-0.000 F780.000
G1 X72.057 Y27.943 Z-0.000 F780.000
G1 X72.255 Y27.788 Z-0.000 F780.000
G1 X72.266 Y27.779 Z-0.000 F780.000
G1 X72.279 Y27.774 Z-0.000 F780.000
G1 X72.510 Y27.680 Z-0.000 F780.000
G1 X72.522 Y27.675 Z-0.000 F780.000
G1 X72.534 Y27.673 Z-0.000 F780.000
G1 X72.783 Y27.640 Z-0.000 F780.000
G1 X72.796 Y27.638 Z-0.000 F780.000
G1 X72.809 Y27.640 Z-0.000 F780.000
G1 X73.061 Y27.673 Z-0.000 F780.000
G1 X73.074 Y27.675 Z-0.000 F780.000
G1 X73.086 Y27.680 Z-0.000 F780.000
G1 X73.317 Y27.774 Z-0.000 F780.000
G1 X73.330 Y27.779 Z-0.000 F780.000
G1 X73.341 Y27.788 Z-0.000 F780.000
G1 X73.539 Y27.943 Z-0.000 F780.000
G1 X73.548 Y27.950 Z-0.000 F780.000
G1 X73.556 Y27.960 Z-0.000 F780.000
G1 X73.711 Y28.158 Z-0.000 F780.000
G1 X73.719 Y28.169 Z-0.000 F780.000
G1 X73.725 Y28.182 Z-0.000 F780.000
G1 X73.819 Y28.413 Z-0.000 F780.000
G1 X73.823 Y28.425 Z-0.000 F780.000
G1 X73.825 Y28.437 Z-0.000 F780.000
G1 X73.842 Y28.565 Z-0.000 F780.000
G1 X73.842 Y25.527 Z-0.000 F780.000
G1 X73.842 Y25.521 Z-0.000 F780.000
G1 X73.843 Y25.514 Z-0.000 F780.000
G1 X73.868 Y25.316 Z-0.000 F780.000
G1 X73.870 Y25.302 Z-0.000 F780.000
G1 X73.875 Y25.289 Z-0.000 F780.000
G1 X73.898 Y25.236 Z-0.000 F780.000
G1 X73.951 Y25.108 Z-0.000 F780.000
G1 X73.956 Y25.095 Z-0.000 F780.000
G1 X73.964 Y25.085 Z-0.000 F780.000
G1 X74.086 Y24.927 Z-0.000 F780.000
G1 X74.090 Y24.922 Z-0.000 F780.000
G1 X74.095 Y24.918 Z-0.000 F780.000
G1 X76.814 Y22.196 Z-0.000 F780.000
G1 X76.814 Y7.639 Z-0.000 F780.000
G1 X76.707 Y7.501 Z-0.000 F780.000
G1 X76.699 Y7.490 Z-0.000 F780.000
G1 X76.694 Y7.478 Z-0.000 F780.000
G1 X76.583 Y7.209 Z-0.000 F780.000
